<?xml version="1.0" encoding="UTF-8"?>
<map version="1.10" tiledversion="1.11.2" orientation="orthogonal" renderorder="right-down" width="123" height="28" tilewidth="16" tileheight="16" infinite="0" nextlayerid="3" nextobjectid="1">
 <properties>
  <property name="priority" type="bool" value="true"/>
 </properties>
 <tileset firstgid="1" name="tiles" tilewidth="16" tileheight="16" tilecount="252" columns="16">
  <image source="vt.png" width="256" height="256"/>
  <tile id="0">
   <objectgroup draworder="index" id="2">
    <object id="1" x="0" y="0">
     <polygon points="0,0 16,0 16,16 0,16"/>
    </object>
   </objectgroup>
  </tile>
  <tile id="1">
   <objectgroup draworder="index" id="2">
    <object id="1" x="0" y="0">
     <polygon points="0,0 16,0 16,16 0,16"/>
    </object>
   </objectgroup>
  </tile>
  <tile id="2">
   <objectgroup draworder="index" id="2">
    <object id="1" x="0" y="0">
     <polygon points="0,0 16,0 16,16 0,16"/>
    </object>
   </objectgroup>
  </tile>
  <tile id="3">
   <objectgroup draworder="index" id="2">
    <object id="1" x="0" y="0">
     <polygon points="0,0 16,0 16,16 0,16"/>
    </object>
   </objectgroup>
  </tile>
  <tile id="4">
   <objectgroup draworder="index" id="2">
    <object id="1" x="0" y="0">
     <polygon points="0,0 16,0 16,16 0,16"/>
    </object>
   </objectgroup>
  </tile>
  <tile id="5">
   <objectgroup draworder="index" id="2">
    <object id="1" x="0" y="0">
     <polygon points="0,0 16,0 16,16 0,16"/>
    </object>
   </objectgroup>
  </tile>
  <tile id="6">
   <objectgroup draworder="index" id="2">
    <object id="1" x="0" y="0">
     <polygon points="0,0 16,0 16,16 0,16"/>
    </object>
   </objectgroup>
  </tile>
  <tile id="7">
   <objectgroup draworder="index" id="2">
    <object id="1" x="0" y="0">
     <polygon points="0,0 16,0 16,16 0,16"/>
    </object>
   </objectgroup>
  </tile>
  <tile id="8">
   <objectgroup draworder="index" id="2">
    <object id="1" x="0" y="0">
     <polygon points="0,0 16,0 16,16 0,16"/>
    </object>
   </objectgroup>
  </tile>
  <tile id="12">
   <objectgroup draworder="index" id="2">
    <object id="1" x="0" y="0">
     <polygon points="0,0 16,0 16,16 0,16"/>
    </object>
   </objectgroup>
  </tile>
  <tile id="13">
   <objectgroup draworder="index" id="2">
    <object id="1" x="0" y="0">
     <polygon points="0,0 16,0 16,16 0,16"/>
    </object>
   </objectgroup>
  </tile>
  <tile id="14">
   <objectgroup draworder="index" id="2">
    <object id="1" x="0" y="0">
     <polygon points="0,0 16,0 16,16 0,16"/>
    </object>
   </objectgroup>
  </tile>
  <tile id="15">
   <objectgroup draworder="index" id="2">
    <object id="1" x="0" y="0">
     <polygon points="0,0 16,0 16,16 0,16"/>
    </object>
   </objectgroup>
  </tile>
  <tile id="16">
   <objectgroup draworder="index" id="2">
    <object id="1" x="0" y="0">
     <polygon points="0,0 16,0 16,16 0,16"/>
    </object>
   </objectgroup>
   <animation>
    <frame tileid="16" duration="400"/>
    <frame tileid="77" duration="400"/>
    <frame tileid="16" duration="400"/>
    <frame tileid="95" duration="400"/>
   </animation>
  </tile>
  <tile id="17">
   <objectgroup draworder="index" id="2">
    <object id="1" x="0" y="0">
     <polygon points="0,0 16,0 16,16 0,16"/>
    </object>
   </objectgroup>
   <animation>
    <frame tileid="17" duration="400"/>
    <frame tileid="78" duration="400"/>
    <frame tileid="17" duration="400"/>
    <frame tileid="96" duration="400"/>
   </animation>
  </tile>
  <tile id="18">
   <objectgroup draworder="index" id="2">
    <object id="1" x="0" y="0">
     <polygon points="0,0 16,0 16,16 0,16"/>
    </object>
   </objectgroup>
  </tile>
  <tile id="19">
   <objectgroup draworder="index" id="2">
    <object id="1" x="0" y="0">
     <polygon points="0,0 16,0 16,16 0,16"/>
    </object>
   </objectgroup>
  </tile>
  <tile id="21">
   <animation>
    <frame tileid="21" duration="400"/>
    <frame tileid="79" duration="400"/>
    <frame tileid="21" duration="400"/>
    <frame tileid="97" duration="400"/>
   </animation>
  </tile>
  <tile id="23">
   <animation>
    <frame tileid="23" duration="400"/>
    <frame tileid="80" duration="400"/>
    <frame tileid="23" duration="400"/>
    <frame tileid="98" duration="400"/>
   </animation>
  </tile>
  <tile id="25">
   <objectgroup draworder="index" id="2">
    <object id="1" x="0" y="0">
     <polygon points="0,0 16,0 16,16 0,16"/>
    </object>
   </objectgroup>
  </tile>
  <tile id="26">
   <objectgroup draworder="index" id="2">
    <object id="1" x="0" y="0">
     <polygon points="0,0 16,0 16,16 0,16"/>
    </object>
   </objectgroup>
  </tile>
  <tile id="27">
   <objectgroup draworder="index" id="2">
    <object id="1" x="0" y="0">
     <polygon points="0,0 16,0 16,16 0,16"/>
    </object>
   </objectgroup>
  </tile>
  <tile id="28">
   <animation>
    <frame tileid="28" duration="400"/>
    <frame tileid="81" duration="400"/>
    <frame tileid="28" duration="400"/>
    <frame tileid="99" duration="400"/>
   </animation>
  </tile>
  <tile id="29">
   <objectgroup draworder="index" id="2">
    <object id="1" x="0" y="0">
     <polygon points="0,0 16,0 16,16 0,16"/>
    </object>
   </objectgroup>
   <animation>
    <frame tileid="29" duration="400"/>
    <frame tileid="82" duration="400"/>
    <frame tileid="29" duration="400"/>
    <frame tileid="100" duration="400"/>
   </animation>
  </tile>
  <tile id="30">
   <objectgroup draworder="index" id="2">
    <object id="1" x="0" y="0">
     <polygon points="0,0 16,0 16,16 0,16"/>
    </object>
   </objectgroup>
  </tile>
  <tile id="31">
   <objectgroup draworder="index" id="2">
    <object id="1" x="0" y="0">
     <polygon points="0,0 16,0 16,16 0,16"/>
    </object>
   </objectgroup>
  </tile>
  <tile id="34">
   <animation>
    <frame tileid="34" duration="400"/>
    <frame tileid="83" duration="400"/>
    <frame tileid="34" duration="400"/>
    <frame tileid="101" duration="400"/>
   </animation>
  </tile>
  <tile id="35">
   <animation>
    <frame tileid="35" duration="400"/>
    <frame tileid="84" duration="400"/>
    <frame tileid="35" duration="400"/>
    <frame tileid="102" duration="400"/>
   </animation>
  </tile>
  <tile id="36">
   <objectgroup draworder="index" id="2">
    <object id="1" x="0" y="0">
     <polygon points="0,0 16,0 16,16 0,16"/>
    </object>
   </objectgroup>
  </tile>
  <tile id="37">
   <objectgroup draworder="index" id="2">
    <object id="1" x="0" y="0">
     <polygon points="0,0 16,0 16,16 0,16"/>
    </object>
   </objectgroup>
  </tile>
  <tile id="39">
   <animation>
    <frame tileid="39" duration="400"/>
    <frame tileid="85" duration="400"/>
    <frame tileid="39" duration="400"/>
    <frame tileid="103" duration="400"/>
   </animation>
  </tile>
  <tile id="41">
   <objectgroup draworder="index" id="2">
    <object id="1" x="0" y="0">
     <polygon points="0,0 16,0 16,16 0,16"/>
    </object>
   </objectgroup>
  </tile>
  <tile id="47">
   <objectgroup draworder="index" id="2">
    <object id="1" x="0" y="0">
     <polygon points="0,0 16,0 16,16 0,16"/>
    </object>
   </objectgroup>
  </tile>
  <tile id="48">
   <objectgroup draworder="index" id="2">
    <object id="1" x="0" y="0">
     <polygon points="0,0 16,0 16,16 0,16"/>
    </object>
   </objectgroup>
  </tile>
  <tile id="49">
   <objectgroup draworder="index" id="2">
    <object id="1" x="0" y="0">
     <polygon points="0,0 16,0 16,16 0,16"/>
    </object>
   </objectgroup>
  </tile>
  <tile id="50">
   <objectgroup draworder="index" id="2">
    <object id="1" x="0" y="0">
     <polygon points="0,0 16,0 16,16 0,16"/>
    </object>
   </objectgroup>
  </tile>
  <tile id="51">
   <objectgroup draworder="index" id="2">
    <object id="1" x="0" y="0">
     <polygon points="0,0 16,0 16,16 0,16"/>
    </object>
   </objectgroup>
  </tile>
  <tile id="52">
   <objectgroup draworder="index" id="2">
    <object id="1" x="0" y="0">
     <polygon points="0,0 16,0 16,16 0,16"/>
    </object>
   </objectgroup>
  </tile>
  <tile id="53">
   <objectgroup draworder="index" id="2">
    <object id="1" x="0" y="0">
     <polygon points="0,0 16,0 16,16 0,16"/>
    </object>
   </objectgroup>
  </tile>
  <tile id="54">
   <objectgroup draworder="index" id="2">
    <object id="1" x="0" y="0">
     <polygon points="0,0 16,0 16,16 0,16"/>
    </object>
   </objectgroup>
  </tile>
  <tile id="55">
   <objectgroup draworder="index" id="2">
    <object id="1" x="0" y="0">
     <polygon points="0,0 16,0 16,16 0,16"/>
    </object>
   </objectgroup>
  </tile>
  <tile id="56">
   <objectgroup draworder="index" id="2">
    <object id="1" x="0" y="0">
     <polygon points="0,0 16,0 16,16 0,16"/>
    </object>
   </objectgroup>
  </tile>
  <tile id="57">
   <objectgroup draworder="index" id="2">
    <object id="1" x="0" y="0">
     <properties>
      <property name="type" type="int" value="2"/>
     </properties>
     <polygon points="0,0 16,0 16,16 0,16"/>
    </object>
   </objectgroup>
   <animation>
    <frame tileid="57" duration="400"/>
    <frame tileid="86" duration="400"/>
    <frame tileid="57" duration="400"/>
    <frame tileid="104" duration="400"/>
   </animation>
  </tile>
  <tile id="58">
   <objectgroup draworder="index" id="2">
    <object id="1" x="0" y="0">
     <polygon points="0,0 16,0 16,16 0,16"/>
    </object>
   </objectgroup>
  </tile>
  <tile id="59">
   <objectgroup draworder="index" id="2">
    <object id="1" x="0" y="0">
     <polygon points="0,0 16,0 16,16 0,16"/>
    </object>
   </objectgroup>
   <animation>
    <frame tileid="59" duration="400"/>
    <frame tileid="87" duration="400"/>
    <frame tileid="59" duration="400"/>
    <frame tileid="105" duration="400"/>
   </animation>
  </tile>
  <tile id="60">
   <objectgroup draworder="index" id="2">
    <object id="1" x="0" y="0">
     <properties>
      <property name="type" type="int" value="2"/>
     </properties>
     <polygon points="0,0 16,0 16,16 0,16"/>
    </object>
   </objectgroup>
   <animation>
    <frame tileid="60" duration="400"/>
    <frame tileid="88" duration="400"/>
    <frame tileid="60" duration="400"/>
    <frame tileid="106" duration="400"/>
   </animation>
  </tile>
  <tile id="61">
   <objectgroup draworder="index" id="2">
    <object id="1" x="0" y="0">
     <polygon points="0,0 16,0 16,16 0,16"/>
    </object>
   </objectgroup>
  </tile>
  <tile id="62">
   <objectgroup draworder="index" id="2">
    <object id="1" x="0" y="0">
     <polygon points="0,0 16,0 16,16 0,16"/>
    </object>
   </objectgroup>
   <animation>
    <frame tileid="62" duration="400"/>
    <frame tileid="89" duration="400"/>
    <frame tileid="62" duration="400"/>
    <frame tileid="107" duration="400"/>
   </animation>
  </tile>
  <tile id="63">
   <objectgroup draworder="index" id="2">
    <object id="1" x="0" y="0">
     <properties>
      <property name="type" type="int" value="2"/>
     </properties>
     <polygon points="0,0 16,0 16,16 0,16"/>
    </object>
   </objectgroup>
  </tile>
  <tile id="64">
   <properties>
    <property name="spikes" type="int" value="1"/>
   </properties>
  </tile>
  <tile id="66">
   <objectgroup draworder="index" id="2">
    <object id="1" x="0" y="0">
     <polygon points="0,0 16,0 16,16 0,16"/>
    </object>
   </objectgroup>
  </tile>
  <tile id="67">
   <objectgroup draworder="index" id="2">
    <object id="1" x="0" y="0">
     <polygon points="0,0 16,8 16,16 0,16"/>
    </object>
   </objectgroup>
  </tile>
  <tile id="68">
   <objectgroup draworder="index" id="2">
    <object id="1" x="0" y="8">
     <polygon points="0,0 16,8 0,8"/>
    </object>
   </objectgroup>
  </tile>
  <tile id="69">
   <objectgroup draworder="index" id="2">
    <object id="1" x="0" y="0">
     <polygon points="0,0 16,0 16,16 0,16"/>
    </object>
   </objectgroup>
  </tile>
  <tile id="70">
   <objectgroup draworder="index" id="2">
    <object id="1" x="0" y="0">
     <polygon points="0,0 16,0 16,16 0,16"/>
    </object>
   </objectgroup>
  </tile>
  <tile id="71">
   <objectgroup draworder="index" id="2">
    <object id="1" x="0" y="0">
     <properties>
      <property name="type" type="int" value="2"/>
     </properties>
     <polygon points="0,0 16,0 16,16 0,16"/>
    </object>
   </objectgroup>
   <animation>
    <frame tileid="71" duration="400"/>
    <frame tileid="90" duration="400"/>
    <frame tileid="71" duration="400"/>
    <frame tileid="108" duration="400"/>
   </animation>
  </tile>
  <tile id="72">
   <objectgroup draworder="index" id="2">
    <object id="1" x="0" y="0">
     <polygon points="0,0 16,0 16,16 0,16"/>
    </object>
   </objectgroup>
  </tile>
  <tile id="73">
   <objectgroup draworder="index" id="2">
    <object id="1" x="0" y="0">
     <polygon points="0,0 16,0 16,16 0,16"/>
    </object>
   </objectgroup>
   <animation>
    <frame tileid="73" duration="400"/>
    <frame tileid="91" duration="400"/>
    <frame tileid="73" duration="400"/>
    <frame tileid="109" duration="400"/>
   </animation>
  </tile>
  <tile id="74">
   <objectgroup draworder="index" id="2">
    <object id="1" x="0" y="0">
     <polygon points="0,0 16,0 16,16 0,16"/>
    </object>
   </objectgroup>
   <animation>
    <frame tileid="74" duration="400"/>
    <frame tileid="92" duration="400"/>
    <frame tileid="74" duration="400"/>
    <frame tileid="110" duration="400"/>
   </animation>
  </tile>
  <tile id="75">
   <objectgroup draworder="index" id="2">
    <object id="1" x="0" y="0">
     <polygon points="0,0 16,0 16,16 0,16"/>
    </object>
   </objectgroup>
   <animation>
    <frame tileid="75" duration="400"/>
    <frame tileid="93" duration="400"/>
    <frame tileid="75" duration="400"/>
    <frame tileid="111" duration="400"/>
   </animation>
  </tile>
  <tile id="76">
   <objectgroup draworder="index" id="2">
    <object id="1" x="0" y="0">
     <polygon points="0,0 16,0 16,16 0,16"/>
    </object>
   </objectgroup>
   <animation>
    <frame tileid="76" duration="400"/>
    <frame tileid="94" duration="400"/>
    <frame tileid="76" duration="400"/>
    <frame tileid="112" duration="400"/>
   </animation>
  </tile>
 </tileset>
 <layer id="1" name="layer0" width="123" height="28">
  <properties>
   <property name="collision" type="bool" value="true"/>
  </properties>
  <data encoding="csv">
14,15,14,15,14,15,14,15,1,2,30,17,3,4,4,4,4,4,4,4,4,4,4,4,4,4,4,4,4,4,4,4,4,4,4,4,4,4,4,4,4,4,4,4,4,4,4,5,6,7,4,5,8,15,14,15,14,15,14,15,14,15,14,15,14,26,4,4,4,4,4,4,37,9,14,15,14,15,14,15,14,15,14,15,14,15,14,15,14,15,16,30,4,4,4,4,4,4,4,3,4,4,4,4,31,3,18,6,7,17,7,7,18,7,17,7,6,18,7,6,17,7,6,
10,11,12,10,10,11,12,10,10,13,14,15,16,6,17,6,7,18,7,6,17,6,7,18,7,6,17,6,7,18,7,6,17,6,7,18,7,6,17,6,7,18,7,6,17,6,7,17,19,14,15,14,20,10,10,10,10,10,21,22,23,24,25,10,10,26,27,4,4,4,4,4,17,28,21,25,10,10,10,10,10,10,29,10,10,10,10,10,10,10,13,16,3,4,4,4,4,4,3,30,7,17,7,17,31,30,28,14,15,14,15,14,15,14,32,15,14,15,14,15,14,15,14,
10,33,34,10,10,33,34,10,10,10,10,10,13,15,14,15,14,15,14,15,14,15,14,15,14,15,14,15,14,15,14,15,14,15,14,15,14,15,14,15,14,15,14,15,14,15,14,15,20,10,10,10,10,10,10,10,10,10,21,35,23,24,36,25,10,26,4,4,4,4,4,4,37,28,10,21,25,10,10,10,10,21,35,23,23,22,23,25,10,10,10,26,37,4,4,4,4,7,30,19,14,14,15,38,31,31,28,10,10,10,10,10,10,10,32,10,10,10,10,10,10,10,10,
12,33,34,11,12,33,34,11,12,10,11,39,39,12,10,10,10,10,11,39,39,12,10,10,11,39,39,12,10,10,11,39,12,10,10,11,39,12,10,10,11,39,12,10,10,11,39,12,10,10,11,39,12,10,10,10,10,10,21,35,25,40,40,10,10,26,4,4,4,4,4,37,28,20,21,22,25,10,10,41,10,10,29,10,21,24,22,23,25,10,10,26,31,30,7,30,7,30,31,28,10,10,10,38,18,30,28,10,10,10,10,10,10,10,42,10,10,41,10,10,41,10,10,
43,33,34,44,43,33,34,44,43,10,44,45,45,43,10,10,10,10,44,45,45,43,10,10,44,45,45,43,10,10,44,45,43,10,10,33,46,34,10,10,33,46,34,10,10,33,46,34,10,10,33,46,34,10,10,41,10,10,21,35,23,24,24,25,10,26,27,4,4,4,4,4,28,10,10,29,10,10,10,47,10,21,35,36,23,24,35,23,23,36,25,26,30,31,30,7,30,31,19,20,10,10,10,13,20,20,20,10,10,10,10,48,10,10,10,10,10,47,10,10,47,10,10,
10,33,34,10,10,33,34,10,10,10,49,50,51,50,51,50,51,50,51,50,51,50,51,52,10,10,10,10,49,50,51,50,51,50,52,33,46,34,11,12,33,46,34,11,12,33,46,34,11,12,33,46,34,10,10,47,10,10,10,29,21,24,24,25,10,26,4,4,4,4,4,37,28,10,10,29,10,10,10,47,10,10,29,40,10,40,29,10,10,40,10,13,16,6,19,15,16,6,28,10,10,10,41,10,10,10,10,10,10,10,10,32,10,10,10,10,10,47,10,10,47,10,10,
10,44,44,10,10,44,43,10,10,10,26,17,53,54,18,54,53,54,18,19,15,20,10,10,10,10,10,10,10,26,53,54,18,54,55,33,46,34,44,43,33,46,34,44,43,33,46,34,44,43,33,46,34,10,10,47,10,10,21,35,22,24,24,25,10,26,4,4,4,4,4,4,28,10,10,29,10,10,10,49,52,10,29,40,10,49,51,52,10,40,10,10,13,14,20,10,13,14,20,10,10,10,47,10,10,49,52,10,10,51,49,32,52,51,50,51,50,51,50,51,50,51,50,
51,50,51,50,51,50,51,50,51,50,56,16,4,4,4,30,31,28,15,20,10,10,10,10,10,10,10,10,10,38,31,4,4,4,55,33,46,34,10,10,33,46,34,10,10,33,46,34,10,10,33,46,34,49,50,51,52,10,10,29,29,40,40,10,10,26,27,4,4,4,4,37,55,52,10,29,10,10,10,26,57,58,58,58,58,59,54,55,10,40,10,10,32,10,32,10,32,10,32,41,10,10,49,51,50,26,28,11,12,38,54,18,54,18,54,53,60,54,53,18,54,53,60,
53,54,53,54,53,54,53,54,53,54,53,4,4,4,27,28,15,20,11,12,10,10,10,10,10,10,10,10,10,38,27,4,4,17,55,44,45,43,49,52,44,45,43,49,52,44,45,43,49,52,44,45,43,26,30,53,55,10,10,29,49,52,40,10,10,26,4,4,4,4,4,19,20,20,10,29,10,11,12,26,57,61,61,61,61,59,4,55,10,40,10,10,32,10,32,10,32,10,32,47,10,10,38,18,31,30,28,33,34,38,18,6,18,6,18,6,31,31,31,31,31,31,31,
4,4,4,4,4,4,4,4,4,4,4,4,4,4,30,28,10,10,33,34,10,49,51,52,10,10,10,10,13,14,38,7,30,19,62,50,51,50,26,55,51,50,51,26,55,50,51,50,26,55,51,50,51,56,16,4,28,58,58,58,58,58,58,58,58,59,4,4,4,6,30,28,44,43,10,29,10,33,34,63,57,64,64,64,64,59,4,55,52,40,10,10,42,10,32,10,42,10,13,52,10,10,13,15,38,6,28,33,34,38,28,15,14,15,14,15,16,31,4,4,4,4,4,
4,4,4,4,4,4,4,4,4,4,4,4,4,4,27,28,10,10,10,10,51,56,15,20,21,23,36,25,65,65,14,14,14,16,30,54,53,17,53,54,18,54,53,17,53,54,18,54,53,17,53,54,18,54,4,4,28,61,61,61,61,61,61,61,61,59,27,4,27,19,20,20,10,10,10,29,49,51,50,26,57,64,64,64,64,59,17,19,20,40,10,10,10,10,32,10,10,10,10,42,10,10,10,10,13,20,20,33,34,38,28,46,46,46,46,46,26,31,4,4,4,4,4,
4,4,4,4,4,4,4,4,4,4,4,4,4,4,4,55,52,11,12,49,56,20,65,65,21,23,24,25,10,10,10,10,10,13,15,16,30,7,6,17,6,7,17,7,6,7,27,4,4,4,4,4,4,4,4,4,28,64,64,64,64,64,64,64,64,59,4,6,30,28,10,10,10,41,10,29,10,10,10,38,57,64,64,64,64,59,4,55,10,40,10,10,10,10,42,21,25,10,10,10,10,10,41,10,10,10,10,33,34,38,28,46,49,50,52,46,26,18,4,4,4,4,4,
4,4,4,4,4,4,4,4,4,4,4,4,4,4,4,30,28,33,34,38,55,65,21,22,36,66,24,22,23,25,10,10,10,10,10,13,15,14,15,14,15,14,15,14,15,16,30,27,4,4,4,4,4,4,4,4,55,50,51,50,51,67,51,51,51,38,4,19,13,20,10,10,10,47,10,29,10,10,10,26,57,64,64,64,64,59,4,55,10,40,10,10,21,22,23,23,36,25,10,10,10,10,47,10,10,10,10,33,34,26,28,46,46,46,46,46,26,31,4,4,4,4,4,
4,4,4,4,4,4,4,4,4,4,4,4,4,4,4,28,20,33,34,13,20,10,10,29,40,21,24,35,23,22,25,10,10,10,10,10,10,10,10,10,10,10,11,12,10,13,16,7,6,27,4,4,4,4,4,4,53,53,53,53,53,53,53,53,53,53,30,28,10,10,10,41,10,47,10,29,10,10,10,38,57,64,64,64,64,59,17,55,10,40,10,10,10,29,21,36,24,25,10,10,10,10,49,50,51,50,51,50,51,38,28,46,49,50,52,46,38,17,6,7,27,4,4,
4,4,4,4,4,4,4,4,4,4,4,4,4,4,27,28,10,33,34,10,10,10,21,35,24,23,24,35,22,35,66,36,36,25,10,10,10,10,10,10,41,10,33,34,10,10,13,14,16,30,6,27,4,4,4,4,4,4,4,4,4,4,4,4,4,4,19,20,10,10,10,47,10,49,52,29,10,10,10,26,57,64,64,64,64,59,4,55,10,40,10,10,21,35,22,24,24,25,10,10,10,10,13,15,20,46,46,46,46,13,20,46,26,54,55,45,13,14,15,16,18,4,4,
4,4,4,4,4,4,4,4,4,4,4,4,4,4,30,28,10,44,43,10,10,10,10,29,40,10,40,29,29,29,10,40,40,10,10,10,10,10,10,10,47,10,44,43,10,10,11,12,13,14,16,6,17,6,7,17,7,6,17,6,7,17,7,6,17,6,28,10,10,41,10,47,10,38,55,29,10,10,10,38,57,64,64,64,64,59,4,55,10,49,51,52,10,29,29,40,40,10,10,10,10,10,33,46,46,46,49,52,46,46,46,46,38,30,55,10,10,10,10,26,4,4,4,
4,4,4,4,4,4,4,4,4,4,4,4,4,4,27,55,52,51,50,51,50,51,52,29,40,49,52,29,29,29,49,52,40,10,10,49,50,51,50,51,50,51,68,69,10,10,33,34,10,10,13,15,14,15,14,15,14,15,14,15,14,15,14,15,14,15,20,10,10,47,10,49,51,56,28,29,10,10,10,38,57,64,64,64,64,59,4,55,10,32,32,32,10,29,29,40,40,49,50,52,10,10,49,50,52,46,38,55,51,50,52,46,26,4,28,41,10,10,41,26,18,4,4,
4,4,4,4,4,4,4,4,4,4,4,4,4,4,4,53,54,53,54,19,32,32,32,29,40,32,32,29,29,29,32,32,40,10,10,38,54,17,54,53,17,53,70,71,68,69,44,43,10,10,11,12,10,10,11,12,10,10,11,12,10,10,11,12,10,10,11,12,10,47,10,26,30,53,57,58,58,58,58,59,57,64,64,64,64,59,4,57,58,58,58,58,58,58,58,58,58,58,58,58,58,58,26,54,28,46,13,14,14,15,20,46,38,4,55,47,10,10,47,26,4,4,4,
4,4,4,4,4,4,4,4,4,4,4,4,4,4,4,4,4,4,4,57,58,58,58,58,58,58,58,58,58,58,58,58,58,58,58,59,4,4,4,4,4,4,60,27,70,71,68,69,10,10,33,34,10,10,33,34,10,10,33,34,10,10,33,34,10,10,33,34,10,49,50,56,27,4,57,72,72,72,72,59,57,64,64,64,64,59,4,57,72,72,72,72,72,72,72,72,72,72,72,72,72,72,59,30,28,46,46,46,46,46,46,46,26,4,28,47,10,10,47,26,27,4,4,
4,4,4,4,4,4,4,4,4,4,4,4,4,4,4,4,4,4,4,57,61,61,61,61,61,61,61,61,61,61,61,61,61,61,61,59,4,4,4,4,4,4,4,4,60,27,70,71,68,69,44,43,10,10,44,43,10,10,44,43,10,10,44,43,10,10,44,43,10,26,30,53,73,4,57,61,61,61,61,59,57,64,64,64,64,59,4,57,61,61,61,61,61,61,61,61,61,61,61,61,61,61,59,4,28,50,51,50,51,50,51,50,26,4,55,50,51,51,50,26,18,4,4,
4,4,4,4,4,4,4,4,4,4,4,4,4,4,4,4,4,4,4,57,64,64,64,64,64,64,64,64,64,64,64,64,64,64,64,59,4,4,4,4,4,4,4,4,4,4,60,27,70,71,50,51,52,74,74,75,76,77,74,75,76,77,74,75,76,77,74,75,74,26,6,7,4,4,57,64,64,64,64,59,57,64,64,64,64,59,4,57,64,64,64,64,64,64,64,64,64,64,64,64,64,64,59,4,30,54,18,54,18,54,18,54,30,4,30,54,18,18,54,30,4,4,4,
4,4,4,4,4,4,4,4,4,4,4,4,4,4,4,4,4,4,4,57,64,64,64,64,64,64,64,64,64,64,64,64,64,64,64,59,4,4,4,4,4,4,4,4,4,4,4,4,60,27,54,30,55,58,58,58,58,58,58,58,58,58,58,58,58,58,58,58,58,77,75,16,4,4,57,64,64,64,64,59,57,64,64,64,64,59,4,57,64,64,64,64,64,64,64,64,64,64,64,64,64,64,59,4,4,4,4,4,4,4,4,4,4,4,4,4,4,4,4,4,4,4,4,
4,4,4,4,4,4,4,4,4,4,4,4,4,4,4,4,4,4,4,57,64,64,64,64,64,64,64,64,64,64,64,64,64,64,64,59,4,4,4,4,4,4,4,4,4,4,4,4,4,4,4,4,28,72,72,72,72,72,72,72,72,72,72,72,72,72,72,72,72,72,72,59,4,4,57,64,64,64,64,59,57,64,64,64,64,59,4,57,64,64,64,64,64,64,64,64,64,64,64,64,64,64,59,4,4,4,4,4,4,4,4,4,4,4,4,4,4,4,4,4,4,4,4,
4,4,4,4,4,4,4,4,4,4,4,4,4,4,4,4,4,4,4,57,64,64,64,64,64,64,64,64,64,64,64,64,64,64,64,59,4,4,4,4,4,4,4,4,4,4,4,4,4,4,4,4,57,61,61,61,61,61,61,61,61,61,61,61,61,61,61,61,61,61,61,59,4,4,57,64,64,64,64,59,57,64,64,64,64,59,4,57,64,64,64,64,64,64,64,64,64,64,64,64,64,64,59,4,4,4,4,4,4,4,4,4,4,4,4,4,4,4,4,4,4,4,4,
4,4,4,4,4,4,4,4,4,4,4,4,4,4,4,4,4,4,4,57,64,64,64,64,64,64,64,64,64,64,64,64,64,64,64,59,4,4,4,4,4,4,4,4,4,4,4,4,4,4,4,4,57,64,64,64,64,64,64,64,64,64,64,64,64,64,64,64,64,64,64,59,4,4,57,64,64,64,64,59,57,64,64,64,64,59,4,57,64,64,64,64,64,64,64,64,64,64,64,64,64,64,59,4,4,4,4,4,4,4,4,4,4,4,4,4,4,4,4,4,4,4,4,
4,4,4,4,4,4,4,4,4,4,4,4,4,4,4,4,4,4,4,57,64,64,64,64,64,64,64,64,64,64,64,64,64,64,64,59,4,4,4,4,4,4,4,4,4,4,4,4,4,4,4,4,57,64,64,64,64,64,64,64,64,64,64,64,64,64,64,64,64,64,64,59,4,4,57,64,64,64,64,59,57,64,64,64,64,59,4,57,64,64,64,64,64,64,64,64,64,64,64,64,64,64,59,4,4,4,4,4,4,4,4,4,4,4,4,4,4,4,4,4,4,4,4,
4,4,4,4,4,4,4,4,4,4,4,4,4,4,4,4,4,4,4,57,64,64,64,64,64,64,64,64,64,64,64,64,64,64,64,59,4,4,4,4,4,4,4,4,4,4,4,4,4,4,4,4,57,64,64,64,64,64,64,64,64,64,64,64,64,64,64,64,64,64,64,59,4,4,57,64,64,64,64,59,57,64,64,64,64,59,4,57,64,64,64,64,64,64,64,64,64,64,64,64,64,64,59,4,4,4,4,4,4,4,4,4,4,4,4,4,4,4,4,4,4,4,4,
4,4,4,4,4,4,4,4,4,4,4,4,4,4,4,4,4,4,4,57,64,64,64,64,64,64,64,64,64,64,64,64,64,64,64,59,4,4,4,4,4,4,4,4,4,4,4,4,4,4,4,4,57,64,64,64,64,64,64,64,64,64,64,64,64,64,64,64,64,64,64,59,4,4,57,64,64,64,64,59,57,64,64,64,64,59,4,57,64,64,64,64,64,64,64,64,64,64,64,64,64,64,59,4,4,4,4,4,4,4,4,4,4,4,4,4,4,4,4,4,4,4,4
</data>
 </layer>
 <layer id="2" name="layer1" width="123" height="28">
  <properties>
   <property name="priority" type="bool" value="true"/>
  </properties>
  <data encoding="csv">
0,0,0,0,0,0,0,0,0,0,0,0,0,0,0,0,0,0,0,0,0,0,0,0,0,0,0,0,0,0,0,0,0,0,0,0,0,0,0,0,0,0,0,0,0,0,0,0,0,0,0,0,0,0,0,0,0,0,0,0,0,0,0,0,0,0,0,0,0,0,0,0,0,0,0,0,0,0,0,0,0,0,0,0,0,0,0,0,0,0,0,0,0,0,0,0,0,0,0,0,0,0,0,0,0,0,0,0,0,0,0,0,0,0,0,0,0,0,0,0,0,0,0,
0,0,0,0,0,0,0,0,0,0,0,0,0,0,0,0,0,0,0,0,0,0,0,0,0,0,0,0,0,0,0,0,0,0,0,0,0,0,0,0,0,0,0,0,0,0,0,0,0,0,0,0,0,0,0,0,0,0,0,0,0,0,0,0,0,0,0,0,0,0,0,0,0,0,0,0,0,0,0,0,0,0,0,0,0,0,0,0,0,0,0,0,0,0,0,0,0,0,0,0,0,0,0,0,0,0,0,0,0,0,0,0,0,0,0,0,0,0,0,0,0,0,0,
0,0,0,0,0,0,0,0,0,0,0,0,0,0,0,0,0,0,0,0,0,0,0,0,0,0,0,0,0,0,0,0,0,0,0,0,0,0,0,0,0,0,0,0,0,0,0,0,0,0,0,0,0,0,0,0,0,0,0,0,0,0,0,0,0,0,0,0,0,0,0,0,0,0,0,0,0,0,0,0,0,0,0,0,0,0,0,0,0,0,0,0,0,0,0,0,0,0,0,0,0,0,0,0,0,0,0,0,0,0,0,0,0,0,0,0,0,0,0,0,0,0,0,
0,0,0,0,0,0,0,0,0,0,0,0,0,0,0,0,0,0,0,0,0,0,0,0,0,0,0,0,0,0,0,0,0,0,0,0,0,0,0,0,0,0,0,0,0,0,0,0,0,0,0,0,0,0,0,0,0,0,0,0,0,0,0,0,0,0,0,0,0,0,0,0,0,0,0,0,0,0,0,0,0,0,0,0,0,0,0,0,0,0,0,0,0,0,0,0,0,0,0,0,0,0,0,0,0,0,0,0,0,0,0,0,0,0,0,0,0,0,0,0,0,0,0,
0,0,0,0,0,0,0,0,0,0,0,0,0,0,0,0,0,0,0,0,0,0,0,0,0,0,0,0,0,0,0,0,0,0,0,0,0,0,0,0,0,0,0,0,0,0,0,0,0,0,0,0,0,0,0,0,0,0,0,0,0,0,0,0,0,0,0,0,0,0,0,0,0,0,0,0,0,0,0,0,0,0,0,0,0,0,0,0,0,0,0,0,0,0,0,0,0,0,0,0,0,0,0,0,0,0,0,0,0,0,0,0,0,0,0,0,0,0,0,0,0,0,0,
0,0,0,0,0,0,0,0,0,0,0,0,0,0,0,0,0,0,0,0,0,0,0,0,0,0,0,0,0,0,0,0,0,0,0,0,0,0,0,0,0,0,0,0,0,0,0,0,0,0,0,0,0,0,0,0,0,0,0,0,0,0,0,0,0,0,0,0,0,0,0,0,0,0,0,0,0,0,0,0,0,0,0,0,0,0,0,0,0,0,0,0,0,0,0,0,0,0,0,0,0,0,0,0,0,0,0,0,0,0,0,0,0,0,0,0,0,0,0,0,0,0,0,
0,0,0,0,0,0,0,0,0,0,0,0,0,0,0,0,0,0,0,0,0,0,0,0,0,0,0,0,0,0,0,0,0,0,0,0,0,0,0,0,0,0,0,0,0,0,0,0,0,0,0,0,0,0,0,0,0,0,0,0,0,0,0,0,0,0,0,0,0,0,0,0,0,0,0,0,0,0,0,0,0,0,0,0,0,0,0,0,0,0,0,0,0,0,0,0,0,0,0,0,0,0,0,0,0,0,0,0,0,0,0,0,0,0,0,0,0,0,0,0,0,0,0,
0,0,0,0,0,0,0,0,0,0,0,0,0,0,0,0,0,0,0,0,0,0,0,0,0,0,0,0,0,0,0,0,0,0,0,0,0,0,0,0,0,0,0,0,0,0,0,0,0,0,0,0,0,0,0,0,0,0,0,0,0,0,0,0,0,0,0,0,0,0,0,0,0,0,0,0,0,0,0,0,0,58,58,58,58,0,0,0,0,0,0,0,0,0,0,0,0,0,0,0,0,0,0,0,0,0,0,0,0,0,0,0,0,0,0,0,0,0,0,0,0,0,0,
0,0,0,0,0,0,0,0,0,0,0,0,0,0,0,0,0,0,0,0,0,0,0,0,0,0,0,0,0,0,0,0,0,0,0,0,0,0,0,0,0,0,0,0,0,0,0,0,0,0,0,0,0,0,0,0,0,0,0,0,0,0,0,0,0,0,0,0,0,0,0,0,0,0,0,0,0,0,0,0,0,0,0,0,0,0,0,0,0,0,0,0,0,0,0,0,0,0,0,0,0,0,0,0,0,0,0,0,0,0,0,0,0,0,0,0,0,0,0,0,0,0,0,
0,0,0,0,0,0,0,0,0,0,0,0,0,0,0,0,0,0,0,0,0,0,0,0,0,0,0,0,0,0,0,0,0,0,0,0,0,0,0,0,0,0,0,0,0,0,0,0,0,0,0,0,0,0,0,0,0,0,0,0,0,0,0,0,0,0,0,0,0,0,0,0,0,0,0,0,0,0,0,0,0,0,0,0,0,0,0,0,0,0,0,0,0,0,0,0,0,0,0,0,0,0,0,0,0,0,0,0,0,0,0,0,0,0,0,0,0,0,0,0,0,0,0,
0,0,0,0,0,0,0,0,0,0,0,0,0,0,0,0,0,0,0,0,0,0,0,0,0,0,0,0,0,0,0,0,0,0,0,0,0,0,0,0,0,0,0,0,0,0,0,0,0,0,0,0,0,0,0,0,0,0,0,0,0,0,0,0,0,0,0,0,0,0,0,0,0,0,0,0,0,0,0,0,0,0,0,0,0,0,0,0,0,0,0,0,0,0,0,0,0,0,0,0,0,0,0,0,0,0,0,0,0,0,0,0,0,0,0,0,0,0,0,0,0,0,0,
0,0,0,0,0,0,0,0,0,0,0,0,0,0,0,0,0,0,0,0,0,0,0,0,0,0,0,0,0,0,0,0,0,0,0,0,0,0,0,0,0,0,0,0,0,0,0,0,0,0,0,0,0,0,0,0,0,0,0,0,0,0,0,0,0,0,0,0,0,0,0,0,0,0,0,0,0,0,0,0,0,0,0,0,0,0,0,0,0,0,0,0,0,0,0,0,0,0,0,0,0,0,0,0,0,0,0,0,0,0,0,0,0,0,0,0,0,0,0,0,0,0,0,
0,0,0,0,0,0,0,0,0,0,0,0,0,0,0,0,0,0,0,0,0,0,0,0,0,0,0,0,0,0,0,0,0,0,0,0,0,0,0,0,0,0,0,0,0,0,0,0,0,0,0,0,0,0,0,0,0,0,0,0,0,0,0,0,0,0,0,0,0,0,0,0,0,0,0,0,0,0,0,0,0,0,0,0,0,0,0,0,0,0,0,0,0,0,0,0,0,0,0,0,0,0,0,0,0,0,0,0,0,0,0,0,0,0,0,0,0,0,0,0,0,0,0,
0,0,0,0,0,0,0,0,0,0,0,0,0,0,0,0,0,0,0,0,0,0,0,0,0,0,0,0,0,0,0,0,0,0,0,0,0,0,0,0,0,0,0,0,0,0,0,0,0,0,0,0,0,0,0,0,0,0,0,0,0,0,0,0,0,0,0,0,0,0,0,0,0,0,0,0,0,0,0,0,0,0,0,0,0,0,0,0,0,0,0,0,0,0,0,0,0,0,0,0,0,0,0,0,0,0,0,0,0,0,0,0,0,0,0,0,0,0,0,0,0,0,0,
0,0,0,0,0,0,0,0,0,0,0,0,0,0,0,0,0,0,0,0,0,0,0,0,0,0,0,0,0,0,0,0,0,0,0,0,0,0,0,0,0,0,0,0,0,0,0,0,0,0,0,0,0,0,0,0,0,0,0,0,0,0,0,0,0,0,0,0,0,0,0,0,0,0,0,0,0,0,0,0,0,0,0,0,0,0,0,0,0,0,0,0,0,0,0,0,0,0,0,0,0,0,0,0,0,0,0,0,0,0,0,0,0,0,0,0,0,0,0,0,0,0,0,
0,0,0,0,0,0,0,0,0,0,0,0,0,0,0,0,0,0,0,0,0,0,0,0,0,0,0,0,0,0,0,0,0,0,0,0,0,0,0,0,0,0,0,0,0,0,0,0,0,0,0,0,0,0,0,0,0,0,0,0,0,0,0,0,0,0,0,0,0,0,0,0,0,0,0,0,0,0,0,0,0,0,0,0,0,0,0,0,0,0,0,0,0,0,0,0,0,0,0,0,0,0,0,0,0,0,0,0,0,0,0,0,0,0,0,0,0,0,0,0,0,0,0,
0,0,0,0,0,0,0,0,0,0,0,0,0,0,0,0,0,0,0,0,0,0,0,0,0,0,0,0,0,0,0,0,0,0,0,0,0,0,0,0,0,0,0,0,0,0,0,0,0,0,0,0,0,0,0,0,0,0,0,0,0,0,0,0,0,0,0,0,0,0,0,0,0,0,0,0,0,0,0,0,0,0,0,0,0,0,0,0,0,0,0,0,0,0,0,0,0,0,0,0,0,0,0,0,0,0,0,0,0,0,0,0,0,0,0,0,0,0,0,0,0,0,0,
0,0,0,0,0,0,0,0,0,0,0,0,0,0,0,0,0,0,0,0,0,0,0,0,0,0,0,0,0,0,0,0,0,0,0,0,0,0,0,0,0,0,0,0,0,0,0,0,0,0,0,0,0,0,0,0,0,0,0,0,0,0,0,0,0,0,0,0,0,0,0,0,0,0,0,0,0,0,0,0,0,0,0,0,0,0,0,0,58,58,58,58,58,58,58,58,58,58,58,58,58,58,0,0,0,0,0,0,0,0,0,0,0,0,0,0,0,0,0,0,0,0,0,
0,0,0,0,0,0,0,0,0,0,0,0,0,0,0,0,0,0,0,0,58,58,58,58,58,58,58,58,58,58,58,58,58,58,58,0,0,0,0,0,0,0,0,0,0,0,0,0,0,0,0,0,0,0,0,0,0,0,0,0,0,0,0,0,0,0,0,0,0,0,0,0,0,0,0,0,0,0,0,0,0,0,0,0,0,0,0,0,0,0,0,0,0,0,0,0,0,0,0,0,0,0,0,0,0,0,0,0,0,0,0,0,0,0,0,0,0,0,0,0,0,0,0,
0,0,0,0,0,0,0,0,0,0,0,0,0,0,0,0,0,0,0,0,0,0,0,0,0,0,0,0,0,0,0,0,0,0,0,0,0,0,0,0,0,0,0,0,0,0,0,0,0,0,0,0,0,0,0,0,0,0,0,0,0,0,0,0,0,0,0,0,0,0,0,0,0,0,0,0,0,0,0,0,0,0,0,0,0,0,0,0,0,0,0,0,0,0,0,0,0,0,0,0,0,0,0,0,0,0,0,0,0,0,0,0,0,0,0,0,0,0,0,0,0,0,0,
0,0,0,0,0,0,0,0,0,0,0,0,0,0,0,0,0,0,0,0,0,0,0,0,0,0,0,0,0,0,0,0,0,0,0,0,0,0,0,0,0,0,0,0,0,0,0,0,0,0,0,0,0,0,0,0,76,77,0,0,76,77,0,0,76,77,0,0,0,0,0,0,0,0,0,0,0,0,0,0,0,0,0,0,0,0,0,0,0,0,0,0,0,0,0,0,0,0,0,0,0,0,0,0,0,0,0,0,0,0,0,0,0,0,0,0,0,0,0,0,0,0,0,
0,0,0,0,0,0,0,0,0,0,0,0,0,0,0,0,0,0,0,0,0,0,0,0,0,0,0,0,0,0,0,0,0,0,0,0,0,0,0,0,0,0,0,0,0,0,0,0,0,0,0,0,0,0,0,0,0,0,0,0,0,0,0,0,0,0,0,0,0,0,0,0,0,0,0,0,0,0,0,0,0,0,0,0,0,0,0,0,0,0,0,0,0,0,0,0,0,0,0,0,0,0,0,0,0,0,0,0,0,0,0,0,0,0,0,0,0,0,0,0,0,0,0,
0,0,0,0,0,0,0,0,0,0,0,0,0,0,0,0,0,0,0,0,0,0,0,0,0,0,0,0,0,0,0,0,0,0,0,0,0,0,0,0,0,0,0,0,0,0,0,0,0,0,0,0,0,0,0,0,0,0,0,0,0,0,0,0,0,0,0,0,0,0,0,0,0,0,0,0,0,0,0,0,0,0,0,0,0,0,0,0,0,0,0,0,0,0,0,0,0,0,0,0,0,0,0,0,0,0,0,0,0,0,0,0,0,0,0,0,0,0,0,0,0,0,0,
0,0,0,0,0,0,0,0,0,0,0,0,0,0,0,0,0,0,0,0,0,0,0,0,0,0,0,0,0,0,0,0,0,0,0,0,0,0,0,0,0,0,0,0,0,0,0,0,0,0,0,0,0,0,0,0,0,0,0,0,0,0,0,0,0,0,0,0,0,0,0,0,0,0,0,0,0,0,0,0,0,0,0,0,0,0,0,0,0,0,0,0,0,0,0,0,0,0,0,0,0,0,0,0,0,0,0,0,0,0,0,0,0,0,0,0,0,0,0,0,0,0,0,
0,0,0,0,0,0,0,0,0,0,0,0,0,0,0,0,0,0,0,0,0,0,0,0,0,0,0,0,0,0,0,0,0,0,0,0,0,0,0,0,0,0,0,0,0,0,0,0,0,0,0,0,0,0,0,0,0,0,0,0,0,0,0,0,0,0,0,0,0,0,0,0,0,0,0,0,0,0,0,0,0,0,0,0,0,0,0,0,0,0,0,0,0,0,0,0,0,0,0,0,0,0,0,0,0,0,0,0,0,0,0,0,0,0,0,0,0,0,0,0,0,0,0,
0,0,0,0,0,0,0,0,0,0,0,0,0,0,0,0,0,0,0,0,0,0,0,0,0,0,0,0,0,0,0,0,0,0,0,0,0,0,0,0,0,0,0,0,0,0,0,0,0,0,0,0,0,0,0,0,0,0,0,0,0,0,0,0,0,0,0,0,0,0,0,0,0,0,0,0,0,0,0,0,0,0,0,0,0,0,0,0,0,0,0,0,0,0,0,0,0,0,0,0,0,0,0,0,0,0,0,0,0,0,0,0,0,0,0,0,0,0,0,0,0,0,0,
0,0,0,0,0,0,0,0,0,0,0,0,0,0,0,0,0,0,0,0,0,0,0,0,0,0,0,0,0,0,0,0,0,0,0,0,0,0,0,0,0,0,0,0,0,0,0,0,0,0,0,0,0,0,0,0,0,0,0,0,0,0,0,0,0,0,0,0,0,0,0,0,0,0,0,0,0,0,0,0,0,0,0,0,0,0,0,0,0,0,0,0,0,0,0,0,0,0,0,0,0,0,0,0,0,0,0,0,0,0,0,0,0,0,0,0,0,0,0,0,0,0,0,
0,0,0,0,0,0,0,0,0,0,0,0,0,0,0,0,0,0,0,0,0,0,0,0,0,0,0,0,0,0,0,0,0,0,0,0,0,0,0,0,0,0,0,0,0,0,0,0,0,0,0,0,0,0,0,0,0,0,0,0,0,0,0,0,0,0,0,0,0,0,0,0,0,0,0,0,0,0,0,0,0,0,0,0,0,0,0,0,0,0,0,0,0,0,0,0,0,0,0,0,0,0,0,0,0,0,0,0,0,0,0,0,0,0,0,0,0,0,0,0,0,0,0
</data>
 </layer>
</map>
