<?xml version="1.0" encoding="UTF-8"?>
<map version="1.10" tiledversion="1.11.2" orientation="orthogonal" renderorder="right-down" width="123" height="28" tilewidth="16" tileheight="16" infinite="0" nextlayerid="3" nextobjectid="1">
 <properties>
  <property name="priority" type="bool" value="true"/>
 </properties>
 <tileset firstgid="1" name="tiles" tilewidth="16" tileheight="16" tilecount="252" columns="16">
  <image source="vt.png" width="256" height="256"/>
  <tile id="3">
   <objectgroup draworder="index" id="2">
    <object id="1" x="0" y="0">
     <polygon points="0,0 16,0 16,16 0,16"/>
    </object>
   </objectgroup>
  </tile>
  <tile id="113">
   <objectgroup draworder="index" id="2">
    <object id="1" x="0" y="0">
     <polygon points="0,0 16,0 16,16 0,16"/>
    </object>
   </objectgroup>
  </tile>
  <tile id="114">
   <objectgroup draworder="index" id="2">
    <object id="1" x="0" y="0">
     <polygon points="0,0 16,0 16,16 0,16"/>
    </object>
   </objectgroup>
   <animation>
    <frame tileid="114" duration="400"/>
    <frame tileid="128" duration="400"/>
    <frame tileid="114" duration="400"/>
    <frame tileid="134" duration="400"/>
   </animation>
  </tile>
  <tile id="7">
   <objectgroup draworder="index" id="2">
    <object id="1" x="0" y="0">
     <polygon points="0,0 16,0 16,16 0,16"/>
    </object>
   </objectgroup>
  </tile>
  <tile id="115">
   <objectgroup draworder="index" id="2">
    <object id="1" x="0" y="0">
     <polygon points="0,0 16,0 16,16 0,16"/>
    </object>
   </objectgroup>
  </tile>
  <tile id="0">
   <objectgroup draworder="index" id="2">
    <object id="1" x="0" y="0">
     <polygon points="0,0 16,0 16,16 0,16"/>
    </object>
   </objectgroup>
  </tile>
  <tile id="116">
   <objectgroup draworder="index" id="2">
    <object id="1" x="0" y="0">
     <polygon points="0,0 16,0 16,16 0,16"/>
    </object>
   </objectgroup>
  </tile>
  <tile id="117">
   <objectgroup draworder="index" id="2">
    <object id="1" x="0" y="0">
     <polygon points="0,0 16,0 16,16 0,16"/>
    </object>
   </objectgroup>
   <animation>
    <frame tileid="117" duration="400"/>
    <frame tileid="129" duration="400"/>
    <frame tileid="117" duration="400"/>
    <frame tileid="135" duration="400"/>
   </animation>
  </tile>
  <tile id="5">
   <objectgroup draworder="index" id="2">
    <object id="1" x="0" y="0">
     <polygon points="0,0 16,0 16,16 0,16"/>
    </object>
   </objectgroup>
  </tile>
  <tile id="2">
   <objectgroup draworder="index" id="2">
    <object id="1" x="0" y="0">
     <polygon points="0,0 16,0 16,16 0,16"/>
    </object>
   </objectgroup>
  </tile>
  <tile id="1">
   <objectgroup draworder="index" id="2">
    <object id="1" x="0" y="0">
     <polygon points="0,0 16,0 16,16 0,16"/>
    </object>
   </objectgroup>
  </tile>
  <tile id="8">
   <objectgroup draworder="index" id="2">
    <object id="1" x="0" y="0">
     <polygon points="0,0 16,0 16,16 0,16"/>
    </object>
   </objectgroup>
  </tile>
  <tile id="118">
   <objectgroup draworder="index" id="2">
    <object id="1" x="0" y="0">
     <polygon points="0,0 16,0 16,16 0,16"/>
    </object>
   </objectgroup>
   <animation>
    <frame tileid="118" duration="400"/>
    <frame tileid="130" duration="400"/>
    <frame tileid="118" duration="400"/>
    <frame tileid="136" duration="400"/>
   </animation>
  </tile>
  <tile id="6">
   <objectgroup draworder="index" id="2">
    <object id="1" x="0" y="0">
     <polygon points="0,0 16,0 16,16 0,16"/>
    </object>
   </objectgroup>
  </tile>
  <tile id="59">
   <objectgroup draworder="index" id="2">
    <object id="1" x="0" y="0">
     <polygon points="0,0 16,0 16,16 0,16"/>
    </object>
   </objectgroup>
   <animation>
    <frame tileid="59" duration="400"/>
    <frame tileid="87" duration="400"/>
    <frame tileid="59" duration="400"/>
    <frame tileid="105" duration="400"/>
   </animation>
  </tile>
  <tile id="30">
   <objectgroup draworder="index" id="2">
    <object id="1" x="0" y="0">
     <polygon points="0,0 16,0 16,16 0,16"/>
    </object>
   </objectgroup>
  </tile>
  <tile id="27">
   <objectgroup draworder="index" id="2">
    <object id="1" x="0" y="0">
     <polygon points="0,0 16,0 16,16 0,16"/>
    </object>
   </objectgroup>
  </tile>
  <tile id="19">
   <objectgroup draworder="index" id="2">
    <object id="1" x="0" y="0">
     <polygon points="0,0 16,0 16,16 0,16"/>
    </object>
   </objectgroup>
  </tile>
  <tile id="35">
   <animation>
    <frame tileid="35" duration="400"/>
    <frame tileid="84" duration="400"/>
    <frame tileid="35" duration="400"/>
    <frame tileid="102" duration="400"/>
   </animation>
  </tile>
  <tile id="12">
   <objectgroup draworder="index" id="2">
    <object id="1" x="0" y="0">
     <polygon points="0,0 16,0 16,16 0,16"/>
    </object>
   </objectgroup>
  </tile>
  <tile id="14">
   <objectgroup draworder="index" id="2">
    <object id="1" x="0" y="0">
     <polygon points="0,0 16,0 16,16 0,16"/>
    </object>
   </objectgroup>
  </tile>
  <tile id="25">
   <objectgroup draworder="index" id="2">
    <object id="1" x="0" y="0">
     <polygon points="0,0 16,0 16,16 0,16"/>
    </object>
   </objectgroup>
  </tile>
  <tile id="36">
   <objectgroup draworder="index" id="2">
    <object id="1" x="0" y="0">
     <polygon points="0,0 16,0 16,16 0,16"/>
    </object>
   </objectgroup>
  </tile>
  <tile id="29">
   <objectgroup draworder="index" id="2">
    <object id="1" x="0" y="0">
     <polygon points="0,0 16,0 16,16 0,16"/>
    </object>
   </objectgroup>
   <animation>
    <frame tileid="29" duration="400"/>
    <frame tileid="82" duration="400"/>
    <frame tileid="29" duration="400"/>
    <frame tileid="100" duration="400"/>
   </animation>
  </tile>
  <tile id="54">
   <objectgroup draworder="index" id="2">
    <object id="1" x="0" y="0">
     <polygon points="0,0 16,0 16,16 0,16"/>
    </object>
   </objectgroup>
  </tile>
  <tile id="37">
   <objectgroup draworder="index" id="2">
    <object id="1" x="0" y="0">
     <polygon points="0,0 16,0 16,16 0,16"/>
    </object>
   </objectgroup>
  </tile>
  <tile id="41">
   <objectgroup draworder="index" id="2">
    <object id="1" x="0" y="0">
     <polygon points="0,0 16,0 16,16 0,16"/>
    </object>
   </objectgroup>
  </tile>
  <tile id="17">
   <objectgroup draworder="index" id="2">
    <object id="1" x="0" y="0">
     <polygon points="0,0 16,0 16,16 0,16"/>
    </object>
   </objectgroup>
   <animation>
    <frame tileid="17" duration="400"/>
    <frame tileid="78" duration="400"/>
    <frame tileid="17" duration="400"/>
    <frame tileid="96" duration="400"/>
   </animation>
  </tile>
  <tile id="16">
   <objectgroup draworder="index" id="2">
    <object id="1" x="0" y="0">
     <polygon points="0,0 16,0 16,16 0,16"/>
    </object>
   </objectgroup>
   <animation>
    <frame tileid="16" duration="400"/>
    <frame tileid="77" duration="400"/>
    <frame tileid="16" duration="400"/>
    <frame tileid="95" duration="400"/>
   </animation>
  </tile>
  <tile id="13">
   <objectgroup draworder="index" id="2">
    <object id="1" x="0" y="0">
     <polygon points="0,0 16,0 16,16 0,16"/>
    </object>
   </objectgroup>
  </tile>
  <tile id="15">
   <objectgroup draworder="index" id="2">
    <object id="1" x="0" y="0">
     <polygon points="0,0 16,0 16,16 0,16"/>
    </object>
   </objectgroup>
  </tile>
  <tile id="39">
   <animation>
    <frame tileid="39" duration="400"/>
    <frame tileid="85" duration="400"/>
    <frame tileid="39" duration="400"/>
    <frame tileid="103" duration="400"/>
   </animation>
  </tile>
  <tile id="61">
   <objectgroup draworder="index" id="3">
    <object id="2" x="0" y="0">
     <polygon points="0,0 16,0 16,16 0,16"/>
    </object>
   </objectgroup>
  </tile>
  <tile id="51">
   <objectgroup draworder="index" id="2">
    <object id="1" x="0" y="0">
     <polygon points="0,0 16,0 16,16 0,16"/>
    </object>
   </objectgroup>
  </tile>
  <tile id="23">
   <animation>
    <frame tileid="23" duration="400"/>
    <frame tileid="80" duration="400"/>
    <frame tileid="23" duration="400"/>
    <frame tileid="98" duration="400"/>
   </animation>
  </tile>
  <tile id="18">
   <objectgroup draworder="index" id="2">
    <object id="1" x="0" y="0">
     <polygon points="0,0 16,0 16,16 0,16"/>
    </object>
   </objectgroup>
  </tile>
  <tile id="119">
   <objectgroup draworder="index" id="2">
    <object id="1" x="0" y="0">
     <polygon points="0,0 16,0 16,16 0,16"/>
    </object>
   </objectgroup>
  </tile>
  <tile id="48">
   <objectgroup draworder="index" id="2">
    <object id="1" x="0" y="0">
     <polygon points="0,0 16,0 16,16 0,16"/>
    </object>
   </objectgroup>
  </tile>
  <tile id="50">
   <objectgroup draworder="index" id="2">
    <object id="1" x="0" y="0">
     <polygon points="0,0 16,0 16,16 0,16"/>
    </object>
   </objectgroup>
  </tile>
  <tile id="49">
   <objectgroup draworder="index" id="2">
    <object id="1" x="0" y="0">
     <polygon points="0,0 16,0 16,16 0,16"/>
    </object>
   </objectgroup>
  </tile>
  <tile id="120">
   <objectgroup draworder="index" id="2">
    <object id="1" x="0" y="0">
     <polygon points="0,0 16,0 16,16 0,16"/>
    </object>
   </objectgroup>
  </tile>
  <tile id="62">
   <objectgroup draworder="index" id="2">
    <object id="1" x="0" y="0">
     <polygon points="0,0 16,0 16,16 0,16"/>
    </object>
   </objectgroup>
   <animation>
    <frame tileid="62" duration="400"/>
    <frame tileid="89" duration="400"/>
    <frame tileid="62" duration="400"/>
    <frame tileid="107" duration="400"/>
   </animation>
  </tile>
  <tile id="52">
   <objectgroup draworder="index" id="2">
    <object id="1" x="0" y="0">
     <polygon points="0,0 16,0 16,16 0,16"/>
    </object>
   </objectgroup>
  </tile>
  <tile id="53">
   <objectgroup draworder="index" id="2">
    <object id="1" x="0" y="0">
     <polygon points="0,0 16,0 16,16 0,16"/>
    </object>
   </objectgroup>
  </tile>
  <tile id="121">
   <objectgroup draworder="index" id="2">
    <object id="1" x="0" y="0">
     <polygon points="0,0 16,0 16,16 0,16"/>
    </object>
   </objectgroup>
  </tile>
  <tile id="122">
   <objectgroup draworder="index" id="2">
    <object id="1" x="0" y="0">
     <polygon points="0,0 16,0 16,16 0,16"/>
    </object>
   </objectgroup>
   <animation>
    <frame tileid="122" duration="400"/>
    <frame tileid="131" duration="400"/>
    <frame tileid="122" duration="400"/>
    <frame tileid="137" duration="400"/>
   </animation>
  </tile>
  <tile id="47">
   <objectgroup draworder="index" id="2">
    <object id="1" x="0" y="0">
     <polygon points="0,0 16,0 16,16 0,16"/>
    </object>
   </objectgroup>
  </tile>
  <tile id="26">
   <objectgroup draworder="index" id="2">
    <object id="1" x="0" y="0">
     <polygon points="0,0 16,0 16,16 0,16"/>
    </object>
   </objectgroup>
  </tile>
  <tile id="64">
   <properties>
    <property name="spikes" type="int" value="1"/>
   </properties>
  </tile>
  <tile id="21">
   <animation>
    <frame tileid="21" duration="400"/>
    <frame tileid="79" duration="400"/>
    <frame tileid="21" duration="400"/>
    <frame tileid="97" duration="400"/>
   </animation>
  </tile>
  <tile id="28">
   <animation>
    <frame tileid="28" duration="400"/>
    <frame tileid="81" duration="400"/>
    <frame tileid="28" duration="400"/>
    <frame tileid="99" duration="400"/>
   </animation>
  </tile>
  <tile id="55">
   <objectgroup draworder="index" id="2">
    <object id="1" x="0" y="0">
     <polygon points="0,0 16,0 16,16 0,16"/>
    </object>
   </objectgroup>
  </tile>
  <tile id="34">
   <animation>
    <frame tileid="34" duration="400"/>
    <frame tileid="83" duration="400"/>
    <frame tileid="34" duration="400"/>
    <frame tileid="101" duration="400"/>
   </animation>
  </tile>
  <tile id="125">
   <objectgroup draworder="index" id="2">
    <object id="1" x="0" y="0">
     <polygon points="0,0 16,0 16,16 0,16"/>
    </object>
   </objectgroup>
  </tile>
  <tile id="57">
   <objectgroup draworder="index" id="2">
    <object id="1" x="0" y="0">
     <properties>
      <property name="type" type="int" value="2"/>
     </properties>
     <polygon points="0,0 16,0 16,16 0,16"/>
    </object>
   </objectgroup>
   <animation>
    <frame tileid="57" duration="400"/>
    <frame tileid="86" duration="400"/>
    <frame tileid="57" duration="400"/>
    <frame tileid="104" duration="400"/>
   </animation>
  </tile>
  <tile id="58">
   <objectgroup draworder="index" id="2">
    <object id="1" x="0" y="0">
     <polygon points="0,0 16,0 16,16 0,16"/>
    </object>
   </objectgroup>
   <animation>
    <frame tileid="58" duration="400"/>
    <frame tileid="132" duration="400"/>
    <frame tileid="58" duration="400"/>
    <frame tileid="138" duration="400"/>
   </animation>
  </tile>
  <tile id="126">
   <objectgroup draworder="index" id="2">
    <object id="1" x="0" y="0">
     <polygon points="0,0 16,0 16,16 0,16"/>
    </object>
   </objectgroup>
  </tile>
  <tile id="56">
   <objectgroup draworder="index" id="2">
    <object id="1" x="0" y="0">
     <polygon points="0,0 16,0 16,16 0,16"/>
    </object>
   </objectgroup>
   <animation>
    <frame tileid="56" duration="400"/>
    <frame tileid="133" duration="400"/>
    <frame tileid="56" duration="400"/>
    <frame tileid="139" duration="400"/>
   </animation>
  </tile>
  <tile id="71">
   <objectgroup draworder="index" id="2">
    <object id="1" x="0" y="0">
     <properties>
      <property name="type" type="int" value="2"/>
     </properties>
     <polygon points="0,0 16,0 16,16 0,16"/>
    </object>
   </objectgroup>
   <animation>
    <frame tileid="71" duration="400"/>
    <frame tileid="90" duration="400"/>
    <frame tileid="71" duration="400"/>
    <frame tileid="108" duration="400"/>
   </animation>
  </tile>
  <tile id="127">
   <objectgroup draworder="index" id="2">
    <object id="1" x="0" y="0">
     <polygon points="0,0 16,0 16,16 0,16"/>
    </object>
   </objectgroup>
  </tile>
  <tile id="60">
   <objectgroup draworder="index" id="2">
    <object id="1" x="0" y="0">
     <properties>
      <property name="type" type="int" value="2"/>
     </properties>
     <polygon points="0,0 16,0 16,16 0,16"/>
    </object>
   </objectgroup>
   <animation>
    <frame tileid="60" duration="400"/>
    <frame tileid="88" duration="400"/>
    <frame tileid="60" duration="400"/>
    <frame tileid="106" duration="400"/>
   </animation>
  </tile>
  <tile id="63">
   <objectgroup draworder="index" id="2">
    <object id="1" x="0" y="0">
     <properties>
      <property name="type" type="int" value="2"/>
     </properties>
     <polygon points="0,0 16,0 16,16 0,16"/>
    </object>
   </objectgroup>
  </tile>
 </tileset>
 <layer id="1" name="layer0" width="123" height="28">
  <data encoding="csv">
4,4,4,4,4,4,4,4,4,114,4,4,4,4,4,4,4,4,4,4,4,4,4,4,4,4,4,4,4,4,4,4,4,115,8,116,1,116,1,116,1,116,1,116,1,116,1,1,1,117,118,6,3,3,8,116,1,116,1,1,116,116,1,116,1,116,1,116,1,116,1,116,2,4,4,4,4,4,4,4,4,4,4,4,4,4,115,9,116,116,1,1,116,1,116,1,116,1,116,1,1,116,2,4,4,4,4,4,4,4,4,4,4,4,4,4,4,4,4,4,4,4,4,
119,6,7,60,7,6,119,6,7,31,4,4,4,4,4,4,4,4,4,4,4,4,4,4,4,4,4,4,4,4,4,4,4,28,20,10,21,36,23,23,25,10,10,10,10,10,10,10,10,13,15,26,37,30,55,10,10,11,39,39,12,10,10,10,10,10,10,10,41,10,11,12,38,3,4,4,4,4,4,4,4,4,4,4,4,4,6,28,10,10,10,42,11,39,39,39,39,39,39,39,39,12,38,4,4,6,18,6,7,6,18,6,7,17,7,6,18,6,7,17,7,6,18,
14,15,14,15,14,15,14,15,14,16,30,119,7,4,4,4,4,4,4,4,4,4,4,4,4,4,4,4,4,4,4,4,4,28,10,10,10,40,21,23,23,23,36,25,10,41,10,10,10,10,10,38,18,7,55,10,10,44,45,45,43,10,10,10,10,10,10,10,47,10,33,34,26,30,6,4,4,4,4,4,4,4,4,4,4,4,62,28,10,10,10,10,44,45,45,45,45,45,45,45,45,43,38,119,3,28,15,14,14,15,14,15,14,15,14,15,14,15,14,15,14,15,14,
10,11,12,10,10,11,12,10,10,13,15,15,16,3,4,4,4,4,4,4,4,4,4,4,4,4,4,4,4,4,4,4,4,55,52,10,21,24,23,23,23,25,40,10,10,47,10,10,10,10,10,13,15,15,20,10,10,10,10,10,10,10,10,10,10,10,10,10,47,10,44,43,13,15,16,3,4,4,4,4,4,4,4,4,4,3,19,10,10,10,10,10,10,10,10,10,10,10,10,10,10,10,120,62,30,28,10,10,10,10,11,39,39,39,39,39,12,10,11,12,10,10,10,
10,33,34,10,10,33,34,10,10,10,10,10,38,30,7,6,7,3,4,4,4,4,4,4,4,4,4,4,4,4,4,4,4,3,55,10,10,40,21,23,25,10,40,10,10,47,10,10,10,10,10,10,10,10,10,10,10,49,51,50,51,50,51,50,51,50,51,50,52,10,10,10,11,12,26,7,30,3,4,4,4,4,4,4,4,3,19,10,10,10,10,10,10,10,49,121,121,52,10,10,10,10,10,13,38,28,10,10,41,10,44,45,45,45,45,45,43,10,33,34,10,10,41,
10,33,34,10,10,33,34,10,10,41,10,10,63,14,15,14,16,7,3,4,4,4,4,4,4,4,4,4,4,4,4,4,4,60,28,10,21,24,23,25,10,49,50,121,121,52,10,10,21,25,10,10,10,49,52,10,10,13,15,14,15,14,15,16,30,53,54,19,20,10,10,10,44,43,13,15,16,6,7,4,4,4,4,4,4,37,55,51,52,10,10,10,10,10,38,122,122,28,10,10,10,10,41,10,13,20,10,10,47,10,49,50,51,50,51,50,52,10,44,43,10,10,47,
10,44,43,10,10,44,43,10,10,47,10,10,11,12,10,10,26,30,7,6,7,3,4,4,4,4,4,4,4,4,4,4,4,3,55,10,21,24,25,10,10,13,16,122,122,123,10,21,23,23,25,10,10,26,55,10,10,10,10,10,10,10,10,26,4,4,30,55,11,39,12,10,10,10,10,10,13,15,16,119,4,4,4,4,4,4,62,28,20,10,10,48,10,10,38,119,30,28,10,10,10,10,47,10,10,10,10,10,47,10,38,54,54,53,54,53,62,50,51,50,52,10,47,
51,50,51,50,51,50,51,52,10,47,10,10,44,43,10,10,63,14,15,38,31,119,6,17,6,7,18,7,6,119,6,7,60,7,28,10,21,24,23,25,10,10,26,3,4,28,21,23,25,10,10,49,50,26,55,10,10,10,10,10,10,10,10,26,119,4,27,28,44,45,43,10,10,10,10,10,11,12,26,4,4,4,4,4,4,4,30,28,10,10,10,42,10,10,13,20,20,20,10,10,10,49,50,49,50,52,10,10,49,50,26,6,4,4,18,4,18,54,18,19,62,51,50,
119,54,53,17,53,54,19,62,50,51,50,51,50,52,11,12,10,10,10,26,30,28,15,14,15,14,15,14,15,14,15,14,15,14,20,10,10,40,21,36,25,10,38,3,60,28,10,21,23,25,10,63,119,53,28,11,39,12,10,10,11,39,12,26,4,4,19,62,50,51,50,51,52,10,10,10,33,34,26,4,4,4,4,4,4,4,27,28,10,10,10,10,10,10,10,11,12,10,11,12,10,13,14,14,14,20,11,12,14,14,14,38,119,4,4,4,4,4,4,4,53,18,53,
4,4,4,4,4,4,30,53,17,53,54,30,30,55,44,43,10,10,10,63,14,20,10,10,10,10,10,10,10,65,65,65,65,10,10,21,22,24,25,40,10,10,38,4,3,28,10,21,25,10,10,26,53,30,28,33,46,34,49,52,33,46,34,26,4,4,4,53,18,53,17,53,28,10,10,10,33,34,26,18,4,4,4,4,4,4,30,28,10,10,10,10,10,10,10,33,34,10,33,34,10,10,10,10,11,39,124,125,39,12,10,26,4,4,4,4,4,4,4,4,4,4,4,
4,4,4,4,4,4,4,4,4,4,4,3,19,62,50,52,11,12,10,10,10,10,10,10,10,10,10,10,10,10,10,10,10,10,10,41,29,40,10,40,10,10,38,18,3,123,21,36,23,25,10,13,15,14,20,44,45,43,63,28,44,45,43,26,18,4,4,4,4,4,4,19,20,10,10,10,44,43,26,3,4,4,4,4,4,3,27,28,10,10,10,10,10,10,10,44,43,10,44,43,10,10,10,10,33,46,46,46,46,34,10,26,17,4,4,4,4,4,4,4,4,4,4,
4,4,4,4,4,4,4,4,4,4,4,4,4,54,30,55,44,43,10,10,10,10,10,10,10,41,10,10,10,10,11,12,10,10,10,47,29,40,10,40,10,10,38,27,62,20,10,40,21,66,25,10,10,10,10,10,10,10,38,123,10,10,10,26,4,4,4,4,4,3,19,20,10,10,10,10,10,10,13,16,6,30,3,4,4,37,19,62,50,51,50,51,50,51,50,51,50,51,50,51,51,50,52,10,33,46,46,46,46,34,10,26,6,7,6,6,6,7,6,7,7,4,4,
4,4,4,4,4,4,4,4,4,4,4,4,4,4,19,62,51,50,51,50,52,11,12,10,10,47,10,10,10,10,44,43,10,10,10,49,50,51,50,51,50,51,56,16,28,10,21,24,23,23,22,25,10,10,10,10,10,10,13,20,10,10,10,26,4,4,4,4,4,62,20,11,12,10,10,41,10,10,10,14,15,14,16,3,60,31,19,15,14,15,14,15,14,15,14,15,14,15,14,16,54,54,28,10,33,46,46,46,46,34,10,13,15,20,15,15,15,14,15,14,16,18,4,
4,4,4,4,4,4,4,4,4,4,4,4,4,4,18,53,54,54,53,60,123,44,43,10,10,47,10,10,10,10,10,10,10,10,10,26,54,119,17,53,54,18,54,27,28,10,10,40,21,23,35,23,36,25,10,11,12,10,11,12,10,11,12,26,119,4,4,4,3,28,10,33,34,10,10,47,10,10,10,10,10,10,26,6,7,19,20,65,65,65,65,65,10,10,10,10,10,10,10,38,119,27,28,10,33,46,46,46,46,34,10,10,10,10,10,10,10,10,10,10,38,4,4,
4,4,4,4,4,4,4,4,4,4,4,4,4,4,4,4,4,4,4,19,62,50,51,50,51,50,52,11,12,126,11,12,126,11,12,38,27,4,4,4,4,4,4,19,62,52,10,40,10,10,29,10,40,10,10,44,43,10,44,43,10,44,43,38,27,4,4,4,27,28,10,44,43,10,10,47,10,10,10,10,10,10,13,15,14,20,10,10,21,36,23,25,10,10,10,10,10,10,10,38,37,17,55,10,44,45,45,45,45,43,10,10,10,10,10,10,10,10,10,10,38,27,4,
4,4,4,4,4,4,4,4,4,4,4,4,4,4,4,4,4,4,4,4,60,54,53,119,53,54,55,44,43,42,44,43,42,44,43,38,27,4,4,4,4,4,4,4,3,55,10,40,49,52,29,10,40,10,49,51,50,51,50,51,50,51,51,56,16,4,4,4,19,62,52,50,51,50,51,50,52,10,10,10,10,10,10,10,10,40,10,21,23,24,25,10,10,41,10,10,10,10,10,38,6,6,55,50,51,50,51,50,51,50,51,50,52,10,10,10,41,10,10,41,38,27,4,
4,4,4,4,4,4,4,4,4,4,4,4,4,4,4,4,4,4,4,4,4,4,4,4,31,30,55,10,10,10,10,10,10,10,10,38,27,4,4,4,4,4,4,4,3,55,10,40,49,52,29,10,40,10,26,18,53,53,54,119,54,53,60,53,30,4,4,4,4,3,53,119,53,60,19,15,20,10,10,10,10,10,10,21,36,24,23,23,23,24,25,10,10,47,10,10,10,10,10,13,15,15,15,15,15,15,15,14,15,15,15,15,20,10,10,10,47,10,10,47,38,27,4,
4,4,4,4,4,4,4,4,4,4,4,4,4,4,4,4,4,4,4,4,4,4,4,4,31,27,55,10,10,10,11,12,10,10,10,26,6,18,7,119,60,7,60,6,3,55,58,58,58,58,58,58,58,58,59,4,4,4,4,4,4,4,4,4,4,4,4,4,4,4,4,4,4,4,55,10,10,10,10,10,10,10,10,10,29,40,21,22,25,40,10,10,49,50,52,10,10,10,10,11,12,10,11,12,10,11,12,10,11,12,10,11,12,10,10,10,47,10,10,47,38,27,4,
4,4,4,4,4,4,4,4,4,4,4,4,4,4,4,4,4,4,4,4,4,4,4,4,31,30,55,10,10,10,44,43,10,10,10,13,15,14,14,15,14,15,127,56,16,57,72,72,72,72,72,72,72,72,59,4,4,4,4,4,4,4,4,4,4,4,4,4,4,4,4,4,4,4,55,10,10,10,10,10,10,10,10,21,35,24,23,35,23,24,25,10,26,37,55,50,52,10,10,33,34,10,33,34,10,33,34,10,33,34,10,33,34,10,10,49,51,50,51,50,56,16,4,
4,4,4,4,4,4,4,4,4,4,4,4,4,4,4,4,4,4,4,4,4,4,4,4,31,27,55,10,10,10,49,52,10,10,10,10,10,10,10,10,10,10,10,128,18,57,61,61,61,61,61,61,61,61,59,4,4,4,4,4,4,4,4,4,4,4,4,4,4,4,4,4,4,17,55,10,10,10,10,10,10,10,49,50,51,50,52,29,10,40,10,10,26,4,37,54,28,10,10,44,43,10,44,43,10,44,43,10,44,43,10,44,43,10,10,38,17,54,17,54,53,30,4,
4,4,4,4,4,4,4,4,4,4,4,4,4,4,4,4,4,4,4,4,4,4,4,4,31,30,55,10,10,10,10,10,10,10,10,10,41,10,41,10,10,10,10,128,30,57,64,64,64,64,64,64,64,64,59,4,4,4,4,4,4,4,4,4,4,4,4,4,4,4,4,4,4,4,57,58,58,58,58,58,58,58,59,18,53,30,57,58,58,58,58,58,59,4,4,37,55,51,50,51,52,10,10,10,10,10,10,10,10,10,10,10,10,10,10,56,16,4,4,4,4,4,4,
4,4,4,4,4,4,4,4,4,4,4,4,4,4,4,4,4,4,4,4,4,4,4,4,31,27,55,10,10,10,10,10,10,10,10,10,47,10,47,10,10,10,10,128,119,57,64,64,64,64,64,64,64,64,59,4,4,4,4,4,4,4,4,4,4,4,4,4,4,4,4,4,4,4,57,72,72,72,72,72,72,72,59,4,4,4,57,72,72,72,72,72,59,4,4,4,37,54,54,17,57,58,58,58,58,58,58,58,58,58,58,58,58,58,58,59,27,4,4,4,4,4,4,
4,4,4,4,4,4,4,4,4,4,4,4,4,4,4,4,4,4,4,4,4,4,4,4,31,27,55,51,52,10,10,10,10,10,49,50,51,50,51,50,51,50,51,56,16,57,64,64,64,64,64,64,64,64,59,4,4,4,4,4,4,4,4,4,4,4,4,4,4,4,4,4,4,4,57,61,61,61,61,61,61,61,59,4,4,4,57,61,61,61,61,61,59,4,4,4,4,4,37,27,57,72,72,72,72,72,72,72,72,72,72,72,72,72,72,59,27,4,4,4,4,4,4,
4,4,4,4,4,4,4,4,4,4,4,4,4,4,4,4,4,4,4,4,4,4,4,4,4,4,53,54,55,58,58,58,58,58,59,54,53,54,53,119,60,53,60,54,4,57,64,64,64,64,64,64,64,64,59,4,4,4,4,4,4,4,4,4,4,4,4,4,4,4,4,4,4,4,57,64,64,64,64,64,64,64,59,4,4,4,57,64,64,64,64,64,59,4,4,4,4,4,4,27,57,61,61,61,61,61,61,61,61,61,61,61,61,61,61,59,27,4,4,4,4,4,4,
4,4,4,4,4,4,4,4,4,4,4,4,4,4,4,4,4,4,4,4,4,4,4,4,4,4,4,4,57,72,72,72,72,72,59,18,4,4,4,4,4,4,4,4,4,57,64,64,64,64,64,64,64,64,59,4,4,4,4,4,4,4,4,4,4,4,4,4,4,4,4,4,4,4,57,64,64,64,64,64,64,64,59,4,4,4,57,64,64,64,64,64,59,4,4,4,4,4,4,27,57,64,64,64,64,64,64,64,64,64,64,64,64,64,64,59,27,4,4,4,4,4,4,
4,4,4,4,4,4,4,4,4,4,4,4,4,4,4,4,4,4,4,4,4,4,4,4,4,4,4,4,57,61,61,61,61,61,59,4,4,4,4,4,4,4,4,4,4,57,64,64,64,64,64,64,64,64,59,4,4,4,4,4,4,4,4,4,4,4,4,4,4,4,4,4,4,4,57,64,64,64,64,64,64,64,59,4,4,4,57,64,64,64,64,64,59,4,4,4,4,4,4,27,57,64,64,64,64,64,64,64,64,64,64,64,64,64,64,59,27,4,4,4,4,4,4,
4,4,4,4,4,4,4,4,4,4,4,4,4,4,4,4,4,4,4,4,4,4,4,4,4,4,4,4,57,64,64,64,64,64,59,4,4,4,4,4,4,4,4,4,4,57,64,64,64,64,64,64,64,64,59,4,4,4,4,4,4,4,4,4,4,4,4,4,4,4,4,4,4,4,57,64,64,64,64,64,64,64,59,4,4,4,57,64,64,64,64,64,59,4,4,4,4,4,4,27,57,64,64,64,64,64,64,64,64,64,64,64,64,64,64,59,27,4,4,4,4,4,4,
4,4,4,4,4,4,4,4,4,4,4,4,4,4,4,4,4,4,4,4,4,4,4,4,4,4,4,4,57,64,64,64,64,64,59,4,4,4,4,4,4,4,4,4,4,57,64,64,64,64,64,64,64,64,59,4,4,4,4,4,4,4,4,4,4,4,4,4,4,4,4,4,4,4,57,64,64,64,64,64,64,64,59,4,4,4,57,64,64,64,64,64,59,4,4,4,4,4,4,27,57,64,64,64,64,64,64,64,64,64,64,64,64,64,64,59,27,4,4,4,4,4,4
</data>
 </layer>
 <layer id="2" name="layer1" width="123" height="28">
  <properties>
   <property name="priority" type="bool" value="true"/>
  </properties>
  <data encoding="csv">
0,0,0,0,0,0,0,0,0,0,0,0,0,0,0,0,0,0,0,0,0,0,0,0,0,0,0,0,0,0,0,0,0,0,0,0,0,0,0,0,0,0,0,0,0,0,0,0,0,0,0,0,0,0,0,0,0,0,0,0,0,0,0,0,0,0,0,0,0,0,0,0,0,0,0,0,0,0,0,0,0,0,0,0,0,0,0,0,0,0,0,0,0,0,0,0,0,0,0,0,0,0,0,0,0,0,0,0,0,0,0,0,0,0,0,0,0,0,0,0,0,0,0,
0,0,0,0,0,0,0,0,0,0,0,0,0,0,0,0,0,0,0,0,0,0,0,0,0,0,0,0,0,0,0,0,0,0,0,0,0,0,0,0,0,0,0,0,0,0,0,0,0,0,0,0,0,0,0,0,0,0,0,0,0,0,0,0,0,0,0,0,0,0,0,0,0,0,0,0,0,0,0,0,0,0,0,0,0,0,0,0,0,0,0,0,0,0,0,0,0,0,0,0,0,0,0,0,0,0,0,0,0,0,0,0,0,0,0,0,0,0,0,0,0,0,0,
0,0,0,0,0,0,0,0,0,0,0,0,0,0,0,0,0,0,0,0,0,0,0,0,0,0,0,0,0,0,0,0,0,0,0,0,0,0,0,0,0,0,0,0,0,0,0,0,0,0,0,0,0,0,0,0,0,0,0,0,0,0,0,0,0,0,0,0,0,0,0,0,0,0,0,0,0,0,0,0,0,0,0,0,0,0,0,0,0,0,0,0,0,0,0,0,0,0,0,0,0,0,0,0,0,0,0,0,0,0,0,0,0,0,0,0,0,0,0,0,0,0,0,
0,0,0,0,0,0,0,0,0,0,0,0,0,0,0,0,0,0,0,0,0,0,0,0,0,0,0,0,0,0,0,0,0,0,0,0,0,0,0,0,0,0,0,0,0,0,0,0,0,0,0,0,0,0,0,0,0,0,0,0,0,0,0,0,0,0,0,0,0,0,0,0,0,0,0,0,0,0,0,0,0,0,0,0,0,0,0,0,0,0,0,0,0,0,0,0,0,0,0,0,0,0,0,0,0,0,0,0,0,0,0,0,0,0,0,0,0,0,0,0,0,0,0,
0,0,0,0,0,0,0,0,0,0,0,0,0,0,0,0,0,0,0,0,0,0,0,0,0,0,0,0,0,0,0,0,0,0,0,0,0,0,0,0,0,0,0,0,0,0,0,0,0,0,0,0,0,0,0,0,0,0,0,0,0,0,0,0,0,0,0,0,0,0,0,0,0,0,0,0,0,0,0,0,0,0,0,0,0,0,0,0,0,0,0,0,0,0,49,121,121,52,0,0,0,0,0,0,0,0,0,0,0,0,0,0,0,0,0,0,0,0,0,0,0,0,0,
0,0,0,0,0,0,0,0,0,0,0,0,0,0,0,0,0,0,0,0,0,0,0,0,0,0,0,0,0,0,0,0,0,0,0,0,0,0,0,0,0,49,50,121,121,52,0,0,0,0,0,0,0,0,0,0,0,0,0,0,0,0,0,0,0,0,0,0,0,0,0,0,0,0,0,0,0,0,0,0,0,0,0,0,0,0,0,0,0,0,0,0,0,0,0,0,0,0,0,0,0,0,0,0,0,0,0,0,0,0,0,0,0,0,0,0,0,0,0,0,0,0,0,
0,0,0,0,0,0,0,0,0,0,0,0,0,0,0,0,0,0,0,0,0,0,0,0,0,0,0,0,0,0,0,0,0,0,0,0,0,0,0,0,0,0,0,0,0,0,0,0,0,0,0,0,0,0,0,0,0,0,0,0,0,0,0,0,0,0,0,0,0,0,0,0,0,0,0,0,0,0,0,0,0,0,0,0,0,0,0,0,0,0,0,0,0,0,0,0,0,0,0,0,0,0,0,0,0,0,0,0,0,0,0,0,0,0,0,0,0,0,0,0,0,0,0,
0,0,0,0,0,0,0,0,0,0,0,0,0,0,0,0,0,0,0,0,0,0,0,0,0,0,0,0,0,0,0,0,0,0,0,0,0,0,0,0,0,0,0,0,0,0,0,0,0,0,0,0,0,0,0,0,0,0,0,0,0,0,0,0,0,0,0,0,0,0,0,0,0,0,0,0,0,0,0,0,0,0,0,0,0,0,0,0,0,0,0,0,0,0,0,0,0,0,0,0,0,0,0,0,0,0,0,0,0,0,0,0,0,0,0,0,0,0,0,0,0,0,0,
0,0,0,0,0,0,0,0,0,0,0,0,0,0,0,0,0,0,0,0,0,0,0,0,0,0,0,0,0,0,0,0,0,0,0,0,0,0,0,0,0,0,0,0,0,0,0,0,0,0,0,0,0,0,0,0,0,0,0,0,0,0,0,0,0,0,0,0,0,0,0,0,0,0,0,0,0,0,0,0,0,0,0,0,0,0,0,0,0,0,0,0,0,0,0,0,0,0,0,0,0,0,0,0,0,0,0,0,0,0,0,0,0,0,0,0,0,0,0,0,0,0,0,
0,0,0,0,0,0,0,0,0,0,0,0,0,0,0,0,0,0,0,0,0,0,0,0,0,0,0,0,0,0,0,0,0,0,0,0,0,0,0,0,0,0,0,0,0,0,0,0,0,0,0,0,0,0,0,0,0,0,0,0,0,0,0,0,0,0,0,0,0,0,0,0,0,0,0,0,0,0,0,0,0,0,0,0,0,0,0,0,0,0,0,0,0,0,0,0,0,0,0,0,0,0,0,0,0,0,0,0,0,0,0,0,0,0,0,0,0,0,0,0,0,0,0,
0,0,0,0,0,0,0,0,0,0,0,0,0,0,0,0,0,0,0,0,0,0,0,0,0,0,0,0,0,0,0,0,0,0,0,0,0,0,0,0,0,0,0,0,0,0,0,0,0,0,0,0,0,0,0,0,0,0,0,0,0,0,0,0,0,0,0,0,0,0,0,0,0,0,0,0,0,0,0,0,0,0,0,0,0,0,0,0,0,0,0,0,0,0,0,0,0,0,0,0,0,0,0,0,0,0,0,0,0,0,0,0,0,0,0,0,0,0,0,0,0,0,0,
0,0,0,0,0,0,0,0,0,0,0,0,0,0,0,0,0,0,0,0,0,0,0,0,0,0,0,0,0,0,0,0,0,0,0,0,0,0,0,0,0,0,0,0,0,0,0,0,0,0,0,0,0,0,0,0,0,0,0,0,0,0,0,0,0,0,0,0,0,0,0,0,0,0,0,0,0,0,0,0,0,0,0,0,0,0,0,0,0,0,0,0,0,0,0,0,0,0,0,0,0,0,0,0,0,0,0,0,0,0,0,0,0,0,0,0,0,0,0,0,0,0,0,
0,0,0,0,0,0,0,0,0,0,0,0,0,0,0,0,0,0,0,0,0,0,0,0,0,0,0,0,0,0,0,0,0,0,0,0,0,0,0,0,0,0,0,0,0,0,0,0,0,0,0,0,0,0,0,0,0,0,0,0,0,0,0,0,0,0,0,0,0,0,0,0,0,0,0,0,0,0,0,0,0,0,0,0,0,0,0,0,0,0,0,0,0,0,0,0,0,0,0,0,0,0,0,0,0,0,0,0,0,0,0,0,0,0,0,0,0,0,0,0,0,0,0,
0,0,0,0,0,0,0,0,0,0,0,0,0,0,0,0,0,0,0,0,0,0,0,0,0,0,0,0,0,0,0,0,0,0,0,0,0,0,0,0,0,0,0,0,0,0,0,0,0,0,0,0,0,0,0,0,0,0,0,0,0,0,0,0,0,0,0,0,0,0,0,0,0,0,0,0,0,0,0,0,0,0,0,0,0,0,0,0,0,0,0,0,0,0,0,0,0,0,0,0,0,0,0,0,0,0,0,0,0,0,0,0,0,0,0,0,0,0,0,0,0,0,0,
0,0,0,0,0,0,0,0,0,0,0,0,0,0,0,0,0,0,0,0,0,0,0,0,0,0,0,0,0,0,0,0,0,0,0,0,0,0,0,0,0,0,0,0,0,0,0,0,0,0,0,0,0,0,0,0,0,0,0,0,0,0,0,0,0,0,0,0,0,0,0,0,0,0,0,0,0,0,0,0,0,0,0,0,0,0,0,0,0,0,0,0,0,0,0,0,0,0,0,0,0,0,0,0,0,0,0,0,0,0,0,0,0,0,0,0,0,0,0,0,0,0,0,
0,0,0,0,0,0,0,0,0,0,0,0,0,0,0,0,0,0,0,0,0,0,0,0,0,0,0,0,0,0,0,0,0,0,0,0,0,0,0,0,0,0,0,0,0,0,0,0,0,0,0,0,0,0,0,0,0,0,0,0,0,0,0,0,0,0,0,0,0,0,0,0,0,0,0,0,0,0,0,0,0,0,0,0,0,0,0,0,0,0,0,0,0,0,0,0,0,0,0,0,0,0,0,0,0,0,0,0,0,0,0,0,0,0,0,0,0,0,0,0,0,0,0,
0,0,0,0,0,0,0,0,0,0,0,0,0,0,0,0,0,0,0,0,0,0,0,0,0,0,0,0,0,0,0,0,0,0,0,0,0,0,0,0,0,0,0,0,0,0,0,0,0,0,0,0,0,0,0,0,0,0,0,0,0,0,0,0,0,0,0,0,0,0,0,0,0,0,0,0,0,0,0,0,0,0,0,0,0,0,0,0,0,0,0,0,0,0,0,0,0,0,0,0,0,0,0,0,0,0,0,0,0,0,0,0,0,0,0,0,0,0,0,0,0,0,0,
0,0,0,0,0,0,0,0,0,0,0,0,0,0,0,0,0,0,0,0,0,0,0,0,0,0,0,0,0,0,0,0,0,0,0,0,0,0,0,0,0,0,0,0,0,0,58,58,58,58,58,58,58,58,0,0,0,0,0,0,0,0,0,0,0,0,0,0,0,0,0,0,0,0,0,0,0,0,0,0,0,0,0,0,0,0,0,0,0,0,0,0,0,0,0,0,0,0,0,0,0,0,0,0,0,0,0,0,0,0,0,0,0,0,0,0,0,0,0,0,0,0,0,
0,0,0,0,0,0,0,0,0,0,0,0,0,0,0,0,0,0,0,0,0,0,0,0,0,0,0,0,0,0,0,0,0,0,0,0,0,0,0,0,0,0,0,0,0,0,0,0,0,0,0,0,0,0,0,0,0,0,0,0,0,0,0,0,0,0,0,0,0,0,0,0,0,0,0,0,0,0,0,0,0,0,0,0,0,0,0,0,0,0,0,0,0,0,0,0,0,0,0,0,0,0,0,0,0,0,0,0,0,0,0,0,0,0,0,0,0,0,0,0,0,0,0,
0,0,0,0,0,0,0,0,0,0,0,0,0,0,0,0,0,0,0,0,0,0,0,0,0,0,0,0,0,0,0,0,0,0,0,0,0,0,0,0,0,0,0,0,0,0,0,0,0,0,0,0,0,0,0,0,0,0,0,0,0,0,0,0,0,0,0,0,0,0,0,0,0,0,0,0,0,0,0,0,0,0,0,0,0,0,0,0,0,0,0,0,0,0,0,0,0,0,0,0,0,0,0,0,0,0,0,0,0,0,0,0,0,0,0,0,0,0,0,0,0,0,0,
0,0,0,0,0,0,0,0,0,0,0,0,0,0,0,0,0,0,0,0,0,0,0,0,0,0,0,0,0,0,0,0,0,0,0,0,0,0,0,0,0,0,0,0,0,0,0,0,0,0,0,0,0,0,0,0,0,0,0,0,0,0,0,0,0,0,0,0,0,0,0,0,0,0,0,58,58,58,58,58,58,58,0,0,0,0,0,58,58,58,58,58,0,0,0,0,0,0,0,0,0,0,0,0,0,0,0,0,0,0,0,0,0,0,0,0,0,0,0,0,0,0,0,
0,0,0,0,0,0,0,0,0,0,0,0,0,0,0,0,0,0,0,0,0,0,0,0,0,0,0,0,0,0,0,0,0,0,0,0,0,0,0,0,0,0,0,0,0,0,0,0,0,0,0,0,0,0,0,0,0,0,0,0,0,0,0,0,0,0,0,0,0,0,0,0,0,0,0,0,0,0,0,0,0,0,0,0,0,0,0,0,0,0,0,0,0,0,0,0,0,0,0,0,0,58,58,58,58,58,58,58,58,58,58,58,58,58,58,0,0,0,0,0,0,0,0,
0,0,0,0,0,0,0,0,0,0,0,0,0,0,0,0,0,0,0,0,0,0,0,0,0,0,0,0,0,0,0,0,0,0,0,0,0,0,0,0,0,0,0,0,0,0,0,0,0,0,0,0,0,0,0,0,0,0,0,0,0,0,0,0,0,0,0,0,0,0,0,0,0,0,0,0,0,0,0,0,0,0,0,0,0,0,0,0,0,0,0,0,0,0,0,0,0,0,0,0,0,72,72,72,72,72,72,72,72,72,72,72,72,72,72,0,0,0,0,0,0,0,0,
0,0,0,0,0,0,0,0,0,0,0,0,0,0,0,0,0,0,0,0,0,0,0,0,0,0,0,0,0,58,58,58,58,58,0,0,0,0,0,0,0,0,0,0,0,0,0,0,0,0,0,0,0,0,0,0,0,0,0,0,0,0,0,0,0,0,0,0,0,0,0,0,0,0,0,0,0,0,0,0,0,0,0,0,0,0,0,0,0,0,0,0,0,0,0,0,0,0,0,0,0,61,61,61,61,61,61,61,61,61,61,61,61,61,61,0,0,0,0,0,0,0,0,
0,0,0,0,0,0,0,0,0,0,0,0,0,0,0,0,0,0,0,0,0,0,0,0,0,0,0,0,0,0,0,0,0,0,0,0,0,0,0,0,0,0,0,0,0,0,0,0,0,0,0,0,0,0,0,0,0,0,0,0,0,0,0,0,0,0,0,0,0,0,0,0,0,0,0,0,0,0,0,0,0,0,0,0,0,0,0,0,0,0,0,0,0,0,0,0,0,0,0,0,0,64,64,64,64,64,64,64,64,64,64,64,64,64,64,0,0,0,0,0,0,0,0,
0,0,0,0,0,0,0,0,0,0,0,0,0,0,0,0,0,0,0,0,0,0,0,0,0,0,0,0,0,0,0,0,0,0,0,0,0,0,0,0,0,0,0,0,0,0,0,0,0,0,0,0,0,0,0,0,0,0,0,0,0,0,0,0,0,0,0,0,0,0,0,0,0,0,0,0,0,0,0,0,0,0,0,0,0,0,0,0,0,0,0,0,0,0,0,0,0,0,0,0,0,64,64,64,64,64,64,64,64,64,64,64,64,64,64,0,0,0,0,0,0,0,0,
0,0,0,0,0,0,0,0,0,0,0,0,0,0,0,0,0,0,0,0,0,0,0,0,0,0,0,0,0,0,0,0,0,0,0,0,0,0,0,0,0,0,0,0,0,0,0,0,0,0,0,0,0,0,0,0,0,0,0,0,0,0,0,0,0,0,0,0,0,0,0,0,0,0,0,0,0,0,0,0,0,0,0,0,0,0,0,0,0,0,0,0,0,0,0,0,0,0,0,0,0,64,64,64,64,64,64,64,64,64,64,64,64,64,64,0,0,0,0,0,0,0,0,
0,0,0,0,0,0,0,0,0,0,0,0,0,0,0,0,0,0,0,0,0,0,0,0,0,0,0,0,0,0,0,0,0,0,0,0,0,0,0,0,0,0,0,0,0,0,0,0,0,0,0,0,0,0,0,0,0,0,0,0,0,0,0,0,0,0,0,0,0,0,0,0,0,0,0,0,0,0,0,0,0,0,0,0,0,0,0,0,0,0,0,0,0,0,0,0,0,0,0,0,0,64,64,64,64,64,64,64,64,64,64,64,64,64,64,0,0,0,0,0,0,0,0
</data>
 </layer>
</map>
