<?xml version="1.0" encoding="UTF-8"?>
<map version="1.10" tiledversion="1.11.2" orientation="orthogonal" renderorder="right-down" width="60" height="60" tilewidth="16" tileheight="16" infinite="0" nextlayerid="3" nextobjectid="1">
 <tileset firstgid="1" name="tiles" tilewidth="16" tileheight="16" tilecount="252" columns="16">
  <image source="vt.png" width="256" height="256"/>
  <tile id="140">
   <objectgroup draworder="index" id="2">
    <object id="1" x="0" y="0">
     <polygon points="0,0 16,0 16,16 0,16"/>
    </object>
   </objectgroup>
  </tile>
  <tile id="141">
   <objectgroup draworder="index" id="2">
    <object id="1" x="0" y="0">
     <polygon points="0,0 16,0 16,16 0,16"/>
    </object>
   </objectgroup>
  </tile>
  <tile id="142">
   <objectgroup draworder="index" id="2">
    <object id="1" x="0" y="0">
     <polygon points="0,0 16,0 16,16 0,16"/>
    </object>
   </objectgroup>
  </tile>
  <tile id="143">
   <objectgroup draworder="index" id="2">
    <object id="1" x="0" y="0">
     <polygon points="0,0 16,0 16,16 0,16"/>
    </object>
   </objectgroup>
  </tile>
  <tile id="144">
   <objectgroup draworder="index" id="2">
    <object id="1" x="0" y="0">
     <polygon points="0,0 16,0 16,16 0,16"/>
    </object>
   </objectgroup>
   <animation>
    <frame tileid="144" duration="400"/>
    <frame tileid="216" duration="400"/>
    <frame tileid="144" duration="400"/>
    <frame tileid="234" duration="400"/>
   </animation>
  </tile>
  <tile id="145">
   <objectgroup draworder="index" id="2">
    <object id="1" x="0" y="0">
     <polygon points="0,0 16,0 16,16 0,16"/>
    </object>
   </objectgroup>
  </tile>
  <tile id="146">
   <objectgroup draworder="index" id="2">
    <object id="1" x="0" y="0">
     <polygon points="0,0 16,0 16,16 0,16"/>
    </object>
   </objectgroup>
  </tile>
  <tile id="147">
   <objectgroup draworder="index" id="2">
    <object id="1" x="0" y="0">
     <polygon points="0,0 16,0 16,16 0,16"/>
    </object>
   </objectgroup>
  </tile>
  <tile id="148">
   <objectgroup draworder="index" id="2">
    <object id="1" x="0" y="0">
     <polygon points="0,0 16,0 16,16 0,16"/>
    </object>
   </objectgroup>
  </tile>
  <tile id="149">
   <objectgroup draworder="index" id="2">
    <object id="1" x="0" y="0">
     <polygon points="0,0 16,0 16,16 0,16"/>
    </object>
   </objectgroup>
  </tile>
  <tile id="150">
   <objectgroup draworder="index" id="2">
    <object id="1" x="0" y="0">
     <polygon points="0,0 16,0 16,16 0,16"/>
    </object>
   </objectgroup>
   <animation>
    <frame tileid="150" duration="400"/>
    <frame tileid="217" duration="400"/>
    <frame tileid="150" duration="400"/>
    <frame tileid="235" duration="400"/>
   </animation>
  </tile>
  <tile id="151">
   <objectgroup draworder="index" id="2">
    <object id="1" x="0" y="0">
     <polygon points="0,0 16,0 16,16 0,16"/>
    </object>
   </objectgroup>
  </tile>
  <tile id="153">
   <objectgroup draworder="index" id="2">
    <object id="1" x="0" y="0">
     <polygon points="0,0 16,0 16,16 0,16"/>
    </object>
   </objectgroup>
  </tile>
  <tile id="154">
   <objectgroup draworder="index" id="2">
    <object id="1" x="0" y="0">
     <polygon points="0,0 16,0 16,16 0,16"/>
    </object>
   </objectgroup>
   <animation>
    <frame tileid="154" duration="400"/>
    <frame tileid="218" duration="400"/>
    <frame tileid="154" duration="400"/>
    <frame tileid="236" duration="400"/>
   </animation>
  </tile>
  <tile id="155">
   <objectgroup draworder="index" id="2">
    <object id="1" x="0" y="0">
     <polygon points="0,0 16,0 16,16 0,16"/>
    </object>
   </objectgroup>
   <animation>
    <frame tileid="155" duration="400"/>
    <frame tileid="219" duration="400"/>
    <frame tileid="155" duration="400"/>
    <frame tileid="237" duration="400"/>
   </animation>
  </tile>
  <tile id="156">
   <objectgroup draworder="index" id="2">
    <object id="1" x="0" y="0">
     <polygon points="0,0 16,0 16,16 0,16"/>
    </object>
   </objectgroup>
  </tile>
  <tile id="157">
   <objectgroup draworder="index" id="2">
    <object id="1" x="0" y="0">
     <polygon points="0,0 16,0 16,16 0,16"/>
    </object>
   </objectgroup>
  </tile>
  <tile id="158">
   <objectgroup draworder="index" id="2">
    <object id="1" x="0" y="0">
     <polygon points="0,0 16,0 16,16 0,16"/>
    </object>
   </objectgroup>
   <animation>
    <frame tileid="158" duration="400"/>
    <frame tileid="220" duration="400"/>
    <frame tileid="158" duration="400"/>
    <frame tileid="238" duration="400"/>
   </animation>
  </tile>
  <tile id="159">
   <objectgroup draworder="index" id="2">
    <object id="1" x="0" y="0">
     <polygon points="0,0 16,0 16,16 0,16"/>
    </object>
   </objectgroup>
  </tile>
  <tile id="160">
   <objectgroup draworder="index" id="2">
    <object id="1" x="0" y="0">
     <polygon points="0,0 16,0 16,16 0,16"/>
    </object>
   </objectgroup>
  </tile>
  <tile id="161">
   <objectgroup draworder="index" id="2">
    <object id="1" x="0" y="0">
     <polygon points="0,0 16,0 16,16 0,16"/>
    </object>
   </objectgroup>
  </tile>
  <tile id="163">
   <objectgroup draworder="index" id="2">
    <object id="1" x="0" y="0">
     <polygon points="0,0 16,0 16,16 0,16"/>
    </object>
   </objectgroup>
  </tile>
  <tile id="165">
   <objectgroup draworder="index" id="2">
    <object id="1" x="0" y="0">
     <polygon points="0,0 16,0 16,16 0,16"/>
    </object>
   </objectgroup>
  </tile>
  <tile id="166">
   <objectgroup draworder="index" id="2">
    <object id="1" x="0" y="0">
     <polygon points="0,0 16,0 16,16 0,16"/>
    </object>
   </objectgroup>
  </tile>
  <tile id="169">
   <objectgroup draworder="index" id="2">
    <object id="1" x="0" y="0">
     <polygon points="0,0 16,0 16,16 0,16"/>
    </object>
   </objectgroup>
  </tile>
  <tile id="170">
   <objectgroup draworder="index" id="2">
    <object id="1" x="0" y="0">
     <polygon points="0,0 16,0 16,16 0,16"/>
    </object>
   </objectgroup>
  </tile>
  <tile id="171">
   <objectgroup draworder="index" id="2">
    <object id="1" x="0" y="0">
     <polygon points="0,0 16,0 16,16 0,16"/>
    </object>
   </objectgroup>
  </tile>
  <tile id="172">
   <objectgroup draworder="index" id="2">
    <object id="1" x="0" y="0">
     <polygon points="0,0 16,0 16,16 0,16"/>
    </object>
   </objectgroup>
  </tile>
  <tile id="173">
   <objectgroup draworder="index" id="2">
    <object id="1" x="0" y="0">
     <polygon points="0,0 16,0 16,16 0,16"/>
    </object>
   </objectgroup>
  </tile>
  <tile id="174">
   <objectgroup draworder="index" id="2">
    <object id="1" x="0" y="0">
     <polygon points="0,0 16,0 16,16 0,16"/>
    </object>
   </objectgroup>
  </tile>
  <tile id="177">
   <objectgroup draworder="index" id="2">
    <object id="1" x="0" y="0">
     <polygon points="0,0 16,0 16,16 0,16"/>
    </object>
   </objectgroup>
   <animation>
    <frame tileid="177" duration="400"/>
    <frame tileid="221" duration="400"/>
    <frame tileid="177" duration="400"/>
    <frame tileid="239" duration="400"/>
   </animation>
  </tile>
  <tile id="178">
   <objectgroup draworder="index" id="2">
    <object id="1" x="0" y="0">
     <properties>
      <property name="type" type="int" value="2"/>
     </properties>
     <polygon points="0,0 16,0 16,16 0,16"/>
    </object>
   </objectgroup>
   <animation>
    <frame tileid="178" duration="400"/>
    <frame tileid="222" duration="400"/>
    <frame tileid="178" duration="400"/>
    <frame tileid="240" duration="400"/>
   </animation>
  </tile>
  <tile id="179">
   <objectgroup draworder="index" id="2">
    <object id="1" x="0" y="0">
     <polygon points="0,0 16,0 16,16 0,16"/>
    </object>
   </objectgroup>
  </tile>
  <tile id="180">
   <objectgroup draworder="index" id="2">
    <object id="1" x="0" y="0">
     <polygon points="0,0 16,0 16,16 0,16"/>
    </object>
   </objectgroup>
   <animation>
    <frame tileid="180" duration="400"/>
    <frame tileid="223" duration="400"/>
    <frame tileid="180" duration="400"/>
    <frame tileid="241" duration="400"/>
   </animation>
  </tile>
  <tile id="183">
   <objectgroup draworder="index" id="2">
    <object id="1" x="0" y="0">
     <properties>
      <property name="type" type="int" value="2"/>
     </properties>
     <polygon points="0,0 16,0 16,16 0,16"/>
    </object>
   </objectgroup>
   <animation>
    <frame tileid="183" duration="400"/>
    <frame tileid="90" duration="400"/>
    <frame tileid="183" duration="400"/>
    <frame tileid="108" duration="400"/>
   </animation>
  </tile>
  <tile id="187">
   <objectgroup draworder="index" id="2">
    <object id="1" x="0" y="0">
     <polygon points="0,0 16,0 16,16 0,16"/>
    </object>
   </objectgroup>
  </tile>
  <tile id="188">
   <objectgroup draworder="index" id="2">
    <object id="1" x="0" y="0">
     <polygon points="0,0 16,0 16,16 0,16"/>
    </object>
   </objectgroup>
  </tile>
  <tile id="189">
   <objectgroup draworder="index" id="2">
    <object id="1" x="0" y="0">
     <polygon points="0,0 16,0 16,16 0,16"/>
    </object>
   </objectgroup>
   <animation>
    <frame tileid="189" duration="400"/>
    <frame tileid="224" duration="400"/>
    <frame tileid="189" duration="400"/>
    <frame tileid="242" duration="400"/>
   </animation>
  </tile>
  <tile id="190">
   <objectgroup draworder="index" id="2">
    <object id="1" x="0" y="0">
     <polygon points="0,0 16,0 16,16 0,16"/>
    </object>
   </objectgroup>
   <animation>
    <frame tileid="190" duration="400"/>
    <frame tileid="225" duration="400"/>
    <frame tileid="190" duration="400"/>
    <frame tileid="243" duration="400"/>
   </animation>
  </tile>
  <tile id="191">
   <objectgroup draworder="index" id="2">
    <object id="1" x="0" y="0">
     <polygon points="0,0 16,0 16,16 0,16"/>
    </object>
   </objectgroup>
  </tile>
  <tile id="192">
   <objectgroup draworder="index" id="2">
    <object id="1" x="0" y="0">
     <polygon points="0,0 16,0 16,16 0,16"/>
    </object>
   </objectgroup>
  </tile>
  <tile id="195">
   <animation>
    <frame tileid="195" duration="400"/>
    <frame tileid="226" duration="400"/>
    <frame tileid="195" duration="400"/>
    <frame tileid="244" duration="400"/>
   </animation>
  </tile>
  <tile id="198">
   <animation>
    <frame tileid="198" duration="400"/>
    <frame tileid="227" duration="400"/>
    <frame tileid="198" duration="400"/>
    <frame tileid="245" duration="400"/>
   </animation>
  </tile>
  <tile id="199">
   <animation>
    <frame tileid="199" duration="400"/>
    <frame tileid="228" duration="400"/>
    <frame tileid="199" duration="400"/>
    <frame tileid="246" duration="400"/>
   </animation>
  </tile>
  <tile id="200">
   <animation>
    <frame tileid="200" duration="400"/>
    <frame tileid="229" duration="400"/>
    <frame tileid="200" duration="400"/>
    <frame tileid="247" duration="400"/>
   </animation>
  </tile>
  <tile id="202">
   <animation>
    <frame tileid="202" duration="400"/>
    <frame tileid="230" duration="400"/>
    <frame tileid="202" duration="400"/>
    <frame tileid="248" duration="400"/>
   </animation>
  </tile>
  <tile id="203">
   <animation>
    <frame tileid="203" duration="400"/>
    <frame tileid="231" duration="400"/>
    <frame tileid="203" duration="400"/>
    <frame tileid="249" duration="400"/>
   </animation>
  </tile>
  <tile id="205">
   <objectgroup draworder="index" id="2">
    <object id="1" x="0" y="0">
     <polygon points="0,0 16,16 0,16"/>
    </object>
   </objectgroup>
  </tile>
  <tile id="206">
   <objectgroup draworder="index" id="2">
    <object id="1" x="0" y="0">
     <polygon points="0,0 16,0 16,16 0,16"/>
    </object>
   </objectgroup>
  </tile>
  <tile id="207">
   <objectgroup draworder="index" id="2">
    <object id="1" x="0" y="0">
     <properties>
      <property name="type" type="int" value="2"/>
     </properties>
     <polygon points="0,0 16,0 16,16 0,16"/>
    </object>
   </objectgroup>
   <animation>
    <frame tileid="207" duration="400"/>
    <frame tileid="88" duration="400"/>
    <frame tileid="207" duration="400"/>
    <frame tileid="106" duration="400"/>
   </animation>
  </tile>
  <tile id="63">
   <objectgroup draworder="index" id="2">
    <object id="1" x="0" y="0">
     <properties>
      <property name="type" type="int" value="2"/>
     </properties>
     <polygon points="0,0 16,0 16,16 0,16"/>
    </object>
   </objectgroup>
  </tile>
  <tile id="208">
   <objectgroup draworder="index" id="2">
    <object id="1" x="0" y="0">
     <polygon points="0,0 16,0 16,16 0,16"/>
    </object>
   </objectgroup>
   <animation>
    <frame tileid="208" duration="400"/>
    <frame tileid="232" duration="400"/>
    <frame tileid="208" duration="400"/>
    <frame tileid="250" duration="400"/>
   </animation>
  </tile>
  <tile id="209">
   <objectgroup draworder="index" id="2">
    <object id="1" x="0" y="0">
     <polygon points="0,0 16,0 16,16 0,16"/>
    </object>
   </objectgroup>
   <animation>
    <frame tileid="209" duration="400"/>
    <frame tileid="233" duration="400"/>
    <frame tileid="209" duration="400"/>
    <frame tileid="251" duration="400"/>
   </animation>
  </tile>
  <tile id="211">
   <objectgroup draworder="index" id="2">
    <object id="1" x="0" y="0">
     <properties>
      <property name="type" type="int" value="1"/>
     </properties>
     <polygon points="0,0 16,0 16,16 0,16"/>
    </object>
   </objectgroup>
  </tile>
  <tile id="213">
   <properties>
    <property name="spikes" type="int" value="1"/>
   </properties>
  </tile>
  <tile id="214">
   <properties>
    <property name="spikes" type="int" value="0"/>
   </properties>
  </tile>
  <tile id="215">
   <objectgroup draworder="index" id="2">
    <object id="1" x="0" y="0">
     <polygon points="0,0 16,0 16,16 0,16"/>
    </object>
   </objectgroup>
  </tile>
 </tileset>
 <layer id="1" name="layer0" width="60" height="60">
  <properties>
   <property name="collision" type="bool" value="true"/>
  </properties>
  <data encoding="csv">
141,141,141,141,141,141,141,141,141,141,141,141,141,141,141,141,141,141,141,141,141,141,141,141,141,141,141,141,141,141,141,141,141,141,141,141,141,141,141,141,141,141,141,141,141,141,141,141,141,141,141,141,141,141,141,141,141,141,141,141,
141,141,141,141,141,142,143,144,143,144,143,144,143,144,145,141,141,141,141,141,141,141,141,141,141,141,141,141,141,141,141,141,141,141,141,141,141,141,141,141,141,141,141,141,141,141,141,141,141,141,141,141,141,141,141,141,141,141,141,141,
141,141,141,141,145,146,147,148,149,148,149,148,149,148,150,141,141,141,141,141,141,141,141,141,141,141,141,141,141,141,141,141,141,141,141,141,141,141,141,141,141,141,141,141,141,141,141,141,141,141,141,141,141,141,141,141,141,141,141,141,
141,141,141,141,151,152,153,153,153,153,153,153,153,153,154,155,141,141,141,141,141,141,141,141,141,141,141,141,141,141,141,141,141,141,141,141,141,141,141,143,155,143,144,151,144,143,155,143,144,151,144,143,155,143,144,144,151,144,141,141,
141,141,141,141,156,152,153,153,153,153,153,153,153,153,157,141,141,141,141,141,141,141,141,141,141,141,141,141,141,141,141,141,141,141,141,141,141,141,141,158,148,149,148,149,148,149,148,149,148,149,148,149,148,149,148,148,149,157,159,141,
141,141,141,141,159,152,153,153,153,153,153,153,153,153,154,159,141,141,141,141,141,141,141,141,141,141,141,141,141,141,141,141,141,141,141,141,141,141,155,160,153,153,153,153,153,153,153,153,153,153,153,153,153,153,153,153,153,154,141,141,
141,141,141,141,141,160,161,161,162,153,153,153,153,153,157,141,141,141,141,141,141,141,141,141,141,141,141,141,141,141,141,141,141,141,141,141,141,141,141,160,153,153,153,153,153,153,153,153,153,163,153,153,163,153,153,153,153,154,156,141,
141,141,141,141,141,141,164,145,160,153,153,153,153,153,154,155,141,141,141,141,141,141,141,141,141,141,141,141,141,141,141,141,141,141,141,141,141,141,151,160,153,153,153,153,153,153,153,153,153,165,153,153,165,153,153,153,153,154,141,141,
141,141,141,141,141,141,141,141,160,153,153,153,153,153,157,141,141,141,141,141,141,141,141,141,141,141,141,141,142,141,141,141,141,141,141,141,141,141,141,160,153,153,153,153,153,153,153,153,153,165,153,153,165,153,153,153,153,154,159,141,
141,141,141,141,141,143,144,155,160,153,153,153,153,153,157,159,141,141,141,141,141,141,141,141,141,141,141,141,166,143,155,143,144,151,144,143,155,143,145,167,168,169,170,171,162,153,153,153,153,172,153,153,172,153,153,153,153,154,141,141,
141,141,141,141,145,173,148,148,174,153,153,153,153,153,154,141,141,141,141,141,141,141,141,141,141,141,141,141,175,173,148,149,148,149,148,149,148,149,148,174,176,177,154,164,178,179,179,179,179,180,153,153,180,179,179,179,179,181,156,141,
141,141,141,141,141,160,153,153,153,153,153,153,153,153,154,141,141,141,141,141,141,141,141,141,141,141,141,144,145,167,153,153,153,153,153,168,182,182,182,182,183,177,154,145,178,184,184,184,184,180,153,153,180,184,184,184,184,181,141,141,
141,141,141,141,155,167,153,153,153,153,153,153,153,153,157,159,141,141,141,141,141,141,141,141,141,141,141,141,175,167,153,153,153,153,153,185,186,186,186,186,186,187,154,188,178,184,184,184,184,180,153,153,180,184,184,184,184,181,141,141,
141,141,141,141,141,160,153,153,153,153,153,153,153,153,154,156,141,141,141,141,141,141,141,141,166,145,143,144,145,167,153,153,153,153,153,170,161,171,161,171,161,171,146,150,178,184,184,184,184,180,153,153,180,184,184,184,184,181,141,141,
141,141,141,141,151,167,153,153,153,153,153,153,153,153,157,141,141,141,141,141,141,141,141,141,175,173,174,148,149,174,153,153,153,153,153,154,155,189,164,156,164,189,145,141,160,190,190,191,191,192,153,153,146,190,190,191,191,154,141,141,
141,141,141,141,141,160,153,153,153,153,153,153,153,153,154,156,144,143,141,141,142,143,143,144,145,167,153,153,153,153,153,153,153,153,153,193,148,150,159,141,141,141,141,141,188,189,189,159,144,167,153,153,154,189,189,159,144,151,141,141,
141,141,141,141,155,167,153,153,153,153,153,153,153,153,148,149,148,157,145,141,175,167,149,148,149,174,153,153,194,195,196,197,195,198,153,153,153,193,150,188,141,141,141,141,141,173,148,149,148,174,168,169,154,141,141,141,141,141,141,141,
141,141,141,141,141,160,153,153,153,153,153,153,153,153,153,153,153,193,157,145,175,167,153,153,153,153,153,194,195,195,199,200,197,195,195,198,153,153,193,150,145,141,141,141,156,160,168,182,182,182,183,177,154,141,141,141,141,141,141,141,
141,141,141,141,151,167,153,153,153,153,153,153,153,153,153,153,153,153,193,157,145,167,153,153,153,194,200,198,153,194,199,201,198,153,153,153,153,153,153,193,150,188,141,141,141,160,176,202,202,202,202,177,154,159,141,141,141,141,141,141,
141,141,141,141,141,160,153,153,153,153,153,153,153,153,153,153,153,153,153,193,149,174,153,153,153,153,203,153,153,153,204,203,153,153,153,153,153,153,153,153,193,150,141,141,141,160,176,202,205,186,186,187,154,159,141,141,141,141,141,141,
141,141,141,141,141,167,153,153,153,170,162,153,153,153,170,162,206,153,153,153,153,153,153,153,153,194,201,195,196,195,199,201,197,196,195,195,195,200,195,198,153,157,159,141,159,160,176,202,177,170,171,161,154,141,141,141,141,141,141,141,
141,141,141,141,151,167,179,179,179,170,162,179,179,179,157,145,207,206,153,153,153,163,153,153,194,197,201,200,199,198,204,203,194,199,195,195,198,203,153,153,153,157,188,141,141,160,176,202,177,154,164,189,145,141,141,141,141,141,141,141,
141,141,141,141,141,178,184,184,184,184,184,184,184,184,181,164,145,207,206,153,153,165,153,153,153,194,201,201,199,195,199,201,197,199,195,195,195,201,198,153,170,146,150,141,141,160,176,202,177,154,156,141,141,141,141,141,141,141,141,141,
141,141,141,141,141,167,208,208,208,208,208,208,208,208,181,175,164,145,207,161,171,162,153,153,153,153,203,201,199,198,204,203,153,204,153,153,153,203,153,170,146,159,141,141,141,160,176,202,177,154,159,141,141,141,141,141,141,141,141,141,
141,141,141,141,151,178,64,64,64,64,64,64,64,64,181,175,175,164,145,189,155,167,153,153,153,153,203,203,204,153,204,203,153,204,153,153,153,203,153,157,145,141,141,141,159,209,176,202,177,154,141,141,141,141,141,141,141,141,141,141,
141,141,141,141,141,167,64,64,64,64,64,64,64,64,181,175,141,141,141,141,141,167,153,153,153,153,203,203,204,153,204,203,153,204,153,153,153,203,153,157,141,141,141,141,141,160,176,202,177,154,141,141,141,141,141,141,141,141,141,141,
141,141,141,141,141,160,190,190,190,190,190,190,190,191,154,175,141,141,141,141,151,178,179,179,179,179,179,179,179,179,179,179,179,179,179,179,179,179,179,181,141,141,141,141,142,160,176,202,177,154,156,141,141,141,141,141,141,141,141,141,
141,141,141,141,151,164,189,164,189,164,189,164,189,164,189,151,141,141,141,141,141,178,184,184,184,184,184,184,184,184,184,184,184,184,184,184,184,184,184,181,141,141,141,144,143,167,176,202,177,157,141,141,141,141,141,141,141,141,141,141,
141,141,141,141,141,141,141,141,141,141,141,141,141,141,141,141,141,141,141,141,151,178,208,208,208,208,208,208,208,208,208,208,208,208,208,208,208,208,208,181,141,141,141,173,148,174,176,202,177,210,141,141,141,141,141,141,141,141,141,141,
141,141,141,141,156,144,159,144,143,155,143,144,159,143,141,141,141,141,141,141,141,178,64,64,64,64,64,64,64,64,64,64,64,64,64,64,64,64,64,181,141,141,151,160,168,182,183,202,177,154,159,141,141,141,141,141,141,141,141,141,
141,141,173,192,147,148,149,148,149,148,149,148,149,157,141,141,141,141,141,141,155,178,64,64,64,64,64,64,64,64,64,64,64,64,64,64,64,64,64,181,141,141,141,160,176,202,202,202,177,154,141,141,141,141,141,141,141,141,141,141,
141,141,159,152,153,153,153,153,153,153,153,153,153,157,156,141,141,141,141,141,141,178,64,64,64,64,64,64,64,64,64,64,64,64,64,64,64,64,64,181,188,141,141,160,176,205,186,186,187,154,188,145,141,141,141,141,141,141,141,141,
141,141,145,152,153,163,153,163,153,163,153,153,153,157,141,141,141,141,141,141,173,192,190,191,191,190,191,190,191,190,191,190,191,190,191,190,191,190,191,146,150,141,155,160,176,177,170,171,161,146,150,141,141,141,141,141,141,141,141,141,
141,141,159,152,153,165,153,165,153,165,153,153,153,157,159,141,141,141,141,141,141,145,164,189,189,164,189,164,189,164,189,164,189,164,189,164,189,164,189,164,141,141,141,160,176,177,157,159,189,164,141,141,141,141,141,141,141,141,141,141,
141,141,173,192,171,161,171,161,171,161,171,168,169,157,141,141,141,141,141,141,141,141,141,141,141,141,141,141,141,141,141,141,141,141,141,141,141,141,141,141,141,141,141,160,176,177,157,141,141,141,141,141,141,141,141,141,141,141,141,141,
141,141,141,145,164,189,151,189,188,145,160,176,177,157,145,143,144,143,144,143,145,141,141,141,141,141,141,141,141,141,141,141,141,141,141,141,141,141,141,141,145,143,144,167,176,177,157,143,145,141,141,141,141,141,141,141,141,141,141,141,
141,141,141,141,141,141,141,141,173,149,174,185,187,193,148,149,148,149,148,148,149,150,141,141,141,141,141,141,141,141,141,141,141,141,141,141,141,141,141,141,173,148,148,174,185,187,193,148,148,157,175,141,141,141,141,141,141,141,141,141,
141,141,141,141,141,141,141,151,167,153,153,153,153,153,153,153,153,153,153,153,153,157,159,143,156,144,143,156,144,143,159,143,144,156,144,143,159,143,156,155,167,153,153,153,153,153,153,153,153,157,151,143,144,143,144,141,141,141,141,141,
141,141,141,141,141,141,141,141,167,153,153,153,153,153,153,153,153,153,153,153,153,157,167,149,148,149,148,149,148,149,148,149,148,149,148,149,148,149,148,149,174,153,153,153,153,153,153,153,153,193,149,149,149,150,155,141,141,141,141,141,
141,141,145,144,143,144,144,145,167,153,153,153,153,153,153,153,153,153,153,153,153,193,174,153,163,153,153,153,153,153,153,153,153,153,153,153,153,153,153,153,153,153,153,153,153,153,153,153,153,153,153,168,169,154,188,141,141,141,141,141,
141,141,167,148,149,148,148,157,167,153,153,153,153,153,153,153,153,153,153,153,153,153,153,153,165,153,153,153,153,153,153,153,153,153,153,153,153,153,153,153,153,153,153,153,153,153,153,153,153,153,153,176,177,154,159,141,141,141,141,141,
141,155,160,153,153,153,153,157,167,153,153,153,153,153,153,153,153,153,153,153,153,153,153,153,165,153,170,162,153,153,153,153,153,153,153,153,153,153,153,153,153,153,153,153,153,153,153,153,153,153,153,176,177,154,175,141,141,141,141,141,
141,141,160,153,153,163,153,157,167,153,153,153,153,153,153,153,153,153,153,153,153,170,171,171,161,162,154,167,153,153,153,153,153,153,153,153,153,170,162,153,170,162,153,153,170,171,161,171,161,170,162,176,177,154,143,144,145,141,141,141,
141,151,160,153,153,165,153,157,167,153,153,153,153,153,153,153,153,153,153,153,153,157,164,189,164,189,164,178,179,179,179,179,179,179,179,179,179,181,178,179,181,178,179,179,181,189,164,189,164,189,167,176,177,149,148,148,150,141,141,141,
141,141,160,153,153,165,153,157,167,153,153,153,153,153,153,153,153,153,153,153,153,157,144,151,143,144,143,160,171,161,171,161,171,161,171,161,171,154,160,161,154,160,171,161,146,151,141,141,141,175,167,176,211,182,182,169,154,141,141,141,
141,155,160,153,153,170,171,157,160,161,171,161,171,161,162,212,212,170,171,161,171,157,145,145,143,144,143,144,189,164,189,164,189,164,189,164,189,189,164,164,189,164,189,164,189,175,141,141,141,151,167,185,186,186,213,177,154,159,141,141,
141,141,160,153,153,193,148,149,148,149,148,149,148,149,174,168,169,154,151,151,151,143,144,143,173,148,149,148,149,148,149,148,148,149,148,149,150,141,144,141,141,144,141,141,142,141,141,141,141,173,192,171,171,162,176,177,154,141,141,141,
141,151,160,153,153,153,153,153,153,153,153,153,153,168,182,183,177,154,164,189,164,189,166,159,160,153,153,153,153,153,153,153,153,153,153,153,157,145,143,144,156,144,143,156,166,141,141,141,141,141,189,164,145,160,176,177,154,155,141,141,
141,141,160,153,153,163,153,153,153,153,153,153,153,185,186,186,187,154,143,144,143,144,166,159,160,153,153,153,153,153,153,194,195,195,198,153,193,148,149,148,149,148,149,157,175,141,141,141,141,141,141,141,141,160,176,177,154,141,141,141,
141,173,192,171,162,165,153,153,153,153,153,170,171,161,171,161,171,154,145,145,145,144,143,145,167,153,153,153,153,153,194,196,197,198,153,153,153,214,214,214,153,153,153,157,145,143,144,156,143,188,141,141,155,167,176,177,154,159,141,141,
141,141,188,145,167,165,153,153,153,163,153,193,148,149,148,149,148,149,148,149,148,149,148,149,174,153,153,215,215,215,215,204,153,153,153,153,194,197,195,195,195,198,153,193,148,149,148,149,148,150,145,141,141,167,176,177,154,141,141,141,
141,141,216,141,167,171,161,171,161,165,153,153,153,153,153,153,153,153,153,153,153,153,153,153,153,153,153,170,171,161,162,204,153,153,194,196,195,195,195,198,153,153,153,153,153,153,153,153,153,193,150,144,159,167,176,177,154,156,141,141,
141,141,141,141,189,164,145,192,167,165,153,153,153,153,194,195,195,197,195,196,197,195,195,195,200,198,153,157,164,159,160,204,153,153,153,203,153,194,195,196,198,153,153,153,153,153,153,163,153,153,193,148,149,174,185,187,154,141,141,141,
141,141,141,141,141,216,141,141,167,171,161,171,162,153,153,153,194,195,196,201,195,195,200,198,204,153,153,154,159,173,174,204,153,153,153,203,153,170,162,204,153,153,153,153,153,153,153,165,153,153,153,153,153,153,153,153,154,159,141,141,
141,141,141,141,141,141,141,141,189,164,189,145,160,153,153,153,153,194,201,201,198,153,204,153,204,153,153,154,141,160,153,204,153,153,153,203,153,157,167,204,153,153,153,153,153,153,153,165,153,153,153,153,153,153,153,153,154,188,141,141,
141,141,141,141,141,141,141,141,141,141,141,141,160,153,153,153,153,153,203,203,153,153,204,153,204,153,153,157,156,160,153,204,153,153,153,203,153,157,167,204,153,153,153,153,153,153,170,171,161,171,161,171,161,171,161,171,146,150,141,141,
141,141,141,141,141,141,141,141,141,141,141,141,178,179,179,179,179,179,179,179,179,179,179,179,179,179,179,181,141,178,179,179,179,179,179,179,179,179,179,179,179,179,179,179,179,179,181,159,189,164,155,164,189,159,189,164,155,141,141,141,
141,141,141,141,141,141,141,141,141,141,141,141,178,184,184,184,184,184,184,184,184,184,184,184,184,184,184,181,141,178,184,184,184,184,184,184,184,184,184,184,184,184,184,184,184,184,181,141,141,141,141,141,141,141,141,141,141,141,141,141,
141,141,141,141,141,141,141,141,141,141,141,141,178,208,208,208,208,208,208,208,208,208,208,208,208,208,208,181,141,178,208,208,208,208,208,208,208,208,208,208,208,208,208,208,208,208,181,141,141,141,141,141,141,141,141,141,141,141,141,141,
141,141,141,141,141,141,141,141,141,141,141,141,178,64,64,64,64,64,64,64,64,64,64,64,64,64,64,181,141,178,64,64,64,64,64,64,64,64,64,64,64,64,64,64,64,64,181,141,141,141,141,141,141,141,141,141,141,141,141,141
</data>
 </layer>
 <layer id="2" name="layer1" width="60" height="60">
  <properties>
   <property name="priority" type="bool" value="true"/>
  </properties>
  <data encoding="csv">
0,0,0,0,0,0,0,0,0,0,0,0,0,0,0,0,0,0,0,0,0,0,0,0,0,0,0,0,0,0,0,0,0,0,0,0,0,0,0,0,0,0,0,0,0,0,0,0,0,0,0,0,0,0,0,0,0,0,0,0,
0,0,0,0,0,0,0,0,0,0,0,0,0,0,0,0,0,0,0,0,0,0,0,0,0,0,0,0,0,0,0,0,0,0,0,0,0,0,0,0,0,0,0,0,0,0,0,0,0,0,0,0,0,0,0,0,0,0,0,0,
0,0,0,0,0,0,0,0,0,0,0,0,0,0,0,0,0,0,0,0,0,0,0,0,0,0,0,0,0,0,0,0,0,0,0,0,0,0,0,0,0,0,0,0,0,0,0,0,0,0,0,0,0,0,0,0,0,0,0,0,
0,0,0,0,0,0,0,0,0,0,0,0,0,0,0,0,0,0,0,0,0,0,0,0,0,0,0,0,0,0,0,0,0,0,0,0,0,0,0,0,0,0,0,0,0,0,0,0,0,0,0,0,0,0,0,0,0,0,0,0,
0,0,0,0,0,0,0,0,0,0,0,0,0,0,0,0,0,0,0,0,0,0,0,0,0,0,0,0,0,0,0,0,0,0,0,0,0,0,0,0,0,0,0,0,0,0,0,0,0,0,0,0,0,0,0,0,0,0,0,0,
0,0,0,0,0,0,0,0,0,0,0,0,0,0,0,0,0,0,0,0,0,0,0,0,0,0,0,0,0,0,0,0,0,0,0,0,0,0,0,0,0,0,0,0,0,0,0,0,0,0,0,0,0,0,0,0,0,0,0,0,
0,0,0,0,0,0,0,0,0,0,0,0,0,0,0,0,0,0,0,0,0,0,0,0,0,0,0,0,0,0,0,0,0,0,0,0,0,0,0,0,0,0,0,0,0,0,0,0,0,0,0,0,0,0,0,0,0,0,0,0,
0,0,0,0,0,0,0,0,0,0,0,0,0,0,0,0,0,0,0,0,0,0,0,0,0,0,0,0,0,0,0,0,0,0,0,0,0,0,0,0,0,0,0,0,0,0,0,0,0,0,0,0,0,0,0,0,0,0,0,0,
0,0,0,0,0,0,0,0,0,0,0,0,0,0,0,0,0,0,0,0,0,0,0,0,0,0,0,0,0,0,0,0,0,0,0,0,0,0,0,0,0,0,0,0,0,0,0,0,0,0,0,0,0,0,0,0,0,0,0,0,
0,0,0,0,0,0,0,0,0,0,0,0,0,0,0,0,0,0,0,0,0,0,0,0,0,0,0,0,0,0,0,0,0,0,0,0,0,0,0,0,0,0,0,0,0,0,0,0,0,0,0,0,0,0,0,0,0,0,0,0,
0,0,0,0,0,0,0,0,0,0,0,0,0,0,0,0,0,0,0,0,0,0,0,0,0,0,0,0,0,0,0,0,0,0,0,0,0,0,0,0,0,0,0,0,0,0,0,0,0,0,0,0,0,0,0,0,0,0,0,0,
0,0,0,0,0,0,0,0,0,0,0,0,0,0,0,0,0,0,0,0,0,0,0,0,0,0,0,0,0,0,0,0,0,0,0,0,0,0,0,0,0,0,0,0,0,0,0,0,0,0,0,0,0,0,0,0,0,0,0,0,
0,0,0,0,0,0,0,0,0,0,0,0,0,0,0,0,0,0,0,0,0,0,0,0,0,0,0,0,0,0,0,0,0,0,0,0,0,0,0,0,0,0,0,0,0,0,0,0,0,0,0,0,0,0,0,0,0,0,0,0,
0,0,0,0,0,0,0,0,0,0,0,0,0,0,0,0,0,0,0,0,0,0,0,0,0,0,0,0,0,0,0,0,0,0,0,0,0,0,0,0,0,0,0,0,0,0,0,0,0,0,0,0,0,0,0,0,0,0,0,0,
0,0,0,0,0,0,0,0,0,0,0,0,0,0,0,0,0,0,0,0,0,0,0,0,0,0,0,0,0,0,0,0,0,0,0,0,0,0,0,0,0,0,0,0,0,0,0,0,0,0,0,0,0,0,0,0,0,0,0,0,
0,0,0,0,0,0,0,0,0,0,0,0,0,0,0,0,0,0,0,0,0,0,0,0,0,0,0,0,0,0,0,0,0,0,0,0,0,0,0,0,0,0,0,0,0,0,0,0,0,0,0,0,0,0,0,0,0,0,0,0,
0,0,0,0,0,0,0,0,0,0,0,0,0,0,0,0,0,0,0,0,0,0,0,0,0,0,0,0,0,0,0,0,0,0,0,0,0,0,0,0,0,0,0,0,0,0,0,0,0,0,0,0,0,0,0,0,0,0,0,0,
0,0,0,0,0,0,0,0,0,0,0,0,0,0,0,0,0,0,0,0,0,0,0,0,0,0,0,0,0,0,0,0,0,0,0,0,0,0,0,0,0,0,0,0,0,0,0,0,0,0,0,0,0,0,0,0,0,0,0,0,
0,0,0,0,0,0,0,0,0,0,0,0,0,0,0,0,0,0,0,0,0,0,0,0,0,0,0,0,0,0,0,0,0,0,0,0,0,0,0,0,0,0,0,0,0,0,0,0,0,0,0,0,0,0,0,0,0,0,0,0,
0,0,0,0,0,0,0,0,0,0,0,0,0,0,0,0,0,0,0,0,0,0,0,0,0,0,0,0,0,0,0,0,0,0,0,0,0,0,0,0,0,0,0,0,0,0,0,0,0,0,0,0,0,0,0,0,0,0,0,0,
0,0,0,0,0,0,0,0,0,0,0,0,0,0,0,0,0,0,0,0,0,0,0,0,0,0,0,0,0,0,0,0,0,0,0,0,0,0,0,0,0,0,0,0,0,0,0,0,0,0,0,0,0,0,0,0,0,0,0,0,
0,0,0,0,0,0,179,179,179,0,0,179,179,179,0,0,0,0,0,0,0,0,0,0,0,0,0,0,0,0,0,0,0,0,0,0,0,0,0,0,0,0,0,0,0,0,0,0,0,0,0,0,0,0,0,0,0,0,0,0,
0,0,0,0,0,0,184,184,184,184,184,184,184,184,0,0,0,0,0,0,0,0,0,0,0,0,0,0,0,0,0,0,0,0,0,0,0,0,0,0,0,0,0,0,0,0,0,0,0,0,0,0,0,0,0,0,0,0,0,0,
0,0,0,0,0,0,208,208,208,208,208,208,208,208,0,0,0,0,0,0,0,0,0,0,0,0,0,0,0,0,0,0,0,0,0,0,0,0,0,0,0,0,0,0,0,0,0,0,0,0,0,0,0,0,0,0,0,0,0,0,
0,0,0,0,0,0,64,64,64,64,64,64,64,64,0,0,0,0,0,0,0,0,0,0,0,0,0,0,0,0,0,0,0,0,0,0,0,0,0,0,0,0,0,0,0,0,0,0,0,0,0,0,0,0,0,0,0,0,0,0,
0,0,0,0,0,0,64,64,64,64,64,64,64,64,0,0,0,0,0,0,0,0,0,0,0,0,0,0,0,0,0,0,0,0,0,0,0,0,0,0,0,0,0,0,0,0,0,0,0,0,0,0,0,0,0,0,0,0,0,0,
0,0,0,0,0,0,0,0,0,0,0,0,0,0,0,0,0,0,0,0,0,0,179,179,179,179,179,179,179,179,179,179,179,179,179,179,179,179,179,0,0,0,0,0,0,0,0,0,0,0,0,0,0,0,0,0,0,0,0,0,
0,0,0,0,0,0,0,0,0,0,0,0,0,0,0,0,0,0,0,0,0,0,184,184,184,184,184,184,184,184,184,184,184,184,184,184,184,184,184,0,0,0,0,0,0,0,0,0,0,0,0,0,0,0,0,0,0,0,0,0,
0,0,0,0,0,0,0,0,0,0,0,0,0,0,0,0,0,0,0,0,0,0,208,208,208,208,208,208,208,208,208,208,208,208,208,208,208,208,208,0,0,0,0,0,0,0,0,0,0,0,0,0,0,0,0,0,0,0,0,0,
0,0,0,0,0,0,0,0,0,0,0,0,0,0,0,0,0,0,0,0,0,0,64,64,64,64,64,64,64,64,64,64,64,64,64,64,64,64,64,0,0,0,0,0,0,0,0,0,0,0,0,0,0,0,0,0,0,0,0,0,
0,0,0,0,0,0,0,0,0,0,0,0,0,0,0,0,0,0,0,0,0,0,64,64,64,64,64,64,64,64,64,64,64,64,64,64,64,64,64,0,0,0,0,0,0,0,0,0,0,0,0,0,0,0,0,0,0,0,0,0,
0,0,0,0,0,0,0,0,0,0,0,0,0,0,0,0,0,0,0,0,0,0,64,64,64,64,64,64,64,64,64,64,64,64,64,64,64,64,64,0,0,0,0,0,0,0,0,0,0,0,0,0,0,0,0,0,0,0,0,0,
0,0,0,0,0,0,0,0,0,0,0,0,0,0,0,0,0,0,0,0,0,0,0,0,0,0,0,0,0,0,0,0,0,0,0,0,0,0,0,0,0,0,0,0,0,0,0,0,0,0,0,0,0,0,0,0,0,0,0,0,
0,0,0,0,0,0,0,0,0,0,0,0,0,0,0,0,0,0,0,0,0,0,0,0,0,0,0,0,0,0,0,0,0,0,0,0,0,0,0,0,0,0,0,0,0,0,0,0,0,0,0,0,0,0,0,0,0,0,0,0,
0,0,0,0,0,0,0,0,0,0,0,0,0,0,0,0,0,0,0,0,0,0,0,0,0,0,0,0,0,0,0,0,0,0,0,0,0,0,0,0,0,0,0,0,0,0,0,0,0,0,0,0,0,0,0,0,0,0,0,0,
0,0,0,0,0,0,0,0,0,0,0,0,0,0,0,0,0,0,0,0,0,0,0,0,0,0,0,0,0,0,0,0,0,0,0,0,0,0,0,0,0,0,0,0,0,0,0,0,0,0,0,0,0,0,0,0,0,0,0,0,
0,0,0,0,0,0,0,0,0,149,174,0,0,0,0,0,0,0,0,0,0,0,0,0,0,0,0,0,0,0,0,0,0,0,0,0,0,0,0,0,0,0,0,0,0,0,0,0,0,0,0,0,0,0,0,0,0,0,0,0,
0,0,0,0,0,0,0,0,0,0,0,0,0,0,0,0,0,0,0,0,0,0,0,0,0,0,0,0,0,0,0,0,0,0,0,0,0,0,0,0,0,0,0,0,0,0,0,0,0,0,0,0,0,0,0,0,0,0,0,0,
0,0,0,0,0,0,0,0,0,0,0,0,0,0,0,0,0,0,0,0,0,157,167,0,0,0,0,0,0,0,0,0,0,0,0,0,0,0,0,0,0,0,0,0,0,0,0,0,0,0,0,0,0,0,0,0,0,0,0,0,
0,0,0,0,0,0,0,0,0,0,0,0,0,0,0,0,0,0,0,0,0,193,174,0,0,0,0,0,0,0,0,0,0,0,0,0,0,0,0,0,0,0,0,0,0,0,0,0,0,0,0,0,0,0,0,0,0,0,0,0,
0,0,0,0,0,0,0,0,0,0,0,0,0,0,0,0,0,0,0,0,0,0,0,0,0,0,0,0,0,0,0,0,0,0,0,0,0,0,0,0,0,0,0,0,0,0,0,0,0,0,0,0,0,0,0,0,0,0,0,0,
0,0,0,0,0,0,0,0,0,0,0,0,0,0,0,0,0,0,0,0,0,0,0,0,0,0,0,0,0,0,0,0,0,0,0,0,0,0,0,0,0,0,0,0,0,0,0,0,0,0,0,0,0,0,0,0,0,0,0,0,
0,0,0,0,0,0,0,0,0,0,0,0,0,0,0,0,0,0,0,0,0,0,0,0,0,0,0,0,0,0,0,0,0,0,0,0,0,0,0,0,0,0,0,0,0,0,0,0,0,0,0,0,0,0,0,0,0,0,0,0,
0,0,0,0,0,0,0,0,0,0,0,0,0,0,0,0,0,0,0,0,0,0,0,0,0,0,0,0,179,179,179,179,179,179,179,179,179,0,0,0,0,0,0,0,0,0,0,0,0,0,0,0,0,0,0,0,0,0,0,0,
0,0,0,0,0,0,0,0,0,0,0,0,0,0,0,0,0,0,0,0,0,0,0,0,0,0,0,0,171,161,171,161,171,161,171,161,171,0,0,0,0,0,0,0,0,0,0,0,0,0,0,0,0,0,0,0,0,0,0,0,
0,0,0,0,0,0,0,0,0,0,0,0,0,0,0,0,0,0,0,0,0,0,0,0,0,0,0,0,189,164,189,164,189,164,189,164,189,0,0,0,0,0,0,0,0,0,0,0,0,0,0,0,0,0,0,0,0,0,0,0,
0,0,0,0,0,0,0,0,0,0,0,0,0,0,0,0,0,0,0,0,0,0,0,0,0,0,0,0,149,148,149,148,148,149,148,149,150,0,0,0,0,0,0,0,0,0,0,0,0,0,0,0,0,0,0,0,0,0,0,0,
0,0,0,0,0,0,0,0,0,0,0,0,0,0,0,0,0,0,0,0,0,0,0,0,0,0,0,0,0,0,0,0,0,0,0,0,0,0,0,0,0,0,0,0,0,0,0,0,0,0,0,0,0,0,0,0,0,0,0,0,
0,0,0,0,0,0,0,0,0,0,0,0,0,0,0,0,0,0,0,0,0,0,0,0,0,0,0,0,0,0,0,0,0,0,0,0,0,0,0,0,0,0,0,0,0,0,0,0,0,0,0,0,0,0,0,0,0,0,0,0,
0,0,0,0,0,0,0,0,0,0,0,0,0,0,0,0,0,0,0,0,0,0,0,0,0,0,0,0,0,0,0,0,0,0,0,0,0,0,0,0,0,0,0,0,0,0,0,0,0,0,0,0,0,0,0,0,0,0,0,0,
0,0,0,0,0,0,0,0,0,0,0,0,0,0,0,0,0,0,0,0,0,0,0,0,0,0,0,0,0,0,0,0,0,0,0,0,0,0,0,0,0,0,0,0,0,0,0,0,0,0,0,0,0,0,0,0,0,0,0,0,
0,0,0,0,0,0,0,0,0,0,0,0,0,0,0,0,0,0,0,0,0,0,0,0,0,0,0,0,0,0,0,0,0,0,0,0,0,0,0,0,0,0,0,0,0,0,0,0,0,0,0,0,0,0,0,0,0,0,0,0,
0,0,0,0,0,0,0,0,0,0,0,0,0,0,0,0,0,0,0,0,0,0,0,0,0,0,0,0,0,0,0,0,0,0,0,0,0,0,0,0,0,0,0,0,0,0,0,0,0,0,0,0,0,0,0,0,0,0,0,0,
0,0,0,0,0,0,0,0,0,0,0,0,0,0,0,0,0,0,0,0,0,0,0,0,0,0,0,0,0,0,0,0,0,0,0,0,0,0,0,0,0,0,0,0,0,0,0,0,0,0,0,0,0,0,0,0,0,0,0,0,
0,0,0,0,0,0,0,0,0,0,0,0,0,0,0,0,0,0,0,0,0,0,0,0,0,0,0,0,0,0,0,0,0,0,0,0,0,0,0,0,0,0,0,0,0,0,0,0,0,0,0,0,0,0,0,0,0,0,0,0,
0,0,0,0,0,0,0,0,0,0,0,0,0,0,0,0,0,0,0,0,0,0,0,0,0,0,0,0,0,0,0,0,0,0,0,0,0,0,0,0,0,0,0,0,0,0,0,0,0,0,0,0,0,0,0,0,0,0,0,0,
0,0,0,0,0,0,0,0,0,0,0,0,0,179,179,179,179,179,179,179,179,179,179,179,179,179,179,0,0,0,179,179,179,179,179,179,179,179,179,179,179,179,179,179,179,179,0,0,0,0,0,0,0,0,0,0,0,0,0,0,
0,0,0,0,0,0,0,0,0,0,0,0,0,184,184,184,184,184,184,184,184,184,184,184,184,184,184,0,0,0,184,184,184,184,184,184,184,184,184,184,184,184,184,184,184,184,0,0,0,0,0,0,0,0,0,0,0,0,0,0,
0,0,0,0,0,0,0,0,0,0,0,0,0,208,208,208,208,208,208,208,208,208,208,208,208,208,208,0,0,0,208,208,208,208,208,208,208,208,208,208,208,208,208,208,208,208,0,0,0,0,0,0,0,0,0,0,0,0,0,0,
0,0,0,0,0,0,0,0,0,0,0,0,0,64,64,64,64,64,64,64,64,64,64,64,64,64,64,0,0,0,64,64,64,64,64,64,64,64,64,64,64,64,64,64,64,64,0,0,0,0,0,0,0,0,0,0,0,0,0,0
</data>
 </layer>
</map>
