<?xml version="1.0" encoding="UTF-8"?>
<map version="1.10" tiledversion="1.11.2" orientation="orthogonal" renderorder="right-down" width="32" height="192" tilewidth="16" tileheight="16" infinite="0" nextlayerid="2" nextobjectid="1">
 <tileset firstgid="1" name="tiles" tilewidth="16" tileheight="16" tilecount="133" columns="12">
  <image source="bf_out.png" width="192" height="192"/>
  <tile id="4">
   <objectgroup draworder="index" id="2">
    <object id="1" x="0" y="0">
     <polygon points="0,0 16,0 16,16 0,16"/>
    </object>
   </objectgroup>
  </tile>
  <tile id="18">
   <objectgroup draworder="index" id="2">
    <object id="1" x="0" y="0">
     <polygon points="0,0 16,0 16,16 0,16"/>
    </object>
   </objectgroup>
  </tile>
  <tile id="17">
   <objectgroup draworder="index" id="2">
    <object id="1" x="0" y="0">
     <polygon points="0,0 16,0 16,16 0,16"/>
    </object>
   </objectgroup>
  </tile>
  <tile id="13">
   <objectgroup draworder="index" id="2">
    <object id="1" x="0" y="0">
     <polygon points="0,0 16,0 16,16 0,16"/>
    </object>
   </objectgroup>
  </tile>
  <tile id="14">
   <objectgroup draworder="index" id="2">
    <object id="1" x="0" y="0">
     <polygon points="0,0 16,0 16,16 0,16"/>
    </object>
   </objectgroup>
  </tile>
  <tile id="41">
   <objectgroup draworder="index" id="2">
    <object id="1" x="0" y="0">
     <polygon points="0,0 16,0 16,16 0,16"/>
    </object>
   </objectgroup>
  </tile>
  <tile id="59">
   <objectgroup draworder="index" id="2">
    <object id="1" x="0" y="0">
     <polygon points="0,0 16,0 16,16 0,16"/>
    </object>
   </objectgroup>
  </tile>
  <tile id="120">
   <objectgroup draworder="index" id="2">
    <object id="1" x="0" y="0">
     <polygon points="0,0 16,0 16,16 0,16"/>
    </object>
   </objectgroup>
  </tile>
  <tile id="121">
   <objectgroup draworder="index" id="2">
    <object id="1" x="0" y="0">
     <polygon points="0,0 16,0 16,16 0,16"/>
    </object>
   </objectgroup>
  </tile>
  <tile id="15">
   <objectgroup draworder="index" id="2">
    <object id="1" x="0" y="0">
     <polygon points="0,0 16,0 16,16 0,16"/>
    </object>
   </objectgroup>
  </tile>
  <tile id="108">
   <objectgroup draworder="index" id="2">
    <object id="1" x="0" y="0">
     <polygon points="0,0 16,0 16,16 0,16"/>
    </object>
   </objectgroup>
  </tile>
  <tile id="118">
   <objectgroup draworder="index" id="2">
    <object id="1" x="0" y="0">
     <polygon points="0,0 16,0 16,16 0,16"/>
    </object>
   </objectgroup>
  </tile>
  <tile id="122">
   <objectgroup draworder="index" id="2">
    <object id="1" x="0" y="0">
     <polygon points="0,0 16,0 16,16 0,16"/>
    </object>
   </objectgroup>
  </tile>
  <tile id="5">
   <objectgroup draworder="index" id="2">
    <object id="1" x="0" y="0">
     <polygon points="0,0 16,0 16,16 0,16"/>
    </object>
   </objectgroup>
  </tile>
  <tile id="6">
   <objectgroup draworder="index" id="2">
    <object id="1" x="0" y="0">
     <polygon points="0,0 16,0 16,16 0,16"/>
    </object>
   </objectgroup>
  </tile>
  <tile id="16">
   <objectgroup draworder="index" id="2">
    <object id="1" x="0" y="0">
     <polygon points="0,0 16,0 16,16 0,16"/>
    </object>
   </objectgroup>
  </tile>
  <tile id="123">
   <objectgroup draworder="index" id="2">
    <object id="1" x="0" y="0">
     <polygon points="0,0 16,0 16,16 0,16"/>
    </object>
   </objectgroup>
  </tile>
  <tile id="124">
   <objectgroup draworder="index" id="2">
    <object id="1" x="0" y="0">
     <polygon points="0,0 16,0 16,16 0,16"/>
    </object>
   </objectgroup>
  </tile>
  <tile id="125">
   <objectgroup draworder="index" id="2">
    <object id="1" x="0" y="0">
     <polygon points="0,0 16,0 16,16 0,16"/>
    </object>
   </objectgroup>
  </tile>
  <tile id="126">
   <objectgroup draworder="index" id="2">
    <object id="1" x="0" y="0">
     <polygon points="0,0 16,0 16,16 0,16"/>
    </object>
   </objectgroup>
  </tile>
  <tile id="128">
   <objectgroup draworder="index" id="2">
    <object id="1" x="0" y="0">
     <polygon points="0,0 16,0 16,16 0,16"/>
    </object>
   </objectgroup>
  </tile>
  <tile id="129">
   <objectgroup draworder="index" id="2">
    <object id="1" x="0" y="0">
     <polygon points="0,0 16,0 16,16 0,16"/>
    </object>
   </objectgroup>
  </tile>
  <tile id="119">
   <objectgroup draworder="index" id="2">
    <object id="1" x="0" y="0">
     <polygon points="0,0 16,0 16,16 0,16"/>
    </object>
   </objectgroup>
  </tile>
  <tile id="130">
   <objectgroup draworder="index" id="2">
    <object id="1" x="0" y="0">
     <polygon points="0,0 16,0 16,16 0,16"/>
    </object>
   </objectgroup>
  </tile>
  <tile id="132">
   <objectgroup draworder="index" id="2">
    <object id="1" x="0" y="0">
     <polygon points="0,0 16,0 16,16 0,16"/>
    </object>
   </objectgroup>
  </tile>
 </tileset>
 <layer id="1" name="layer" width="32" height="192">
  <data encoding="csv">
1,1,1,1,1,1,1,1,2,1,1,1,2,1,1,1,1,1,1,2,1,1,1,1,1,2,1,1,1,1,1,1,
3,4,1,1,2,1,1,1,1,1,1,1,1,3,4,1,1,1,1,1,3,4,1,1,1,1,1,1,1,3,4,1,
1,1,1,1,1,1,1,1,1,1,1,1,1,1,1,1,2,1,1,1,1,1,1,1,3,4,1,1,1,1,1,1,
1,1,1,1,1,1,2,1,1,2,1,1,1,1,1,1,1,1,1,1,1,1,1,1,1,1,1,1,1,2,1,1,
1,1,1,1,1,1,1,1,1,1,1,1,1,1,1,1,2,1,1,1,1,1,1,1,1,1,3,4,1,1,1,1,
1,2,1,1,3,4,1,1,1,1,1,1,1,1,1,1,1,1,1,1,1,1,3,4,1,1,1,1,1,1,1,1,
1,1,1,1,1,1,1,1,1,1,1,1,2,1,1,1,1,1,1,1,1,1,1,1,1,1,1,1,1,1,1,1,
1,1,1,1,1,1,1,1,1,1,1,1,1,1,1,5,19,18,18,19,18,18,19,18,18,19,18,18,19,18,18,19,
1,1,1,1,1,3,4,1,1,2,1,1,1,1,1,14,15,42,60,15,42,60,15,42,60,15,42,60,15,42,60,15,
1,2,1,1,1,1,1,1,1,1,3,4,1,1,1,121,122,16,16,16,16,16,16,16,16,16,16,16,16,16,16,16,
1,1,1,1,1,1,1,1,1,1,1,1,1,2,1,109,119,119,119,123,16,16,16,16,16,16,16,16,16,16,16,16,
18,18,19,18,18,19,18,18,19,6,7,1,1,1,1,1,1,2,14,15,42,60,16,16,16,16,16,16,16,16,16,16,
16,16,16,16,16,16,16,16,42,15,17,3,4,1,1,1,1,1,109,119,119,123,16,16,16,16,16,16,16,16,16,16,
16,16,16,16,16,16,16,16,16,124,125,1,1,1,1,1,1,1,3,1,14,15,42,16,16,16,16,16,16,16,16,16,
16,16,16,16,16,16,16,16,126,19,6,7,1,1,1,1,2,1,1,1,109,119,123,16,16,16,16,16,16,16,16,16,
16,16,16,16,16,16,16,16,60,42,15,17,127,128,3,1,1,3,4,1,1,1,14,15,16,16,16,16,16,16,16,16,
16,16,16,16,16,16,16,16,16,126,18,19,6,7,1,1,1,1,1,1,1,1,121,122,16,16,16,16,16,16,16,16,
16,16,16,16,16,16,16,16,16,129,130,119,119,120,1,3,4,1,1,1,5,19,18,131,16,16,16,16,16,16,16,16,
16,16,16,16,16,16,16,16,60,42,15,17,1,1,1,1,2,1,1,1,14,15,42,60,16,16,16,16,16,16,16,16,
16,16,16,16,16,16,16,16,129,130,119,120,1,1,1,1,1,1,1,1,14,42,15,60,16,16,16,16,16,16,16,16,
16,16,16,16,16,16,16,16,42,15,17,1,3,4,1,1,1,1,1,2,109,119,123,16,16,16,16,16,16,16,16,16,
16,16,16,16,16,16,16,16,16,124,125,1,1,1,1,2,1,1,1,1,1,14,15,42,16,16,16,16,16,16,16,16,
16,16,16,16,16,16,16,16,16,126,19,6,7,1,1,1,1,2,1,1,1,121,122,16,16,16,16,16,16,16,16,16,
16,16,16,16,16,16,16,16,16,60,42,15,17,1,1,1,1,1,1,1,1,121,122,16,16,16,16,16,16,16,16,16,
16,16,16,16,16,16,16,16,16,129,130,119,120,1,1,1,3,4,1,1,1,14,15,42,16,16,16,16,16,16,16,16,
16,16,16,16,16,16,16,16,16,124,125,1,1,1,2,1,1,1,1,5,19,18,131,16,16,16,16,16,16,16,16,16,
16,16,16,16,16,16,16,16,42,15,17,3,4,1,1,1,1,1,1,14,15,42,60,16,16,16,16,16,16,16,16,16,
16,16,16,16,16,16,16,16,16,124,125,127,128,1,1,1,1,1,1,109,119,123,16,16,16,16,16,16,16,16,16,16,
16,16,16,16,16,16,16,16,16,126,19,6,7,1,1,1,1,1,1,2,1,14,15,42,16,16,16,16,16,16,16,16,
16,16,16,16,16,16,16,16,16,129,130,119,120,1,1,3,4,1,1,1,1,121,122,16,16,16,16,16,16,16,16,16,
16,16,16,16,16,16,16,16,60,42,15,17,1,1,1,1,1,1,1,1,1,14,15,42,16,16,16,16,16,16,16,16,
16,16,16,16,16,16,16,16,129,130,119,120,2,1,1,1,1,1,2,5,19,18,131,16,16,16,16,16,16,16,16,16,
16,16,16,16,16,16,16,16,42,15,17,1,1,1,1,3,4,1,1,109,119,123,16,16,16,16,16,16,16,16,16,16,
16,16,16,16,16,16,16,16,16,124,125,1,1,1,1,1,1,1,1,1,14,15,42,60,16,16,16,16,16,16,16,16,
16,16,16,16,16,16,16,16,16,126,19,6,7,3,4,1,1,1,1,1,121,122,16,16,16,16,16,16,16,16,16,16,
16,16,16,16,16,16,16,16,16,60,42,15,17,1,1,1,2,1,1,1,109,119,123,16,16,16,16,16,16,16,16,16,
16,16,16,16,16,16,16,16,16,60,15,42,17,1,1,1,1,1,1,2,1,14,15,42,16,16,16,16,16,16,16,16,
16,16,16,16,16,16,16,16,16,129,130,119,120,1,1,2,1,1,1,1,1,121,122,16,16,16,16,16,16,16,16,16,
16,16,16,16,16,16,16,16,60,42,15,17,1,1,1,1,1,1,1,132,133,14,15,42,16,16,16,16,16,16,16,16,
16,16,16,16,16,16,16,16,129,130,119,120,1,2,1,1,1,1,3,4,5,19,18,131,16,16,16,16,16,16,16,16,
16,16,16,16,16,16,16,16,16,124,125,1,1,1,1,1,1,1,1,1,109,119,123,16,16,16,16,16,16,16,16,16,
16,16,16,16,16,16,16,16,42,15,17,1,1,3,4,1,1,1,1,1,1,121,122,16,16,16,16,16,16,16,16,16,
16,16,16,16,16,16,16,16,16,126,19,6,7,1,1,1,1,2,1,132,133,14,15,42,16,16,16,16,16,16,16,16,
16,16,16,16,16,16,16,16,16,129,130,119,120,1,1,1,1,1,1,5,19,18,131,16,16,16,16,16,16,16,16,16,
16,16,16,16,16,16,16,16,16,124,125,1,1,3,4,1,1,1,1,109,119,123,16,16,16,16,16,16,16,16,16,16,
16,16,16,16,16,16,16,16,42,15,17,1,1,1,1,1,1,1,1,1,14,15,42,60,16,16,16,16,16,16,16,16,
16,16,16,16,16,16,16,16,16,124,125,127,128,1,1,1,1,1,1,3,121,122,16,16,16,16,16,16,16,16,16,16,
16,16,16,16,16,16,16,16,16,126,18,19,7,1,1,1,1,1,1,1,109,119,123,16,16,16,16,16,16,16,16,16,
16,16,16,16,16,16,16,16,16,60,42,15,17,1,1,2,1,1,1,1,1,14,15,42,16,16,16,16,16,16,16,16,
16,16,16,16,16,16,16,16,16,129,130,119,120,1,1,1,1,1,1,1,1,14,15,42,16,16,16,16,16,16,16,16,
16,16,16,16,16,16,16,16,60,42,15,17,1,1,3,4,1,1,2,1,1,121,122,16,16,16,16,16,16,16,16,16,
16,16,16,16,16,16,16,16,60,42,15,17,1,1,1,1,1,1,1,1,1,121,122,16,16,16,16,16,16,16,16,16,
16,16,16,16,16,16,16,16,16,16,124,125,4,1,1,1,1,1,1,1,1,14,15,42,16,16,16,16,16,16,16,16,
16,16,16,16,16,16,16,16,129,130,119,120,1,1,1,1,1,1,1,132,133,14,15,42,16,16,16,16,16,16,16,16,
16,16,16,16,16,16,16,16,42,15,17,1,1,3,4,1,1,1,1,5,19,18,131,16,16,16,16,16,16,16,16,16,
16,16,16,16,16,16,16,16,42,15,17,1,1,1,1,1,1,2,1,14,15,42,60,16,16,16,16,16,16,16,16,16,
16,16,16,16,16,16,16,16,16,126,18,19,7,1,1,1,1,1,1,109,119,119,123,16,16,16,16,16,16,16,16,16,
16,16,16,16,16,16,16,16,16,129,130,119,120,1,1,1,1,1,1,1,14,15,42,60,16,16,16,16,16,16,16,16,
16,16,16,16,16,16,16,16,16,16,124,125,1,1,1,3,4,1,2,1,109,119,123,16,16,16,16,16,16,16,16,16,
16,16,16,16,16,16,16,16,16,126,18,19,7,1,1,1,1,1,1,1,1,14,15,42,16,16,16,16,16,16,16,16,
16,16,16,16,16,16,16,16,16,60,42,15,17,3,4,1,1,2,1,1,1,121,122,16,16,16,16,16,16,16,16,16,
16,16,16,16,16,16,16,16,16,16,16,124,125,1,1,1,1,1,1,5,19,18,131,16,16,16,16,16,16,16,16,16,
16,16,16,16,16,16,16,16,16,129,130,119,120,1,1,1,1,1,1,14,15,42,60,16,16,16,16,16,16,16,16,16,
16,16,16,16,16,16,16,16,60,42,15,17,1,1,1,1,1,1,1,14,42,15,60,16,16,16,16,16,16,16,16,16,
16,16,16,16,16,16,16,16,126,19,6,7,1,1,1,1,2,1,1,1,109,119,123,16,16,16,16,16,16,16,16,16,
16,16,16,16,16,16,16,16,60,42,15,17,127,128,3,1,1,3,4,1,1,1,14,15,16,16,16,16,16,16,16,16,
16,16,16,16,16,16,16,16,16,126,18,19,6,7,1,1,1,1,1,1,1,1,121,122,16,16,16,16,16,16,16,16,
16,16,16,16,16,16,16,16,16,129,130,119,119,120,1,1,1,1,1,1,5,19,18,131,16,16,16,16,16,16,16,16,
16,16,16,16,16,16,16,16,60,42,15,17,1,1,1,1,2,1,1,1,14,15,42,60,16,16,16,16,16,16,16,16,
16,16,16,16,16,16,16,16,129,130,119,120,1,1,1,1,1,1,1,1,14,42,15,60,16,16,16,16,16,16,16,16,
16,16,16,16,16,16,16,16,42,15,17,1,3,4,1,1,1,1,1,2,109,119,123,16,16,16,16,16,16,16,16,16,
16,16,16,16,16,16,16,16,16,124,125,1,1,1,1,2,1,1,1,1,1,14,15,42,16,16,16,16,16,16,16,16,
16,16,16,16,16,16,16,16,16,126,19,6,7,1,1,1,1,2,1,1,1,121,122,16,16,16,16,16,16,16,16,16,
16,16,16,16,16,16,16,16,16,60,42,15,17,1,1,1,1,1,1,1,1,121,122,16,16,16,16,16,16,16,16,16,
16,16,16,16,16,16,16,16,16,129,130,119,120,1,1,1,1,1,1,1,1,14,15,42,16,16,16,16,16,16,16,16,
16,16,16,16,16,16,16,16,16,124,125,1,1,1,2,1,1,1,1,5,19,18,131,16,16,16,16,16,16,16,16,16,
16,16,16,16,16,16,16,16,42,15,17,3,4,1,1,1,1,1,1,14,15,42,60,16,16,16,16,16,16,16,16,16,
16,16,16,16,16,16,16,16,16,124,125,127,128,1,1,1,1,1,1,109,119,123,16,16,16,16,16,16,16,16,16,16,
16,16,16,16,16,16,16,16,16,126,19,6,7,1,1,1,1,1,1,2,1,14,15,42,16,16,16,16,16,16,16,16,
16,16,16,16,16,16,16,16,16,129,130,119,120,1,1,3,4,1,1,1,1,121,122,16,16,16,16,16,16,16,16,16,
16,16,16,16,16,16,16,16,60,42,15,17,1,1,1,1,1,1,1,1,1,14,15,42,16,16,16,16,16,16,16,16,
16,16,16,16,16,16,16,16,129,130,119,120,2,1,1,1,1,1,2,5,19,18,131,16,16,16,16,16,16,16,16,16,
16,16,16,16,16,16,16,16,126,19,6,7,1,1,1,1,2,1,1,1,109,119,123,16,16,16,16,16,16,16,16,16,
16,16,16,16,16,16,16,16,60,42,15,17,127,128,3,1,1,3,4,1,1,1,14,15,16,16,16,16,16,16,16,16,
16,16,16,16,16,16,16,16,16,126,18,19,6,7,1,1,1,1,1,1,1,1,121,122,16,16,16,16,16,16,16,16,
16,16,16,16,16,16,16,16,16,129,130,119,119,120,1,1,1,1,1,1,5,19,18,131,16,16,16,16,16,16,16,16,
16,16,16,16,16,16,16,16,60,42,15,17,1,1,1,1,2,1,1,1,14,15,42,60,16,16,16,16,16,16,16,16,
16,16,16,16,16,16,16,16,129,130,119,120,1,1,1,1,1,1,1,1,14,42,15,60,16,16,16,16,16,16,16,16,
16,16,16,16,16,16,16,16,42,15,17,1,3,4,1,1,1,1,1,2,109,119,123,16,16,16,16,16,16,16,16,16,
16,16,16,16,16,16,16,16,16,124,125,1,1,1,1,2,1,1,1,1,1,14,15,42,16,16,16,16,16,16,16,16,
16,16,16,16,16,16,16,16,16,126,19,6,7,1,1,1,1,2,1,1,1,121,122,16,16,16,16,16,16,16,16,16,
16,16,16,16,16,16,16,16,16,60,42,15,17,1,1,1,1,1,1,1,1,121,122,16,16,16,16,16,16,16,16,16,
16,16,16,16,16,16,16,16,16,129,130,119,120,1,1,1,3,4,1,1,1,14,15,42,16,16,16,16,16,16,16,16,
16,16,16,16,16,16,16,16,16,124,125,1,1,1,2,1,1,1,1,5,19,18,131,16,16,16,16,16,16,16,16,16,
16,16,16,16,16,16,16,16,42,15,17,3,4,1,1,1,1,1,1,14,15,42,60,16,16,16,16,16,16,16,16,16,
16,16,16,16,16,16,16,16,16,124,125,127,128,1,1,1,1,1,1,109,119,123,16,16,16,16,16,16,16,16,16,16,
16,16,16,16,16,16,16,16,16,126,19,6,7,1,1,1,1,1,1,2,1,14,15,42,16,16,16,16,16,16,16,16,
16,16,16,16,16,16,16,16,16,129,130,119,120,1,1,3,4,1,1,1,1,121,122,16,16,16,16,16,16,16,16,16,
16,16,16,16,16,16,16,16,60,42,15,17,1,1,1,1,1,1,1,1,1,14,15,42,16,16,16,16,16,16,16,16,
16,16,16,16,16,16,16,16,129,130,119,120,2,1,1,1,1,1,2,5,19,18,131,16,16,16,16,16,16,16,16,16,
16,16,16,16,16,16,16,16,126,19,6,7,1,1,1,1,1,1,1,1,109,119,123,16,16,16,16,16,16,16,16,16,
16,16,16,16,16,16,16,16,60,42,15,17,127,128,3,1,1,1,1,1,1,1,14,15,16,16,16,16,16,16,16,16,
16,16,16,16,16,16,16,16,16,126,18,19,6,7,1,1,1,1,1,1,1,1,121,122,16,16,16,16,16,16,16,16,
16,16,16,16,16,16,16,16,16,129,130,119,119,120,1,1,1,1,1,1,5,19,18,131,16,16,16,16,16,16,16,16,
16,16,16,16,16,16,16,16,60,42,15,17,1,1,1,1,2,1,1,1,14,15,42,60,16,16,16,16,16,16,16,16,
16,16,16,16,16,16,16,16,129,130,119,120,1,1,1,1,1,1,1,1,14,42,15,60,16,16,16,16,16,16,16,16,
16,16,16,16,16,16,16,16,42,15,17,1,3,4,1,1,1,1,1,2,109,119,123,16,16,16,16,16,16,16,16,16,
16,16,16,16,16,16,16,16,16,124,125,1,1,1,1,2,1,1,1,1,1,14,15,42,16,16,16,16,16,16,16,16,
16,16,16,16,16,16,16,16,16,126,19,6,7,1,1,1,1,2,1,1,1,121,122,16,16,16,16,16,16,16,16,16,
16,16,16,16,16,16,16,16,16,60,42,15,17,1,1,1,1,1,1,1,1,121,122,16,16,16,16,16,16,16,16,16,
16,16,16,16,16,16,16,16,16,129,130,119,120,1,1,1,3,4,1,1,1,14,15,42,16,16,16,16,16,16,16,16,
16,16,16,16,16,16,16,16,16,124,125,1,1,1,2,1,1,1,1,5,19,18,131,16,16,16,16,16,16,16,16,16,
16,16,16,16,16,16,16,16,42,15,17,3,4,1,1,1,1,1,1,14,15,42,60,16,16,16,16,16,16,16,16,16,
16,16,16,16,16,16,16,16,16,124,125,127,128,1,1,1,1,1,1,109,119,123,16,16,16,16,16,16,16,16,16,16,
16,16,16,16,16,16,16,16,16,126,19,6,7,1,1,1,1,1,1,2,1,14,15,42,16,16,16,16,16,16,16,16,
16,16,16,16,16,16,16,16,16,129,130,119,120,1,1,3,4,1,1,1,1,121,122,16,16,16,16,16,16,16,16,16,
16,16,16,16,16,16,16,16,60,42,15,17,1,1,1,1,1,1,1,1,1,14,15,42,16,16,16,16,16,16,16,16,
16,16,16,16,16,16,16,16,129,130,119,120,2,1,1,1,1,1,2,5,19,18,131,16,16,16,16,16,16,16,16,16,
16,16,16,16,16,16,16,16,126,19,6,7,1,1,1,1,1,1,1,1,109,119,123,16,16,16,16,16,16,16,16,16,
16,16,16,16,16,16,16,16,60,42,15,17,127,128,3,1,1,3,4,1,1,1,14,15,16,16,16,16,16,16,16,16,
16,16,16,16,16,16,16,16,16,126,18,19,6,7,1,1,1,1,1,1,1,1,121,122,16,16,16,16,16,16,16,16,
16,16,16,16,16,16,16,16,16,129,130,119,119,120,1,1,1,1,1,1,5,19,18,131,16,16,16,16,16,16,16,16,
16,16,16,16,16,16,16,16,60,42,15,17,1,1,1,1,2,1,1,1,14,15,42,60,16,16,16,16,16,16,16,16,
16,16,16,16,16,16,16,16,129,130,119,120,1,1,1,1,1,1,1,1,14,42,15,60,16,16,16,16,16,16,16,16,
16,16,16,16,16,16,16,16,42,15,17,1,3,4,1,1,1,1,1,2,109,119,123,16,16,16,16,16,16,16,16,16,
16,16,16,16,16,16,16,16,16,124,125,1,1,1,1,2,1,1,1,1,1,14,15,42,16,16,16,16,16,16,16,16,
16,16,16,16,16,16,16,16,16,126,19,6,7,1,1,1,1,2,1,1,1,121,122,16,16,16,16,16,16,16,16,16,
16,16,16,16,16,16,16,16,16,60,42,15,17,1,1,1,1,1,1,1,1,121,122,16,16,16,16,16,16,16,16,16,
16,16,16,16,16,16,16,16,16,129,130,119,120,1,1,1,3,4,1,1,1,14,15,42,16,16,16,16,16,16,16,16,
16,16,16,16,16,16,16,16,16,124,125,1,1,1,2,1,1,1,1,5,19,18,131,16,16,16,16,16,16,16,16,16,
16,16,16,16,16,16,16,16,42,15,17,3,4,1,1,1,1,1,1,14,15,42,60,16,16,16,16,16,16,16,16,16,
16,16,16,16,16,16,16,16,16,124,125,127,128,1,1,1,1,1,1,109,119,123,16,16,16,16,16,16,16,16,16,16,
16,16,16,16,16,16,16,16,16,126,19,6,7,1,1,1,1,1,1,2,1,14,15,42,16,16,16,16,16,16,16,16,
16,16,16,16,16,16,16,16,16,129,130,119,120,1,1,3,4,1,1,1,1,121,122,16,16,16,16,16,16,16,16,16,
16,16,16,16,16,16,16,16,60,42,15,17,1,1,1,1,1,1,1,1,1,14,15,42,16,16,16,16,16,16,16,16,
16,16,16,16,16,16,16,16,129,130,119,120,2,1,1,1,1,1,2,1,1,14,15,42,16,16,16,16,16,16,16,16,
16,16,16,16,16,16,16,16,42,15,17,1,1,1,1,1,1,1,1,5,19,18,131,16,16,16,16,16,16,16,16,16,
16,16,16,16,16,16,16,16,126,19,6,7,1,1,1,1,1,1,1,1,109,119,123,16,16,16,16,16,16,16,16,16,
16,16,16,16,16,16,16,16,60,42,15,17,127,128,3,1,1,3,4,1,1,1,14,15,16,16,16,16,16,16,16,16,
16,16,16,16,16,16,16,16,16,126,18,19,6,7,1,1,1,1,1,1,1,1,121,122,16,16,16,16,16,16,16,16,
16,16,16,16,16,16,16,16,16,129,130,119,119,120,1,1,1,1,1,1,5,19,18,131,16,16,16,16,16,16,16,16,
16,16,16,16,16,16,16,16,60,42,15,17,1,1,1,1,2,1,1,1,14,15,42,60,16,16,16,16,16,16,16,16,
16,16,16,16,16,16,16,16,129,130,119,120,1,1,1,1,1,1,1,1,14,42,15,60,16,16,16,16,16,16,16,16,
16,16,16,16,16,16,16,16,42,15,17,1,3,4,1,1,1,1,1,2,109,119,123,16,16,16,16,16,16,16,16,16,
16,16,16,16,16,16,16,16,16,124,125,1,1,1,1,2,1,1,1,1,1,14,15,42,16,16,16,16,16,16,16,16,
16,16,16,16,16,16,16,16,16,126,19,6,7,1,1,1,1,2,1,1,1,121,122,16,16,16,16,16,16,16,16,16,
16,16,16,16,16,16,16,16,16,60,42,15,17,1,1,1,1,1,1,1,1,121,122,16,16,16,16,16,16,16,16,16,
16,16,16,16,16,16,16,16,16,129,130,119,120,1,1,1,3,4,1,1,1,14,15,42,16,16,16,16,16,16,16,16,
16,16,16,16,16,16,16,16,16,124,125,1,1,1,2,1,1,1,1,5,19,18,131,16,16,16,16,16,16,16,16,16,
16,16,16,16,16,16,16,16,42,15,17,3,4,1,1,1,1,1,1,14,15,42,60,16,16,16,16,16,16,16,16,16,
16,16,16,16,16,16,16,16,16,18,17,1,3,1,1,3,1,1,1,1,1,14,16,16,16,16,16,16,16,16,16,16,
16,16,16,16,16,16,16,16,16,18,17,1,1,1,1,1,2,2,1,1,1,14,16,16,16,16,16,16,16,16,16,16,
16,16,16,16,16,16,16,16,42,15,17,1,3,4,1,1,1,1,1,2,109,119,123,16,16,16,16,16,16,16,16,16,
16,16,16,16,16,16,16,16,16,124,125,1,1,1,1,2,1,1,1,1,1,14,15,42,16,16,16,16,16,16,16,16,
16,16,16,16,16,16,16,16,16,126,19,6,7,1,1,1,1,2,1,1,1,121,122,16,16,16,16,16,16,16,16,16,
16,16,16,16,16,16,16,16,16,60,42,15,17,1,1,1,1,1,1,1,1,121,122,16,16,16,16,16,16,16,16,16,
16,16,16,16,16,16,16,16,16,129,130,119,120,1,1,1,3,4,1,1,1,14,15,42,16,16,16,16,16,16,16,16,
16,16,16,16,16,16,16,16,16,124,125,1,1,1,2,1,1,1,1,5,19,18,131,16,16,16,16,16,16,16,16,16,
16,16,16,16,16,16,16,16,42,15,17,3,4,1,1,1,1,1,1,14,15,42,60,16,16,16,16,16,16,16,16,16,
16,16,16,16,16,16,16,16,16,124,125,127,128,1,1,1,1,1,1,109,119,123,16,16,16,16,16,16,16,16,16,16,
16,16,16,16,16,16,16,16,16,126,19,6,7,1,1,1,1,1,1,2,1,14,15,42,16,16,16,16,16,16,16,16,
16,16,16,16,16,16,16,16,16,129,130,119,120,1,1,3,4,1,1,1,1,121,122,16,16,16,16,16,16,16,16,16,
16,16,16,16,16,16,16,16,60,42,15,17,1,1,1,1,1,1,1,1,1,14,15,42,16,16,16,16,16,16,16,16,
16,16,16,16,16,16,16,16,129,130,119,120,2,1,1,1,1,1,2,1,1,14,15,42,16,16,16,16,16,16,16,16,
16,16,16,16,16,16,16,16,42,15,17,1,1,1,1,3,4,1,1,5,19,18,131,16,16,16,16,16,16,16,16,16,
16,16,16,16,16,16,16,16,126,19,6,7,1,1,1,1,2,1,1,1,109,119,123,16,16,16,16,16,16,16,16,16,
16,16,16,16,16,16,16,16,60,42,15,17,127,128,3,1,1,1,1,1,1,1,14,15,16,16,16,16,16,16,16,16,
16,16,16,16,16,16,16,16,16,126,18,19,6,7,1,1,1,1,1,1,1,1,121,122,16,16,16,16,16,16,16,16,
16,16,16,16,16,16,16,16,16,129,130,119,119,120,1,1,1,1,1,1,5,19,18,131,16,16,16,16,16,16,16,16,
16,16,16,16,16,16,16,16,60,42,15,17,1,1,1,1,2,1,1,1,14,15,42,60,16,16,16,16,16,16,16,16,
16,16,16,16,16,16,16,16,129,130,119,120,1,1,1,1,1,1,1,1,14,42,15,60,16,16,16,16,16,16,16,16,
16,16,16,16,16,16,16,16,42,15,17,1,3,4,1,1,1,1,1,2,109,119,123,16,16,16,16,16,16,16,16,16,
16,16,16,16,16,16,16,16,16,124,125,1,1,1,1,2,1,1,1,1,1,14,15,42,16,16,16,16,16,16,16,16,
16,16,16,16,16,16,16,16,16,126,19,6,7,1,1,1,1,2,1,1,1,121,122,16,16,16,16,16,16,16,16,16,
16,16,16,16,16,16,16,16,16,60,42,15,17,1,1,1,1,1,1,1,1,121,122,16,16,16,16,16,16,16,16,16,
16,16,16,16,16,16,16,16,16,129,130,119,120,1,1,1,3,4,1,1,1,14,15,42,16,16,16,16,16,16,16,16,
16,16,16,16,16,16,16,16,16,124,125,1,1,1,2,1,1,1,1,5,19,18,131,16,16,16,16,16,16,16,16,16,
16,16,16,16,16,16,16,16,42,15,17,3,4,1,1,1,1,1,1,14,15,42,60,16,16,16,16,16,16,16,16,16,
16,16,16,16,16,16,16,16,16,124,125,127,128,1,1,1,1,1,1,109,119,123,16,16,16,16,16,16,16,16,16,16,
16,16,16,16,16,16,16,16,16,126,19,6,7,1,1,1,1,1,1,2,1,14,15,42,16,16,16,16,16,16,16,16,
16,16,16,16,16,16,16,16,16,129,130,119,120,1,1,3,4,1,1,1,1,121,122,16,16,16,16,16,16,16,16,16,
16,16,16,16,16,16,16,16,60,42,15,17,1,1,1,1,1,1,1,1,1,14,15,42,16,16,16,16,16,16,16,16,
16,16,16,16,16,16,16,16,129,130,119,120,2,1,1,1,1,1,2,1,1,14,15,42,16,16,16,16,16,16,16,16,
16,16,16,16,16,16,16,16,42,15,17,1,1,1,1,3,4,1,1,5,19,18,131,16,16,16,16,16,16,16,16,16,
16,16,16,16,16,16,16,16,126,19,6,7,1,1,1,1,2,1,1,1,109,119,123,16,16,16,16,16,16,16,16,16,
16,16,16,16,16,16,16,16,60,42,15,17,127,128,3,1,1,3,4,1,1,1,14,15,16,16,16,16,16,16,16,16,
16,16,16,16,16,16,16,16,16,126,18,19,6,7,1,1,1,1,1,1,1,1,121,122,16,16,16,16,16,16,16,16,
16,16,16,16,16,16,16,16,16,129,130,119,119,120,1,3,4,1,1,1,5,19,18,131,16,16,16,16,16,16,16,16,
16,16,16,16,16,16,16,16,60,42,15,17,1,1,1,1,2,1,1,1,14,15,42,60,16,16,16,16,16,16,16,16,
16,16,16,16,16,16,16,16,129,130,119,120,1,1,1,1,1,1,1,1,14,42,15,60,16,16,16,16,16,16,16,16,
16,16,16,16,16,16,16,16,42,15,17,1,3,4,1,1,1,1,1,2,109,119,123,16,16,16,16,16,16,16,16,16,
16,16,16,16,16,16,16,16,16,124,125,1,1,1,1,2,1,1,1,1,1,14,15,42,16,16,16,16,16,16,16,16
</data>
 </layer>
</map>
