<?xml version="1.0" encoding="UTF-8"?>
<map version="1.10" tiledversion="1.11.2" orientation="orthogonal" renderorder="right-down" width="62" height="61" tilewidth="16" tileheight="16" infinite="0" nextlayerid="3" nextobjectid="1">
 <tileset firstgid="1" name="tiles" tilewidth="16" tileheight="16" tilecount="125" columns="12">
  <image source="bf_in.png" width="192" height="176"/>
  <tile id="72">
   <objectgroup draworder="index" id="2">
    <object id="1" x="0" y="0">
     <polygon points="0,0 16,0 16,16 0,16"/>
    </object>
   </objectgroup>
  </tile>
  <tile id="75">
   <objectgroup draworder="index" id="2">
    <object id="1" x="0" y="0">
     <polygon points="0,0 16,0 16,16 0,16"/>
    </object>
   </objectgroup>
  </tile>
  <tile id="23">
   <objectgroup draworder="index" id="2">
    <object id="1" x="0" y="0">
     <polygon points="0,0 16,0 16,16 0,16"/>
    </object>
   </objectgroup>
  </tile>
  <tile id="49">
   <objectgroup draworder="index" id="2">
    <object id="1" x="0" y="0">
     <polygon points="0,0 16,0 16,16 0,16"/>
    </object>
   </objectgroup>
  </tile>
  <tile id="22">
   <objectgroup draworder="index" id="2">
    <object id="1" x="0" y="0">
     <polygon points="0,0 16,0 16,16 0,16"/>
    </object>
   </objectgroup>
  </tile>
  <tile id="118">
   <objectgroup draworder="index" id="2">
    <object id="1" x="0" y="0">
     <polygon points="0,0 16,0 16,16 0,16"/>
    </object>
   </objectgroup>
  </tile>
  <tile id="119">
   <objectgroup draworder="index" id="2">
    <object id="1" x="0" y="0">
     <polygon points="0,0 16,0 16,16 0,16"/>
    </object>
   </objectgroup>
  </tile>
  <tile id="27">
   <objectgroup draworder="index" id="2">
    <object id="1" x="0" y="0">
     <polygon points="0,0 16,0 16,16 0,16"/>
    </object>
   </objectgroup>
  </tile>
  <tile id="29">
   <objectgroup draworder="index" id="2">
    <object id="1" x="0" y="0">
     <polygon points="0,0 16,0 16,16 0,16"/>
    </object>
   </objectgroup>
  </tile>
  <tile id="62">
   <objectgroup draworder="index" id="2">
    <object id="1" x="0" y="0">
     <polygon points="0,0 16,0 16,16 0,16"/>
    </object>
   </objectgroup>
  </tile>
  <tile id="63">
   <objectgroup draworder="index" id="2">
    <object id="1" x="0" y="0">
     <polygon points="0,0 16,0 16,16 0,16"/>
    </object>
   </objectgroup>
  </tile>
  <tile id="64">
   <objectgroup draworder="index" id="2">
    <object id="1" x="0" y="0">
     <polygon points="0,0 16,0 16,16 0,16"/>
    </object>
   </objectgroup>
  </tile>
  <tile id="65">
   <objectgroup draworder="index" id="2">
    <object id="1" x="0" y="0">
     <polygon points="0,0 16,0 16,16 0,16"/>
    </object>
   </objectgroup>
  </tile>
  <tile id="18">
   <objectgroup draworder="index" id="2">
    <object id="1" x="0" y="0">
     <polygon points="0,0 16,0 16,16 0,16"/>
    </object>
   </objectgroup>
  </tile>
  <tile id="88">
   <objectgroup draworder="index" id="2">
    <object id="1" x="0" y="0">
     <polygon points="0,0 16,0 16,16 0,16"/>
    </object>
   </objectgroup>
  </tile>
  <tile id="20">
   <objectgroup draworder="index" id="2">
    <object id="1" x="0" y="0">
     <polygon points="0,0 16,0 16,16 0,16"/>
    </object>
   </objectgroup>
  </tile>
  <tile id="50">
   <objectgroup draworder="index" id="2">
    <object id="1" x="0" y="0">
     <polygon points="0,0 16,0 16,16 0,16"/>
    </object>
   </objectgroup>
  </tile>
  <tile id="19">
   <objectgroup draworder="index" id="2">
    <object id="1" x="0" y="0">
     <polygon points="0,0 16,0 16,16 0,16"/>
    </object>
   </objectgroup>
  </tile>
  <tile id="69">
   <objectgroup draworder="index" id="2">
    <object id="1" x="0" y="0">
     <polygon points="0,0 16,0 16,16 0,16"/>
    </object>
   </objectgroup>
  </tile>
  <tile id="68">
   <objectgroup draworder="index" id="2">
    <object id="1" x="0" y="0">
     <polygon points="0,0 16,0 16,16 0,16"/>
    </object>
   </objectgroup>
  </tile>
  <tile id="16">
   <objectgroup draworder="index" id="2">
    <object id="1" x="0" y="0">
     <polygon points="0,0 16,0 16,16 0,16"/>
    </object>
   </objectgroup>
  </tile>
  <tile id="73">
   <objectgroup draworder="index" id="2">
    <object id="1" x="0" y="0">
     <polygon points="0,0 16,0 16,16 0,16"/>
    </object>
   </objectgroup>
  </tile>
  <tile id="74">
   <objectgroup draworder="index" id="2">
    <object id="1" x="0" y="0">
     <polygon points="0,0 16,0 16,16 0,16"/>
    </object>
   </objectgroup>
  </tile>
  <tile id="105">
   <objectgroup draworder="index" id="2">
    <object id="1" x="0" y="0">
     <polygon points="0,0 16,0 16,16 0,16"/>
    </object>
   </objectgroup>
  </tile>
  <tile id="120">
   <objectgroup draworder="index" id="2">
    <object id="1" x="0" y="0">
     <polygon points="0,0 16,0 16,16 0,16"/>
    </object>
   </objectgroup>
  </tile>
  <tile id="8">
   <objectgroup draworder="index" id="2">
    <object id="1" x="0" y="0">
     <polygon points="0,0 16,0 16,16 0,16"/>
    </object>
   </objectgroup>
  </tile>
  <tile id="121">
   <objectgroup draworder="index" id="2">
    <object id="1" x="0" y="0">
     <polygon points="0,0 16,0 16,16 0,16"/>
    </object>
   </objectgroup>
  </tile>
  <tile id="48">
   <objectgroup draworder="index" id="2">
    <object id="1" x="0" y="0">
     <polygon points="0,0 16,0 16,16 0,16"/>
    </object>
   </objectgroup>
  </tile>
  <tile id="85">
   <objectgroup draworder="index" id="2">
    <object id="1" x="0" y="0">
     <polygon points="0,0 16,0 16,16 0,16"/>
    </object>
   </objectgroup>
  </tile>
  <tile id="84">
   <objectgroup draworder="index" id="2">
    <object id="1" x="0" y="0">
     <polygon points="0,0 16,0 16,16 0,16"/>
    </object>
   </objectgroup>
  </tile>
  <tile id="24">
   <objectgroup draworder="index" id="2">
    <object id="1" x="0" y="0">
     <polygon points="0,0 16,0 16,16 0,16"/>
    </object>
   </objectgroup>
  </tile>
  <tile id="80">
   <objectgroup draworder="index" id="2">
    <object id="1" x="0" y="0">
     <polygon points="0,0 16,0 16,16 0,16"/>
    </object>
   </objectgroup>
  </tile>
  <tile id="17">
   <objectgroup draworder="index" id="2">
    <object id="1" x="0" y="0">
     <polygon points="0,0 16,0 16,16 0,16"/>
    </object>
   </objectgroup>
  </tile>
  <tile id="15">
   <objectgroup draworder="index" id="2">
    <object id="1" x="0" y="0">
     <polygon points="0,0 16,0 16,16 0,16"/>
    </object>
   </objectgroup>
  </tile>
  <tile id="3">
   <objectgroup draworder="index" id="2">
    <object id="1" x="0" y="0">
     <polygon points="0,0 16,0 16,16 0,16"/>
    </object>
   </objectgroup>
  </tile>
  <tile id="4">
   <objectgroup draworder="index" id="2">
    <object id="1" x="0" y="0">
     <polygon points="0,0 16,0 16,16 0,16"/>
    </object>
   </objectgroup>
  </tile>
  <tile id="21">
   <objectgroup draworder="index" id="2">
    <object id="2" x="0" y="0">
     <polygon points="0,0 16,0 16,16 0,16"/>
    </object>
   </objectgroup>
  </tile>
  <tile id="101">
   <objectgroup draworder="index" id="2">
    <object id="1" x="0" y="0">
     <polygon points="0,0 16,0 16,16 0,16"/>
    </object>
   </objectgroup>
  </tile>
  <tile id="30">
   <objectgroup draworder="index" id="2">
    <object id="1" x="0" y="0">
     <polygon points="0,0 16,0 16,16 0,16"/>
    </object>
   </objectgroup>
  </tile>
  <tile id="31">
   <objectgroup draworder="index" id="2">
    <object id="1" x="0" y="0">
     <polygon points="0,0 16,0 16,16 0,16"/>
    </object>
   </objectgroup>
  </tile>
  <tile id="32">
   <objectgroup draworder="index" id="2">
    <object id="1" x="0" y="0">
     <polygon points="0,0 16,0 16,16 0,16"/>
    </object>
   </objectgroup>
  </tile>
  <tile id="61">
   <objectgroup draworder="index" id="2">
    <object id="1" x="0" y="0">
     <polygon points="0,0 16,0 16,16 0,16"/>
    </object>
   </objectgroup>
   <animation>
    <frame tileid="61" duration="24"/>
    <frame tileid="111" duration="24"/>
    <frame tileid="112" duration="24"/>
    <frame tileid="113" duration="24"/>
    <frame tileid="114" duration="24"/>
    <frame tileid="115" duration="24"/>
    <frame tileid="116" duration="24"/>
    <frame tileid="117" duration="24"/>
   </animation>
  </tile>
  <tile id="123">
   <properties>
    <property name="spikes" type="int" value="0"/>
   </properties>
  </tile>
  <tile id="87">
   <objectgroup draworder="index" id="2">
    <object id="1" x="0" y="0">
     <properties>
      <property name="type" type="int" value="4"/>
     </properties>
     <polygon points="0,0 16,0 16,16 0,16"/>
    </object>
   </objectgroup>
  </tile>
  <tile id="83">
   <objectgroup draworder="index" id="2">
    <object id="1" x="0" y="0">
     <polygon points="0,0 16,0 16,16 0,16"/>
    </object>
   </objectgroup>
  </tile>
  <tile id="82">
   <objectgroup draworder="index" id="2">
    <object id="1" x="0" y="0">
     <polygon points="0,0 16,0 16,16 0,16"/>
    </object>
   </objectgroup>
  </tile>
  <tile id="97">
   <properties>
    <property name="spikes" type="int" value="0"/>
   </properties>
  </tile>
  <tile id="111">
   <objectgroup draworder="index" id="2">
    <object id="1" x="0" y="0">
     <polygon points="0,0 16,0 16,16 0,16"/>
    </object>
   </objectgroup>
   <animation>
    <frame tileid="111" duration="24"/>
    <frame tileid="61" duration="24"/>
    <frame tileid="117" duration="24"/>
    <frame tileid="116" duration="24"/>
    <frame tileid="115" duration="24"/>
    <frame tileid="114" duration="24"/>
    <frame tileid="113" duration="24"/>
    <frame tileid="112" duration="24"/>
   </animation>
  </tile>
 </tileset>
 <layer id="1" name="layer0" width="62" height="61">
  <data encoding="csv">
91,91,91,91,91,93,23,24,36,36,36,36,36,37,34,36,52,55,36,36,36,36,37,34,36,38,36,119,24,53,53,53,23,120,36,36,36,36,36,36,37,34,36,52,55,36,36,36,36,36,39,8,8,23,24,92,91,91,91,91,91,91,
91,91,91,91,91,93,23,24,36,36,36,36,36,36,36,36,52,55,36,36,36,36,36,36,36,36,36,119,24,53,53,53,23,120,38,36,36,36,36,36,36,36,36,52,55,36,36,36,36,36,39,8,8,23,24,92,91,91,91,91,91,91,
91,91,91,91,91,93,23,24,36,36,36,38,36,36,36,36,52,55,36,36,38,36,36,36,36,36,36,28,30,53,53,53,28,30,36,36,36,36,36,36,36,36,36,52,55,36,36,36,36,36,39,8,8,23,24,92,91,91,91,91,91,91,
91,91,91,91,91,93,23,24,36,36,36,36,36,36,36,36,52,55,36,36,36,36,36,36,36,36,36,36,52,53,53,53,55,36,36,36,36,36,36,36,36,36,36,52,55,36,36,36,36,36,39,68,68,23,24,92,91,91,91,91,91,91,
91,91,91,91,91,93,23,24,36,36,36,36,36,36,36,36,52,55,36,36,36,36,36,38,36,36,36,36,52,53,53,53,55,38,36,36,36,36,38,36,36,38,36,52,55,36,36,38,36,36,39,8,8,23,24,92,91,91,91,91,91,91,
91,91,91,91,91,93,23,24,36,36,36,36,36,36,36,36,52,55,36,36,36,36,36,36,36,36,36,36,52,53,53,53,55,36,36,36,36,36,36,36,36,36,36,52,55,36,36,36,36,36,39,8,8,23,24,92,91,91,91,91,91,91,
91,91,91,91,91,93,23,24,38,36,36,36,36,36,36,36,52,55,36,36,36,36,36,36,36,36,36,38,35,63,50,64,35,36,36,36,65,50,50,50,66,36,36,52,55,36,36,36,36,36,39,8,8,23,24,92,91,91,91,91,91,91,
91,91,91,91,91,93,23,24,36,36,36,36,36,38,36,36,52,55,36,36,36,36,65,50,50,50,50,50,50,19,89,21,50,50,50,51,76,20,20,28,70,36,36,52,55,38,36,36,36,36,39,8,8,23,24,92,91,91,91,91,91,91,
91,91,91,91,91,93,23,24,36,36,36,36,36,36,36,36,52,55,36,36,38,36,69,17,17,17,17,17,17,17,17,17,17,17,17,17,30,8,8,40,36,36,36,52,55,36,36,36,36,36,39,8,8,23,24,92,91,91,91,91,91,91,
91,91,91,91,91,93,23,24,36,36,36,36,36,36,36,36,74,75,36,36,36,36,39,8,8,8,106,121,121,8,121,121,8,121,121,8,8,8,8,40,36,36,36,74,75,36,36,36,36,36,39,27,27,23,24,92,91,91,91,91,91,91,
91,91,91,91,91,93,23,24,36,36,37,34,36,36,36,36,52,55,36,36,36,36,39,8,8,8,9,8,8,8,8,8,8,8,8,8,8,8,8,40,38,36,36,52,55,36,36,37,34,36,39,8,8,23,24,92,91,91,91,91,91,91,
91,91,91,91,91,93,23,24,36,36,36,36,36,36,36,36,52,55,36,36,36,36,39,68,8,68,122,8,8,8,8,8,8,8,68,8,8,8,8,40,36,36,36,52,55,36,36,36,36,36,39,8,8,23,24,92,91,91,91,91,91,91,
50,50,50,50,50,51,21,19,49,86,85,86,85,86,85,86,85,50,50,64,123,63,51,49,50,50,51,92,91,91,91,91,91,93,63,50,51,49,51,49,86,85,86,85,86,85,86,85,86,85,86,85,51,21,19,49,50,50,50,50,50,50,
25,25,25,25,25,25,25,25,25,24,81,73,17,17,17,17,17,17,17,30,8,23,25,25,25,25,18,64,8,8,8,8,8,8,23,25,25,25,25,25,25,25,25,25,25,25,25,25,25,25,25,25,25,25,25,25,25,25,25,25,25,25,
25,25,25,18,16,16,16,16,16,19,4,5,8,8,8,8,8,8,8,8,8,23,25,25,25,25,25,24,8,8,8,8,8,8,23,25,25,25,25,18,16,16,16,16,16,16,16,16,16,16,16,16,16,16,16,16,16,16,16,16,22,25,
25,25,25,24,73,17,17,17,17,17,17,30,8,8,74,102,102,102,102,102,75,73,22,25,25,25,25,24,8,8,8,8,8,8,23,25,25,25,25,24,73,17,17,17,17,17,17,17,17,17,17,17,17,17,17,17,17,17,17,76,23,25,
25,25,25,24,36,38,36,36,39,8,8,8,8,8,8,8,8,40,38,36,36,36,23,25,25,25,25,24,8,8,8,8,8,8,21,16,16,16,16,19,8,8,8,8,8,8,9,8,8,8,8,9,8,15,8,8,8,8,15,8,23,25,
25,25,25,24,36,36,37,34,39,8,8,8,8,8,8,8,8,40,36,36,38,36,21,16,16,16,16,19,8,8,8,8,8,8,28,17,17,17,17,30,8,8,8,8,8,8,122,8,8,8,8,9,8,8,8,8,8,8,8,8,23,25,
25,25,25,24,36,36,36,36,112,112,112,112,56,56,62,62,62,62,36,36,36,36,69,30,20,20,28,30,8,8,8,8,8,8,8,8,8,8,8,8,8,8,8,8,8,8,8,8,8,8,8,9,8,8,8,8,8,8,8,8,23,25,
25,25,25,24,34,36,36,36,36,36,36,36,36,36,36,36,36,36,38,36,36,36,8,8,8,8,8,8,8,8,8,8,8,8,8,8,8,8,8,8,8,8,8,8,8,8,8,8,8,8,8,9,8,8,8,15,15,15,8,8,23,25,
25,25,25,24,36,36,36,36,36,36,36,37,34,36,36,36,36,36,36,36,36,38,8,8,8,8,8,8,8,8,8,8,8,8,49,50,50,50,50,64,8,8,8,8,15,15,15,15,8,8,8,9,8,8,8,74,102,75,8,8,23,25,
25,25,25,24,36,36,36,36,38,36,36,36,36,36,36,36,38,36,36,36,37,34,8,8,8,8,8,8,8,8,8,8,8,8,23,25,25,25,25,24,8,8,8,8,74,102,102,75,8,8,8,9,8,8,8,8,9,8,8,8,23,25,
25,25,25,24,36,38,36,36,36,36,36,36,36,38,36,36,36,36,36,36,36,36,8,8,8,8,8,8,8,8,8,8,8,8,23,25,25,25,25,24,8,8,8,8,8,8,9,8,8,8,8,122,8,8,8,8,9,8,8,8,23,25,
25,18,16,19,124,124,112,112,112,112,112,112,49,51,62,62,62,62,62,62,124,124,63,51,63,64,49,64,88,88,88,88,88,88,23,25,25,25,25,24,8,8,8,8,8,8,9,8,8,8,8,8,8,8,8,8,9,8,8,8,23,25,
25,24,49,84,83,84,83,84,83,84,83,84,83,84,83,84,83,84,83,84,83,84,83,84,83,84,51,24,8,8,8,8,8,8,23,25,25,25,25,24,8,8,8,8,8,8,9,8,8,8,8,8,8,8,8,8,9,8,8,8,23,25,
25,24,73,17,17,17,17,17,17,17,17,17,17,17,17,17,17,17,17,17,17,17,17,17,17,17,17,30,8,8,8,8,8,8,21,16,16,16,16,19,8,8,8,8,8,8,9,8,8,8,15,15,15,8,8,8,9,8,8,8,23,25,
25,24,8,8,8,28,121,17,17,17,121,17,17,17,121,17,17,17,121,17,30,8,8,8,94,8,8,8,8,8,8,8,8,8,28,17,17,17,17,30,8,8,8,8,8,8,122,88,88,88,74,102,75,88,88,88,122,8,8,8,23,25,
25,24,8,8,96,91,91,91,91,91,91,91,91,91,91,91,91,91,91,91,91,91,91,91,99,8,8,8,8,8,8,8,8,8,8,8,8,8,8,8,8,8,8,8,8,8,8,8,8,8,8,9,8,8,8,8,8,8,8,8,23,25,
25,24,8,96,99,62,62,62,62,62,62,62,62,62,62,62,62,62,62,62,62,49,83,51,8,8,8,8,8,8,8,8,8,8,8,8,8,8,8,8,8,8,8,8,8,8,8,8,8,8,8,9,8,8,8,8,8,8,8,8,23,25,
25,18,49,50,51,21,16,16,16,16,16,16,16,16,16,16,16,16,16,16,16,21,16,22,49,84,50,51,8,8,8,8,8,8,49,86,85,86,85,64,8,8,8,8,8,8,8,8,8,8,8,9,8,8,8,8,8,8,8,8,23,25,
25,25,25,24,73,17,17,17,17,17,30,20,28,30,20,28,17,17,17,17,17,76,23,17,17,17,17,30,8,8,8,8,8,8,23,25,25,25,25,24,8,8,8,8,8,8,15,8,8,8,8,9,8,8,8,8,8,8,8,8,23,25,
25,25,25,24,36,52,53,53,55,39,8,8,23,24,8,8,40,52,53,53,55,36,23,8,8,8,8,8,8,8,8,8,8,8,23,25,25,25,25,24,88,88,88,88,88,88,106,88,88,88,88,9,8,8,8,15,15,15,8,8,23,25,
25,25,25,24,36,52,53,53,55,39,8,8,23,24,8,8,40,52,53,53,55,36,23,8,78,8,8,8,8,8,8,8,8,8,23,25,25,25,25,24,8,8,8,8,8,8,9,8,8,8,8,9,8,8,8,74,102,75,8,8,23,25,
25,25,25,24,88,88,88,112,112,112,112,112,49,51,62,62,62,62,62,88,88,88,23,49,50,50,50,51,8,8,8,8,8,8,23,25,25,25,25,24,8,8,8,8,8,8,9,8,8,8,8,122,8,8,8,8,9,8,8,8,23,25,
25,25,25,24,36,52,53,53,54,53,54,53,53,53,53,54,53,54,53,53,55,36,21,20,16,16,16,19,88,88,88,88,88,88,23,25,25,25,25,24,8,8,15,8,8,8,9,8,8,8,8,8,8,8,8,8,9,8,8,8,23,25,
25,25,25,24,36,52,53,53,54,53,54,53,53,53,53,54,53,54,53,53,55,36,8,8,8,8,8,8,8,8,8,8,8,8,23,25,25,25,25,24,8,8,106,88,88,88,9,8,8,8,8,8,8,8,8,8,9,8,8,8,23,25,
25,25,25,24,36,52,53,53,54,53,54,53,53,53,53,54,53,54,53,53,55,36,8,8,8,8,8,8,8,8,8,8,8,8,23,25,25,25,25,24,8,8,9,8,8,8,9,8,8,8,15,15,15,8,8,8,9,8,8,8,23,25,
25,25,25,24,36,52,53,112,112,112,112,112,112,112,112,112,112,112,112,112,112,112,49,50,50,50,50,50,51,8,8,8,8,8,23,25,25,25,25,24,8,8,9,8,8,8,9,8,8,8,74,102,75,8,8,8,9,8,8,8,23,25,
25,18,20,19,36,52,53,53,54,53,54,53,53,53,53,54,53,54,53,53,55,36,23,25,25,25,25,25,24,8,8,8,8,8,21,16,16,16,16,19,8,8,9,8,8,8,9,8,8,8,8,9,8,8,8,8,9,8,8,8,23,25,
25,24,8,8,36,52,53,53,54,53,54,53,53,53,53,54,53,54,53,53,55,36,23,25,25,25,25,25,24,8,8,8,8,8,28,17,17,17,17,30,8,8,9,8,8,8,122,8,8,8,8,122,8,8,8,8,122,8,8,8,23,25,
25,24,8,8,36,52,53,53,54,53,54,53,53,53,53,54,53,54,53,53,55,36,23,25,25,25,25,25,24,8,8,8,8,8,8,8,8,8,8,8,8,8,9,8,8,8,8,8,8,8,8,8,8,8,8,8,8,8,8,8,23,25,
25,19,62,62,62,62,62,62,62,62,62,62,62,62,62,62,62,62,62,53,55,36,23,25,25,25,25,25,24,8,8,8,8,8,8,8,8,8,8,8,8,8,9,8,8,8,8,8,8,8,8,8,8,8,8,8,8,8,8,8,23,25,
25,49,50,66,36,52,53,53,54,53,54,53,53,53,53,54,53,54,53,53,55,36,21,20,22,25,25,25,24,8,8,8,8,63,50,50,50,50,50,50,50,64,9,8,8,8,8,8,8,8,8,8,8,8,8,8,8,8,8,8,23,25,
25,25,25,24,36,52,53,53,54,53,54,53,53,53,53,54,53,54,53,53,55,36,8,8,23,25,25,25,24,88,88,88,88,23,25,25,25,25,25,25,25,24,122,98,98,98,98,98,98,98,8,8,8,98,98,98,98,98,98,98,23,25,
25,25,25,24,36,52,53,53,54,53,54,53,53,53,53,54,53,54,53,53,55,36,8,8,21,16,16,16,19,8,8,8,8,23,25,25,25,25,25,25,25,19,85,86,85,86,85,86,85,64,8,8,8,63,83,84,83,84,83,84,21,25,
25,25,25,24,60,95,112,112,112,112,112,112,112,112,112,112,112,112,112,112,112,112,112,112,28,17,17,17,30,8,8,8,8,23,25,25,25,25,25,25,25,25,25,25,25,25,25,25,25,24,88,88,88,23,25,25,25,25,25,25,25,25,
18,16,16,24,8,8,8,8,8,8,8,8,8,8,8,8,8,8,8,8,8,8,8,8,8,8,8,8,8,8,15,15,8,21,16,16,16,16,16,16,16,16,16,16,16,22,25,25,25,24,8,8,8,23,25,25,25,25,25,25,25,25,
24,17,17,30,96,93,49,51,74,102,102,102,102,102,102,102,102,102,102,102,102,102,102,102,102,102,102,102,75,8,8,8,8,28,17,17,17,17,17,17,17,17,17,17,17,23,25,25,25,24,8,15,8,23,25,25,25,25,25,25,25,25,
24,8,8,8,94,8,20,20,8,8,8,8,8,8,8,8,8,8,8,8,8,8,8,8,8,8,8,8,8,8,8,8,8,8,8,8,8,8,8,8,8,8,8,8,8,23,25,25,25,24,8,8,8,23,25,25,25,25,25,25,25,25,
24,8,8,8,94,8,8,8,8,47,44,48,8,8,47,48,8,8,47,48,8,8,47,48,8,8,47,48,8,8,47,48,8,8,47,48,8,8,47,48,8,8,47,48,8,23,25,25,25,24,8,8,8,23,25,25,25,25,25,25,25,25,
24,8,8,8,94,8,8,8,8,79,60,80,8,8,79,80,8,8,79,80,8,8,79,80,8,8,79,80,8,8,79,80,8,8,79,80,8,8,79,80,8,8,79,80,8,23,25,25,25,24,8,15,8,23,25,25,25,25,25,25,25,25,
24,8,8,8,94,8,8,8,8,8,8,8,8,8,8,8,8,8,8,8,8,8,8,8,8,8,8,8,8,8,8,8,8,8,8,8,8,8,8,8,8,8,8,8,8,23,25,25,25,24,8,8,8,23,25,25,25,25,25,25,25,25,
18,49,51,92,99,8,8,8,8,8,8,8,8,8,8,8,8,8,8,8,8,8,74,75,63,86,83,84,83,84,83,84,83,84,83,84,83,64,74,75,8,8,8,8,8,21,16,16,16,19,8,8,8,23,25,25,25,25,25,25,25,25,
25,25,25,49,50,50,50,64,8,47,44,48,8,8,47,48,8,8,8,8,8,8,8,8,23,25,25,25,25,25,25,25,25,25,25,25,25,24,8,8,8,8,8,8,8,28,17,17,17,30,8,15,8,23,25,25,25,25,25,25,25,25,
17,17,17,17,17,17,17,30,8,79,60,80,8,8,79,80,8,8,8,8,63,64,8,8,23,25,25,25,25,25,25,25,25,25,25,25,25,24,8,8,63,64,8,8,8,8,8,8,8,8,8,8,8,23,25,25,25,25,25,25,25,25,
8,8,8,8,8,8,8,8,8,8,8,8,8,8,8,8,8,8,8,8,28,30,63,51,19,25,25,25,25,25,25,25,25,25,25,25,25,21,49,64,28,30,8,8,8,8,8,8,8,8,8,8,8,21,16,22,25,25,25,25,25,25,
8,8,8,8,8,8,8,8,8,8,8,8,8,8,8,8,8,8,8,8,8,8,23,25,25,25,25,25,25,25,25,25,25,25,25,25,25,25,25,24,8,8,8,8,8,8,8,8,8,8,8,8,8,8,8,23,25,25,25,25,25,25,
50,50,50,50,50,50,50,50,50,50,50,50,50,50,50,50,50,50,50,64,8,8,23,25,25,25,25,25,25,25,25,25,25,25,25,25,25,25,25,24,8,8,63,64,112,112,112,112,112,112,112,63,64,8,8,23,25,25,25,25,25,25,
25,25,25,25,25,25,25,25,25,25,25,25,25,25,25,25,25,25,25,21,49,51,19,25,25,25,25,25,25,25,25,25,25,25,25,25,25,25,25,21,49,51,21,19,49,86,85,86,85,86,51,21,19,49,51,19,25,25,25,25,25,25,
25,25,25,25,25,25,25,25,25,25,25,25,25,25,25,25,25,25,25,25,25,25,25,25,25,25,25,25,25,25,25,25,25,25,25,25,25,25,25,25,25,25,25,25,25,25,25,25,25,25,25,25,25,25,25,25,25,25,25,25,25,25,
25,25,25,25,25,25,25,25,25,25,25,25,25,25,25,25,25,25,25,25,25,25,25,25,25,25,25,25,25,25,25,25,25,25,25,25,25,25,25,25,25,25,25,25,25,25,25,25,25,25,25,25,25,25,25,25,25,25,25,25,25,25
</data>
 </layer>
 <layer id="2" name="layer1" width="62" height="61">
  <properties>
   <property name="priority" type="bool" value="true"/>
  </properties>
  <data encoding="csv">
0,0,0,0,0,0,0,0,0,0,0,0,0,0,0,0,0,0,0,0,0,0,0,0,0,0,0,0,0,0,0,0,0,0,0,0,0,0,0,0,0,0,0,0,0,0,0,0,0,0,0,0,0,0,0,0,0,0,0,0,0,0,
0,0,0,0,0,0,0,0,0,0,0,0,0,0,0,0,0,0,0,0,0,0,0,0,0,0,0,0,0,0,0,0,0,0,0,0,0,0,0,0,0,0,0,0,0,0,0,0,0,0,0,0,0,0,0,0,0,0,0,0,0,0,
0,0,0,0,0,0,0,0,0,0,0,0,0,0,0,0,0,0,0,0,0,0,0,0,0,0,0,0,0,0,0,0,0,0,0,0,0,0,0,0,0,0,0,0,0,0,0,0,0,0,0,0,0,0,0,0,0,0,0,0,0,0,
0,0,0,0,0,0,0,0,0,0,0,0,0,0,0,0,0,0,0,0,0,0,0,0,0,0,0,0,0,0,0,0,0,0,0,0,0,0,0,0,0,0,0,0,0,0,0,0,0,0,0,0,0,0,0,0,0,0,0,0,0,0,
0,0,0,0,0,0,0,0,0,0,0,0,0,0,0,0,0,0,0,0,0,0,0,0,0,0,0,0,0,0,0,0,0,0,0,0,0,0,0,0,0,0,0,0,0,0,0,0,0,0,0,0,0,0,0,0,0,0,0,0,0,0,
0,0,0,0,0,0,0,0,0,0,0,0,0,0,0,0,0,0,0,0,0,0,0,0,0,0,0,0,0,0,0,0,0,0,0,0,0,0,0,0,0,0,0,0,0,0,0,0,0,0,0,0,0,0,0,0,0,0,0,0,0,0,
0,0,0,0,0,0,0,0,0,0,0,0,0,0,0,0,0,0,0,0,0,0,0,0,0,0,0,0,0,0,0,0,0,0,0,0,0,0,0,0,0,0,0,0,0,0,0,0,0,0,0,0,0,0,0,0,0,0,0,0,0,0,
0,0,0,0,0,0,0,0,0,0,0,0,0,0,0,0,0,0,0,0,0,0,0,0,0,0,0,0,0,0,0,0,0,0,0,0,0,0,0,0,0,0,0,0,0,0,0,0,0,0,0,0,0,0,0,0,0,0,0,0,0,0,
0,0,0,0,0,0,0,0,0,0,0,0,0,0,0,0,0,0,0,0,0,0,0,0,0,0,0,0,0,0,0,0,0,0,0,0,0,0,0,0,0,0,0,0,0,0,0,0,0,0,0,0,0,0,0,0,0,0,0,0,0,0,
0,0,0,0,0,0,0,0,0,0,0,0,0,0,0,0,0,0,0,0,0,0,0,0,0,0,0,0,0,0,0,0,0,0,0,0,0,0,0,0,0,0,0,0,0,0,0,0,0,0,0,0,0,0,0,0,0,0,0,0,0,0,
0,0,0,0,0,0,0,0,0,0,0,0,0,0,0,0,0,0,0,0,0,0,0,0,0,0,0,0,0,0,0,0,0,0,0,0,0,0,0,0,0,0,0,0,0,0,0,0,0,0,0,0,0,0,0,0,0,0,0,0,0,0,
0,0,0,0,0,0,0,0,0,0,0,0,0,0,0,0,0,0,0,0,0,0,0,0,0,0,0,0,0,0,0,0,0,0,0,0,0,0,0,0,0,0,0,0,0,0,0,0,0,0,0,0,0,0,0,0,0,0,0,0,0,0,
0,0,0,0,0,0,0,0,0,0,0,0,0,0,0,0,0,0,0,0,0,0,0,0,0,0,0,0,0,0,0,0,0,0,0,0,0,0,0,0,0,0,0,0,0,0,0,0,0,0,0,0,0,0,0,0,0,0,0,0,0,0,
0,0,0,0,0,0,0,0,0,0,0,0,0,0,0,0,0,0,0,0,0,0,0,0,0,0,0,0,0,0,0,0,0,0,0,0,0,0,0,0,0,0,0,0,0,0,0,0,0,0,0,0,0,0,0,0,0,0,0,0,0,0,
0,0,0,0,0,0,0,0,0,0,0,0,0,0,0,0,0,0,0,0,0,0,0,0,0,0,0,0,0,0,0,0,0,0,0,0,0,0,0,0,0,0,0,0,0,0,0,0,0,0,0,0,0,0,0,0,0,0,0,0,0,0,
0,0,0,0,0,0,0,0,0,0,0,0,0,0,0,0,0,0,0,0,0,0,0,0,0,0,0,0,0,0,0,0,0,0,0,0,0,0,0,0,0,0,0,0,0,0,0,0,0,0,0,0,0,0,0,0,0,0,0,0,0,0,
0,0,0,0,0,0,0,0,0,31,32,33,0,0,31,32,33,0,0,0,0,0,0,0,0,0,0,0,0,0,0,0,0,0,0,0,0,0,0,0,0,0,0,0,0,0,0,0,0,0,0,0,0,0,0,0,0,0,0,0,0,0,
0,0,0,0,0,0,0,0,0,31,32,33,0,0,31,32,33,0,0,0,0,0,0,0,0,0,0,0,0,0,0,0,0,0,0,0,0,0,0,0,0,0,0,0,0,0,0,0,0,0,0,0,0,0,0,0,0,0,0,0,0,0,
0,0,0,0,0,0,0,0,0,0,0,0,0,0,0,0,0,0,0,0,0,0,0,0,0,0,0,0,0,0,0,0,0,0,0,0,0,0,0,0,0,0,0,0,0,0,0,0,0,0,0,0,0,0,0,0,0,0,0,0,0,0,
0,0,0,0,0,0,0,0,0,0,0,0,0,0,0,0,0,0,0,0,0,0,0,0,0,0,0,0,0,0,0,0,0,0,0,0,0,0,0,0,0,0,0,0,0,0,0,0,0,0,0,0,0,0,0,0,0,0,0,0,0,0,
0,0,0,0,0,0,0,0,0,0,0,0,0,0,0,0,0,0,0,0,0,0,0,0,0,0,0,0,0,0,0,0,0,0,0,0,0,0,0,0,0,0,0,0,0,0,0,0,0,0,0,0,0,0,0,0,0,0,0,0,0,0,
0,0,0,0,0,0,0,0,0,0,0,0,0,0,0,0,0,0,0,0,0,0,0,0,0,0,0,0,0,0,0,0,0,0,0,0,0,0,0,0,0,0,0,0,0,0,0,0,0,0,0,0,0,0,0,0,0,0,0,0,0,0,
0,0,0,0,0,0,0,0,0,0,0,0,0,0,0,0,0,0,0,0,0,0,0,0,0,0,0,0,0,0,0,0,0,0,0,0,0,0,0,0,0,0,0,0,0,0,0,0,0,0,0,0,0,0,0,0,0,0,0,0,0,0,
0,0,0,0,0,0,0,0,0,0,0,0,0,0,0,0,0,0,0,0,0,0,0,0,0,0,0,0,0,0,0,0,0,0,0,0,0,0,0,0,0,0,0,0,0,0,0,0,0,0,0,0,0,0,0,0,0,0,0,0,0,0,
0,0,0,0,0,0,0,0,0,0,0,0,0,0,0,0,0,0,0,0,0,0,0,0,0,0,0,0,0,0,0,0,0,0,0,0,0,0,0,0,0,0,0,0,0,0,0,0,0,0,0,0,0,0,0,0,0,0,0,0,0,0,
0,0,0,0,0,0,0,0,0,0,0,0,0,0,0,0,0,0,0,0,0,0,0,0,0,0,0,0,0,0,0,0,0,0,0,0,0,0,0,0,0,0,0,0,0,0,0,0,0,0,0,0,0,0,0,0,0,0,0,0,0,0,
0,0,0,0,0,0,0,0,0,0,0,0,0,0,0,0,0,0,0,0,0,0,0,0,0,0,0,0,0,0,0,0,0,0,0,0,0,0,0,0,0,0,0,0,0,0,0,0,0,0,0,0,0,0,0,0,0,0,0,0,0,0,
0,0,0,0,0,0,0,0,0,0,0,0,0,0,0,0,0,0,0,0,0,0,0,0,0,0,0,0,0,0,0,0,0,0,0,0,0,0,0,0,0,0,0,0,0,0,0,0,0,0,0,0,0,0,0,0,0,0,0,0,0,0,
0,0,0,0,0,0,0,0,0,0,0,0,0,0,0,0,0,0,0,0,0,0,0,0,0,0,0,0,0,0,0,0,0,0,0,0,0,0,0,0,0,0,0,0,0,0,0,0,0,0,0,0,0,0,0,0,0,0,0,0,0,0,
0,0,0,0,0,0,0,0,0,0,0,0,0,0,0,0,0,0,0,0,0,0,0,0,0,0,0,0,0,0,0,0,0,0,0,0,0,0,0,0,0,0,0,0,0,0,0,0,0,0,0,0,0,0,0,0,0,0,0,0,0,0,
0,0,0,0,0,0,0,0,0,0,0,0,0,0,0,0,0,0,0,0,0,0,0,0,0,0,0,0,0,0,0,0,0,0,0,0,0,0,0,0,0,0,0,0,0,0,0,0,0,0,0,0,0,0,0,0,0,0,0,0,0,0,
0,0,0,0,0,0,0,0,0,0,31,32,0,0,32,33,0,0,0,0,0,0,0,0,0,0,0,0,0,0,0,0,0,0,0,0,0,0,0,0,0,0,0,0,0,0,0,0,0,0,0,0,0,0,0,0,0,0,0,0,0,0,
0,0,0,0,0,0,0,0,0,0,31,32,0,0,32,33,0,0,0,0,0,0,0,0,0,0,0,0,0,0,0,0,0,0,0,0,0,0,0,0,0,0,0,0,0,0,0,0,0,0,0,0,0,0,0,0,0,0,0,0,0,0,
0,0,0,0,0,0,0,0,0,0,0,0,0,0,0,0,0,0,0,0,0,0,0,0,0,0,0,0,0,0,0,0,0,0,0,0,0,0,0,0,0,0,0,0,0,0,0,0,0,0,0,0,0,0,0,0,0,0,0,0,0,0,
0,0,0,0,0,0,0,0,0,0,0,0,0,0,0,0,0,0,0,0,0,0,0,0,0,0,0,0,0,0,0,0,0,0,0,0,0,0,0,0,0,0,0,0,0,0,0,0,0,0,0,0,0,0,0,0,0,0,0,0,0,0,
0,0,0,0,0,0,0,0,0,0,0,0,0,0,0,0,0,0,0,0,0,0,31,32,0,0,0,0,0,0,0,0,0,0,0,0,0,0,0,0,0,0,0,0,0,0,0,0,0,0,0,0,0,0,0,0,0,0,0,0,0,0,
0,0,0,0,0,0,0,0,0,0,0,0,0,0,0,0,0,0,0,0,0,0,31,32,0,0,0,0,0,0,0,0,0,0,0,0,0,0,0,0,0,0,0,0,0,0,0,0,0,0,0,0,0,0,0,0,0,0,0,0,0,0,
0,0,0,0,0,0,0,0,0,0,0,0,0,0,0,0,0,0,0,0,0,0,0,0,0,0,0,0,0,0,0,0,0,0,0,0,0,0,0,0,0,0,0,0,0,0,0,0,0,0,0,0,0,0,0,0,0,0,0,0,0,0,
0,0,0,0,0,0,0,0,0,0,0,0,0,0,0,0,0,0,0,0,0,0,0,0,0,0,0,0,0,0,0,0,0,0,0,0,0,0,0,0,0,0,0,0,0,0,0,0,0,0,0,0,0,0,0,0,0,0,0,0,0,0,
0,0,32,33,0,0,0,0,0,0,0,0,0,0,0,0,0,0,0,0,0,0,0,0,0,0,0,0,0,0,0,0,0,0,0,0,0,0,0,0,0,0,0,0,0,0,0,0,0,0,0,0,0,0,0,0,0,0,0,0,0,0,
0,0,32,33,0,0,0,0,0,0,0,0,0,0,0,0,0,0,0,0,0,0,0,0,0,0,0,0,0,0,0,0,0,0,0,0,0,0,0,0,0,0,0,0,0,0,0,0,0,0,0,0,0,0,0,0,0,0,0,0,0,0,
0,0,0,0,0,0,0,0,0,0,0,0,0,0,0,0,0,0,0,0,0,0,0,0,0,0,0,0,0,0,0,0,0,0,0,0,0,0,0,0,0,0,0,0,0,0,0,0,0,0,0,0,0,0,0,0,0,0,0,0,0,0,
0,0,0,0,0,0,0,0,0,0,0,0,0,0,0,0,0,0,0,0,0,0,0,0,0,0,0,0,0,0,0,0,0,0,0,0,0,0,0,0,0,0,0,0,0,0,0,0,0,0,0,0,0,0,0,0,0,0,0,0,0,0,
0,0,0,0,0,0,0,0,0,0,0,0,0,0,0,0,0,0,0,0,0,0,31,32,0,0,0,0,0,0,0,0,0,0,0,0,0,0,0,0,0,0,0,0,0,0,0,0,0,0,0,0,0,0,0,0,0,0,0,0,0,0,
0,0,0,0,0,0,0,0,0,0,0,0,0,0,0,0,0,0,0,0,0,0,31,32,0,0,0,0,0,0,0,0,0,0,0,0,0,0,0,0,0,0,0,0,0,0,0,0,0,0,0,0,0,0,0,0,0,0,0,0,0,0,
0,0,0,0,0,0,0,0,0,0,0,0,0,0,0,0,0,0,0,0,0,0,0,0,0,0,0,0,0,0,0,0,0,0,0,0,0,0,0,0,0,0,0,0,0,0,0,0,0,0,0,0,0,0,0,0,0,0,0,0,0,0,
0,0,0,0,0,0,0,0,0,0,0,0,0,0,0,0,0,0,0,0,0,0,0,0,0,0,0,0,0,0,0,0,0,0,0,0,0,0,0,0,0,0,0,0,0,0,0,0,0,0,0,0,0,0,0,0,0,0,0,0,0,0,
0,0,0,0,0,0,0,0,0,0,0,0,0,0,0,0,0,0,0,0,0,0,0,0,0,0,0,0,0,0,0,0,0,0,0,0,0,0,0,0,0,0,0,0,0,0,0,0,0,0,0,0,0,0,0,0,0,0,0,0,0,0,
0,0,0,0,0,0,0,0,0,0,0,0,0,0,0,0,0,0,0,0,0,0,0,0,0,0,0,0,0,0,0,0,0,0,0,0,0,0,0,0,0,0,0,0,0,0,0,0,0,0,0,0,0,0,0,0,0,0,0,0,0,0,
0,0,0,0,0,0,0,0,0,0,0,0,0,0,0,0,0,0,0,0,0,0,0,0,0,0,0,0,0,0,0,0,0,0,0,0,0,0,0,0,0,0,0,0,0,0,0,0,0,0,0,0,0,0,0,0,0,0,0,0,0,0,
0,0,0,0,0,0,0,0,0,0,0,0,0,0,0,0,0,0,0,0,0,0,0,0,0,0,0,0,0,0,0,0,0,0,0,0,0,0,0,0,0,0,0,0,0,0,0,0,0,0,0,0,0,0,0,0,0,0,0,0,0,0,
0,0,0,0,0,0,0,0,0,0,0,0,0,0,0,0,0,0,0,0,0,0,0,0,0,0,0,0,0,0,0,0,0,0,0,0,0,0,0,0,0,0,0,0,0,0,0,0,0,0,0,0,0,0,0,0,0,0,0,0,0,0,
0,0,0,0,0,0,0,0,0,0,0,0,0,0,0,0,0,0,0,0,0,0,0,0,0,0,0,0,0,0,0,0,0,0,0,0,0,0,0,0,0,0,0,0,0,0,0,0,0,0,0,0,0,0,0,0,0,0,0,0,0,0,
0,0,0,0,0,0,0,0,0,0,0,0,0,0,0,0,0,0,0,0,0,0,0,0,0,0,0,0,0,0,0,0,0,0,0,0,0,0,0,0,0,0,0,0,0,0,0,0,0,0,0,0,0,0,0,0,0,0,0,0,0,0,
0,0,0,0,0,0,0,0,0,0,0,0,0,0,0,0,0,0,0,0,0,0,0,0,0,0,0,0,0,0,0,0,0,0,0,0,0,0,0,0,0,0,0,0,0,0,0,0,0,0,0,0,0,0,0,0,0,0,0,0,0,0,
0,0,0,0,0,0,0,0,0,0,0,0,0,0,0,0,0,0,0,0,0,0,0,0,0,0,0,0,0,0,0,0,0,0,0,0,0,0,0,0,0,0,0,0,0,0,0,0,0,0,0,0,0,0,0,0,0,0,0,0,0,0,
0,0,0,0,0,0,0,0,0,0,0,0,0,0,0,0,0,0,0,0,0,0,0,0,0,0,0,0,0,0,0,0,0,0,0,0,0,0,0,0,0,0,0,0,0,0,0,0,0,0,0,0,0,0,0,0,0,0,0,0,0,0,
0,0,0,0,0,0,0,0,0,0,0,0,0,0,0,0,0,0,0,0,0,0,0,0,0,0,0,0,0,0,0,0,0,0,0,0,0,0,0,0,0,0,0,0,0,0,0,0,0,0,0,0,0,0,0,0,0,0,0,0,0,0,
0,0,0,0,0,0,0,0,0,0,0,0,0,0,0,0,0,0,0,0,0,0,0,0,0,0,0,0,0,0,0,0,0,0,0,0,0,0,0,0,0,0,0,0,0,0,0,0,0,0,0,0,0,0,0,0,0,0,0,0,0,0,
0,0,0,0,0,0,0,0,0,0,0,0,0,0,0,0,0,0,0,0,0,0,0,0,0,0,0,0,0,0,0,0,0,0,0,0,0,0,0,0,0,0,0,0,0,0,0,0,0,0,0,0,0,0,0,0,0,0,0,0,0,0,
0,0,0,0,0,0,0,0,0,0,0,0,0,0,0,0,0,0,0,0,0,0,0,0,0,0,0,0,0,0,0,0,0,0,0,0,0,0,0,0,0,0,0,0,0,0,0,0,0,0,0,0,0,0,0,0,0,0,0,0,0,0
</data>
 </layer>
</map>
