<?xml version="1.0" encoding="UTF-8"?>
<map version="1.10" tiledversion="1.12.0" orientation="orthogonal" renderorder="right-down" width="48" height="32" tilewidth="16" tileheight="16" infinite="0" nextlayerid="3" nextobjectid="1">
 <tileset firstgid="1" name="tiles" tilewidth="16" tileheight="16" tilecount="125" columns="12">
  <image source="bf_in.png" width="192" height="176"/>
  <tile id="22">
   <objectgroup draworder="index" id="2">
    <object id="1" x="0" y="0">
     <polygon points="0,0 16,0 16,16 0,16"/>
    </object>
   </objectgroup>
  </tile>
  <tile id="23">
   <objectgroup draworder="index" id="2">
    <object id="1" x="0" y="0">
     <polygon points="0,0 16,0 16,16 0,16"/>
    </object>
   </objectgroup>
  </tile>
  <tile id="16">
   <objectgroup draworder="index" id="2">
    <object id="1" x="0" y="0">
     <polygon points="0,0 16,0 16,16 0,16"/>
    </object>
   </objectgroup>
  </tile>
  <tile id="27">
   <objectgroup draworder="index" id="2">
    <object id="1" x="0" y="0">
     <polygon points="0,0 16,0 16,16 0,16"/>
    </object>
   </objectgroup>
  </tile>
  <tile id="69">
   <objectgroup draworder="index" id="2">
    <object id="1" x="0" y="0">
     <polygon points="0,0 16,0 16,16 0,16"/>
    </object>
   </objectgroup>
  </tile>
  <tile id="48">
   <objectgroup draworder="index" id="2">
    <object id="1" x="0" y="0">
     <polygon points="0,0 16,0 16,16 0,16"/>
    </object>
   </objectgroup>
  </tile>
  <tile id="85">
   <objectgroup draworder="index" id="2">
    <object id="1" x="0" y="0">
     <polygon points="0,0 16,0 16,16 0,16"/>
    </object>
   </objectgroup>
  </tile>
  <tile id="84">
   <objectgroup draworder="index" id="2">
    <object id="1" x="0" y="0">
     <polygon points="0,0 16,0 16,16 0,16"/>
    </object>
   </objectgroup>
  </tile>
  <tile id="82">
   <objectgroup draworder="index" id="2">
    <object id="1" x="0" y="0">
     <polygon points="0,0 16,0 16,16 0,16"/>
    </object>
   </objectgroup>
  </tile>
  <tile id="83">
   <objectgroup draworder="index" id="2">
    <object id="1" x="0" y="0">
     <polygon points="0,0 16,0 16,16 0,16"/>
    </object>
   </objectgroup>
  </tile>
  <tile id="63">
   <objectgroup draworder="index" id="2">
    <object id="1" x="0" y="0">
     <polygon points="0,0 16,0 16,16 0,16"/>
    </object>
   </objectgroup>
  </tile>
  <tile id="2">
   <objectgroup draworder="index" id="2">
    <object id="1" x="0" y="0">
     <polygon points="0,0 16,0 16,16 0,16"/>
    </object>
   </objectgroup>
  </tile>
  <tile id="62">
   <objectgroup draworder="index" id="2">
    <object id="1" x="0" y="0">
     <polygon points="0,0 16,0 16,16 0,16"/>
    </object>
   </objectgroup>
  </tile>
  <tile id="49">
   <objectgroup draworder="index" id="2">
    <object id="1" x="0" y="0">
     <polygon points="0,0 16,0 16,16 0,16"/>
    </object>
   </objectgroup>
  </tile>
  <tile id="65">
   <objectgroup draworder="index" id="2">
    <object id="1" x="0" y="0">
     <polygon points="0,0 16,0 16,16 0,16"/>
    </object>
   </objectgroup>
  </tile>
  <tile id="64">
   <objectgroup draworder="index" id="2">
    <object id="1" x="0" y="0">
     <polygon points="0,0 16,0 16,16 0,16"/>
    </object>
   </objectgroup>
  </tile>
  <tile id="50">
   <objectgroup draworder="index" id="2">
    <object id="1" x="0" y="0">
     <polygon points="0,0 16,0 16,16 0,16"/>
    </object>
   </objectgroup>
  </tile>
  <tile id="29">
   <objectgroup draworder="index" id="2">
    <object id="1" x="0" y="0">
     <polygon points="0,0 16,0 16,16 0,16"/>
    </object>
   </objectgroup>
  </tile>
  <tile id="124">
   <objectgroup draworder="index" id="2">
    <object id="1" x="0" y="0">
     <polygon points="0,0 16,0 16,16 0,16"/>
    </object>
   </objectgroup>
  </tile>
 </tileset>
 <layer id="1" name="layer0" width="48" height="32">
  <properties>
   <property name="collision" type="bool" value="true"/>
  </properties>
  <data encoding="csv">
36,36,36,36,36,36,36,36,36,36,36,36,36,36,23,24,92,91,91,91,91,91,91,91,91,91,91,91,93,23,15,24,36,38,36,36,36,36,36,36,36,36,36,36,36,36,36,36,
36,36,36,36,37,34,36,36,36,36,36,36,36,36,23,24,92,91,91,91,91,91,91,91,91,91,91,91,93,23,8,24,36,36,36,36,36,36,36,36,36,36,36,36,36,36,36,36,
36,36,36,36,36,36,36,36,36,36,36,36,36,36,23,24,92,91,91,91,91,91,91,91,91,91,91,91,93,23,15,24,36,36,36,36,36,38,36,36,36,36,36,36,36,38,36,36,
36,36,36,36,36,36,36,36,36,36,36,37,34,36,23,24,17,17,17,17,17,17,17,17,17,17,17,17,17,23,8,24,38,36,36,36,36,36,36,37,36,36,36,36,36,36,36,36,
36,37,34,36,36,36,36,36,36,36,36,36,36,36,23,24,96,91,91,91,91,91,91,91,91,91,91,91,97,23,15,24,36,36,36,36,36,36,36,36,36,36,36,36,36,36,36,36,
36,36,36,36,36,38,36,36,36,36,36,36,36,37,23,24,94,8,8,8,8,8,8,8,8,8,8,8,110,23,8,24,34,36,36,36,36,36,36,36,36,36,36,38,36,36,36,36,
36,36,36,36,36,36,36,36,36,36,36,36,36,36,23,24,94,8,15,8,8,8,15,8,8,8,15,8,110,23,15,24,36,36,36,37,34,36,36,36,36,36,36,36,36,36,36,36,
36,36,36,36,36,36,36,36,37,34,36,36,36,36,23,24,94,8,8,8,8,8,8,8,8,8,8,8,110,23,8,24,36,36,36,36,36,36,36,36,36,36,36,36,36,36,36,36,
36,36,36,36,36,36,36,36,36,36,36,36,36,36,23,24,94,8,15,8,8,8,15,8,8,8,15,8,110,23,15,24,37,34,36,36,36,36,36,36,36,36,36,36,37,34,36,36,
36,36,36,36,36,36,36,36,36,36,36,37,34,36,23,24,94,8,15,8,8,8,15,8,8,8,15,8,110,23,8,24,36,36,36,36,36,36,38,36,36,36,36,36,36,36,36,36,
36,36,36,36,36,36,36,36,36,36,36,36,36,36,23,24,94,8,8,8,8,8,8,8,8,8,8,8,110,28,17,70,36,36,36,36,36,36,36,36,36,36,36,36,36,36,36,36,
36,36,36,37,36,36,36,36,36,36,36,36,36,36,23,24,94,8,15,8,8,8,15,8,8,8,15,8,110,8,8,40,36,38,36,36,36,36,36,37,36,36,36,36,36,36,36,36,
36,36,36,36,36,36,36,36,36,36,36,36,36,37,23,24,99,8,8,8,8,8,8,8,8,8,8,8,90,97,8,40,36,36,36,36,36,36,36,36,36,36,36,36,36,38,36,36,
36,36,36,36,36,36,36,36,36,36,36,36,36,36,23,49,86,85,83,84,64,3,3,3,63,50,86,85,83,84,86,85,83,84,50,66,38,36,36,36,36,36,36,36,36,36,36,36,
36,36,36,36,36,36,36,36,36,36,37,34,36,36,23,24,97,91,97,90,24,8,7,8,23,96,99,96,99,96,99,96,99,28,17,70,36,36,36,36,36,36,36,37,36,36,36,36,
36,36,36,36,36,38,36,36,36,36,36,65,86,85,84,51,90,97,90,97,24,8,8,8,23,99,96,99,96,99,96,99,96,24,36,36,36,36,36,36,36,36,36,36,36,36,36,36,
36,36,36,36,36,36,36,36,36,36,36,23,17,17,17,17,17,17,17,17,30,8,8,8,28,17,17,17,17,17,17,17,17,24,34,36,36,36,36,36,36,36,36,36,36,36,36,36,
36,36,37,34,36,36,36,36,36,36,36,23,92,93,24,8,8,47,48,94,8,8,8,8,8,110,47,48,8,8,23,92,93,24,36,36,37,34,36,36,36,36,36,36,36,36,36,36,
36,36,36,36,36,36,36,36,36,36,36,23,92,93,24,8,15,79,80,94,8,8,7,8,8,110,79,80,15,8,23,92,93,24,36,36,36,36,36,36,36,36,36,36,36,36,36,36,
36,36,36,36,36,36,36,36,36,36,36,23,92,93,24,8,8,8,8,94,8,8,8,8,8,110,8,8,8,8,23,92,93,24,36,36,36,36,36,36,36,36,36,36,36,36,36,36,
36,36,36,36,36,36,36,36,36,36,36,23,92,93,24,8,15,8,63,50,64,8,8,8,63,50,64,8,15,8,23,92,93,24,36,36,36,36,36,36,36,36,36,36,37,34,36,36,
36,36,36,36,37,34,36,36,36,36,36,23,92,93,24,8,8,47,48,94,8,8,8,8,8,110,47,48,8,8,23,92,93,24,36,36,36,36,36,36,36,36,36,36,36,36,36,36,
36,36,36,36,36,36,36,36,36,36,36,23,92,93,24,8,15,79,80,94,8,8,7,8,8,110,79,80,15,8,23,92,93,24,36,38,36,36,37,34,36,36,36,36,36,36,36,36,
36,36,36,36,36,36,36,36,36,36,36,23,92,93,24,8,8,8,8,94,8,8,8,8,8,110,8,8,8,8,23,92,93,24,36,36,36,36,36,36,36,36,36,36,36,36,36,36,
36,36,36,36,36,36,36,36,36,36,36,23,92,93,24,8,15,8,63,50,64,8,8,8,63,50,64,8,15,8,23,92,93,24,34,36,36,36,36,36,36,36,36,36,36,36,36,36,
36,36,36,36,36,36,36,36,36,36,36,23,92,93,24,8,8,47,48,94,8,8,8,8,8,110,47,48,8,8,23,92,93,24,36,36,36,36,36,36,36,36,36,37,36,36,36,36,
36,36,36,36,36,36,36,36,36,36,37,23,92,93,24,8,15,79,80,94,8,8,7,8,8,110,79,80,15,8,23,92,93,24,36,36,36,36,36,36,36,36,36,36,36,36,36,36,
36,36,36,36,36,38,36,36,36,36,36,23,92,93,24,8,8,8,8,94,8,8,8,8,8,110,8,8,8,8,23,92,93,24,36,36,36,36,36,36,36,36,36,36,36,36,36,36,
36,36,36,36,36,36,36,36,36,36,36,23,92,93,49,83,86,85,84,84,64,3,3,3,63,83,83,84,86,85,51,92,93,24,36,36,36,36,36,37,36,36,36,36,36,36,36,36,
36,36,37,36,36,36,36,36,36,36,36,23,92,91,91,91,91,91,91,93,24,8,8,8,23,92,91,91,91,91,91,91,93,24,36,36,36,36,36,36,36,36,36,36,36,36,36,36,
36,36,36,36,36,36,36,36,36,36,36,23,92,91,91,91,91,91,91,93,24,8,7,8,23,92,91,91,91,91,91,91,93,24,36,36,36,36,36,36,36,36,36,36,37,34,36,36,
36,36,36,36,36,36,36,36,36,36,36,23,92,91,91,91,91,91,91,93,24,8,8,8,23,92,91,91,91,91,91,91,93,24,36,36,36,36,36,36,36,36,36,36,36,36,36,36
</data>
 </layer>
 <layer id="2" name="layer1" width="48" height="32">
  <properties>
   <property name="collision" type="bool" value="true"/>
   <property name="priority" type="bool" value="true"/>
  </properties>
  <data encoding="csv">
0,0,0,0,0,0,0,0,0,0,0,0,0,0,0,0,0,0,0,0,0,0,0,0,0,0,0,0,0,0,0,0,0,0,0,0,0,0,0,0,0,0,0,0,0,0,0,0,
0,0,0,0,0,0,0,0,0,0,0,0,0,0,0,0,0,0,0,0,0,0,0,0,0,0,0,0,0,0,0,0,0,0,0,0,0,0,0,0,0,0,0,0,0,0,0,0,
0,0,0,0,0,0,0,0,0,0,0,0,0,0,0,0,0,0,0,0,0,0,0,0,0,0,0,0,0,0,0,0,0,0,0,0,0,0,0,0,0,0,0,0,0,0,0,0,
0,0,0,0,0,0,0,0,0,0,0,0,0,0,0,0,0,0,0,0,0,0,0,0,0,0,0,0,0,0,0,0,0,0,0,0,0,0,0,0,0,0,0,0,0,0,0,0,
0,0,0,0,0,0,0,0,0,0,0,0,0,0,0,0,0,0,0,0,0,0,0,0,0,0,0,0,0,0,0,0,0,0,0,0,0,0,0,0,0,0,0,0,0,0,0,0,
0,0,0,0,0,0,0,0,0,0,0,0,0,0,0,0,0,0,0,0,0,0,0,0,0,0,0,0,0,0,0,0,0,0,0,0,0,0,0,0,0,0,0,0,0,0,0,0,
0,0,0,0,0,0,0,0,0,0,0,0,0,0,0,0,0,0,0,0,0,0,0,0,0,0,0,0,0,0,0,0,0,0,0,0,0,0,0,0,0,0,0,0,0,0,0,0,
0,0,0,0,0,0,0,0,0,0,0,0,0,0,0,0,0,0,0,0,0,0,0,0,0,0,0,0,0,0,0,0,0,0,0,0,0,0,0,0,0,0,0,0,0,0,0,0,
0,0,0,0,0,0,0,0,0,0,0,0,0,0,0,0,0,0,0,0,0,0,0,0,0,0,0,0,0,23,15,24,0,0,0,0,0,0,0,0,0,0,0,0,0,0,0,0,
0,0,0,0,0,0,0,0,0,0,0,0,0,0,0,0,0,0,0,0,0,0,0,0,0,0,0,0,0,23,8,24,0,0,0,0,0,0,0,0,0,0,0,0,0,0,0,0,
0,0,0,0,0,0,0,0,0,0,0,0,0,0,0,0,0,0,0,0,0,0,0,0,0,0,0,0,0,28,17,70,0,0,0,0,0,0,0,0,0,0,0,0,0,0,0,0,
0,0,0,0,0,0,0,0,0,0,0,0,0,0,0,0,0,0,0,0,0,0,0,0,0,0,0,0,0,125,125,125,0,0,0,0,0,0,0,0,0,0,0,0,0,0,0,0,
0,0,0,0,0,0,0,0,0,0,0,0,0,0,0,0,0,0,0,0,0,0,0,0,0,0,0,0,0,125,125,125,0,0,0,0,0,0,0,0,0,0,0,0,0,0,0,0,
0,0,0,0,0,0,0,0,0,0,0,0,0,0,0,0,0,0,0,0,0,0,0,0,0,0,0,0,0,0,0,0,0,0,0,0,0,0,0,0,0,0,0,0,0,0,0,0,
0,0,0,0,0,0,0,0,0,0,0,0,0,0,0,0,0,0,0,0,0,0,0,0,0,0,0,0,0,0,0,0,0,0,0,0,0,0,0,0,0,0,0,0,0,0,0,0,
0,0,0,0,0,0,0,0,0,0,0,0,0,0,0,0,0,0,0,0,0,0,0,0,0,0,0,0,0,0,0,0,0,0,0,0,0,0,0,0,0,0,0,0,0,0,0,0,
0,0,0,0,0,0,0,0,0,0,0,0,0,0,0,0,0,0,0,0,0,0,0,0,0,0,0,0,0,0,0,0,0,0,0,0,0,0,0,0,0,0,0,0,0,0,0,0,
0,0,0,0,0,0,0,0,0,0,0,0,0,0,0,0,0,0,0,0,0,0,0,0,0,0,0,0,0,0,0,0,0,0,0,0,0,0,0,0,0,0,0,0,0,0,0,0,
0,0,0,0,0,0,0,0,0,0,0,0,0,0,0,0,0,0,0,0,0,0,0,0,0,0,0,0,0,0,0,0,0,0,0,0,0,0,0,0,0,0,0,0,0,0,0,0,
0,0,0,0,0,0,0,0,0,0,0,0,0,0,0,0,0,0,0,0,0,0,0,0,0,0,0,0,0,0,0,0,0,0,0,0,0,0,0,0,0,0,0,0,0,0,0,0,
0,0,0,0,0,0,0,0,0,0,0,0,0,0,0,0,0,0,0,0,0,0,0,0,0,0,0,0,0,0,0,0,0,0,0,0,0,0,0,0,0,0,0,0,0,0,0,0,
0,0,0,0,0,0,0,0,0,0,0,0,0,0,0,0,0,0,0,0,0,0,0,0,0,0,0,0,0,0,0,0,0,0,0,0,0,0,0,0,0,0,0,0,0,0,0,0,
0,0,0,0,0,0,0,0,0,0,0,0,0,0,0,0,0,0,0,0,0,0,0,0,0,0,0,0,0,0,0,0,0,0,0,0,0,0,0,0,0,0,0,0,0,0,0,0,
0,0,0,0,0,0,0,0,0,0,0,0,0,0,0,0,0,0,0,0,0,0,0,0,0,0,0,0,0,0,0,0,0,0,0,0,0,0,0,0,0,0,0,0,0,0,0,0,
0,0,0,0,0,0,0,0,0,0,0,0,0,0,0,0,0,0,0,0,0,0,0,0,0,0,0,0,0,0,0,0,0,0,0,0,0,0,0,0,0,0,0,0,0,0,0,0,
0,0,0,0,0,0,0,0,0,0,0,0,0,0,0,0,0,0,0,0,0,0,0,0,0,0,0,0,0,0,0,0,0,0,0,0,0,0,0,0,0,0,0,0,0,0,0,0,
0,0,0,0,0,0,0,0,0,0,0,0,0,0,0,0,0,0,0,0,0,0,0,0,0,0,0,0,0,0,0,0,0,0,0,0,0,0,0,0,0,0,0,0,0,0,0,0,
0,0,0,0,0,0,0,0,0,0,0,0,0,0,0,0,0,0,0,0,0,0,0,0,0,0,0,0,0,0,0,0,0,0,0,0,0,0,0,0,0,0,0,0,0,0,0,0,
0,0,0,0,0,0,0,0,0,0,0,0,0,0,0,0,0,0,0,0,0,0,0,0,0,0,0,0,0,0,0,0,0,0,0,0,0,0,0,0,0,0,0,0,0,0,0,0,
0,0,0,0,0,0,0,0,0,0,0,0,0,0,0,0,0,0,0,0,0,0,0,0,0,0,0,0,0,0,0,0,0,0,0,0,0,0,0,0,0,0,0,0,0,0,0,0,
0,0,0,0,0,0,0,0,0,0,0,0,0,0,0,0,0,0,0,0,0,0,0,0,0,0,0,0,0,0,0,0,0,0,0,0,0,0,0,0,0,0,0,0,0,0,0,0,
0,0,0,0,0,0,0,0,0,0,0,0,0,0,0,0,0,0,0,0,0,0,0,0,0,0,0,0,0,0,0,0,0,0,0,0,0,0,0,0,0,0,0,0,0,0,0,0
</data>
 </layer>
</map>
