<?xml version="1.0" encoding="UTF-8"?>
<map version="1.10" tiledversion="1.11.2" orientation="orthogonal" renderorder="right-down" width="61" height="59" tilewidth="16" tileheight="16" infinite="0" nextlayerid="3" nextobjectid="1">
 <properties>
  <property name="priority" type="bool" value="true"/>
 </properties>
 <tileset firstgid="1" name="tiles" tilewidth="16" tileheight="16" tilecount="112" columns="11">
  <image source="ci.png" width="176" height="176"/>
  <tile id="0">
   <objectgroup draworder="index" id="2">
    <object id="1" x="0" y="0">
     <polygon points="0,0 16,0 16,16 0,16"/>
    </object>
   </objectgroup>
  </tile>
  <tile id="1">
   <objectgroup draworder="index" id="2">
    <object id="1" x="0" y="0">
     <polygon points="0,0 16,0 16,16 0,16"/>
    </object>
   </objectgroup>
  </tile>
  <tile id="2">
   <objectgroup draworder="index" id="2">
    <object id="1" x="0" y="0">
     <polygon points="0,0 16,0 16,16 0,16"/>
    </object>
   </objectgroup>
  </tile>
  <tile id="3">
   <objectgroup draworder="index" id="2">
    <object id="1" x="0" y="0">
     <polygon points="0,0 16,0 16,16 0,16"/>
    </object>
   </objectgroup>
  </tile>
  <tile id="4">
   <objectgroup draworder="index" id="2">
    <object id="1" x="0" y="0">
     <polygon points="0,0 16,0 16,16 0,16"/>
    </object>
   </objectgroup>
  </tile>
  <tile id="5">
   <objectgroup draworder="index" id="2">
    <object id="1" x="0" y="0">
     <polygon points="0,0 16,0 16,16 0,16"/>
    </object>
   </objectgroup>
  </tile>
  <tile id="6">
   <objectgroup draworder="index" id="2">
    <object id="1" x="0" y="0">
     <polygon points="0,0 16,0 16,16 0,16"/>
    </object>
   </objectgroup>
  </tile>
  <tile id="7">
   <objectgroup draworder="index" id="2">
    <object id="1" x="0" y="0">
     <polygon points="0,0 16,0 16,16 0,16"/>
    </object>
   </objectgroup>
  </tile>
  <tile id="8">
   <objectgroup draworder="index" id="2">
    <object id="1" x="0" y="0">
     <polygon points="0,0 16,0 16,16 0,16"/>
    </object>
   </objectgroup>
  </tile>
  <tile id="9">
   <objectgroup draworder="index" id="2">
    <object id="1" x="0" y="0">
     <polygon points="0,0 16,0 16,16 0,16"/>
    </object>
   </objectgroup>
  </tile>
  <tile id="10">
   <objectgroup draworder="index" id="2">
    <object id="1" x="0" y="0">
     <polygon points="0,0 16,0 16,16 0,16"/>
    </object>
   </objectgroup>
  </tile>
  <tile id="14">
   <objectgroup draworder="index" id="2">
    <object id="1" x="0" y="0">
     <polygon points="0,0 16,0 16,16 0,16"/>
    </object>
   </objectgroup>
  </tile>
  <tile id="16">
   <objectgroup draworder="index" id="2">
    <object id="1" x="0" y="0">
     <polygon points="0,0 16,0 16,16 0,16"/>
    </object>
   </objectgroup>
  </tile>
  <tile id="17">
   <objectgroup draworder="index" id="2">
    <object id="1" x="0" y="0">
     <polygon points="0,0 16,0 16,16 0,16"/>
    </object>
   </objectgroup>
  </tile>
  <tile id="22">
   <animation>
    <frame tileid="22" duration="150"/>
    <frame tileid="76" duration="150"/>
   </animation>
  </tile>
  <tile id="25">
   <objectgroup draworder="index" id="2">
    <object id="1" x="0" y="0">
     <polygon points="0,0 16,0 16,16 0,16"/>
    </object>
   </objectgroup>
  </tile>
  <tile id="30">
   <animation>
    <frame tileid="30" duration="150"/>
    <frame tileid="77" duration="150"/>
   </animation>
  </tile>
  <tile id="31">
   <animation>
    <frame tileid="31" duration="150"/>
    <frame tileid="78" duration="150"/>
   </animation>
  </tile>
  <tile id="32">
   <animation>
    <frame tileid="32" duration="150"/>
    <frame tileid="79" duration="150"/>
   </animation>
  </tile>
  <tile id="33">
   <objectgroup draworder="index" id="2">
    <object id="1" x="0" y="0">
     <polygon points="0,0 16,0 16,16 0,16"/>
    </object>
   </objectgroup>
  </tile>
  <tile id="35">
   <objectgroup draworder="index" id="2">
    <object id="1" x="0" y="0">
     <polygon points="0,0 16,0 16,16 0,16"/>
    </object>
   </objectgroup>
  </tile>
  <tile id="36">
   <objectgroup draworder="index" id="2">
    <object id="1" x="0" y="0">
     <polygon points="0,0 16,0 16,16 0,16"/>
    </object>
   </objectgroup>
  </tile>
  <tile id="37">
   <objectgroup draworder="index" id="2">
    <object id="1" x="0" y="0">
     <polygon points="0,0 16,0 16,16 0,16"/>
    </object>
   </objectgroup>
  </tile>
  <tile id="38">
   <objectgroup draworder="index" id="2">
    <object id="1" x="0" y="0">
     <polygon points="0,0 16,0 16,16 0,16"/>
    </object>
   </objectgroup>
  </tile>
  <tile id="39">
   <animation>
    <frame tileid="39" duration="150"/>
    <frame tileid="80" duration="150"/>
   </animation>
  </tile>
  <tile id="40">
   <objectgroup draworder="index" id="2">
    <object id="1" x="0" y="0">
     <polygon points="0,0 16,0 16,16 0,16"/>
    </object>
   </objectgroup>
  </tile>
  <tile id="41">
   <objectgroup draworder="index" id="2">
    <object id="1" x="0" y="0">
     <polygon points="0,0 16,0 16,16 0,16"/>
    </object>
   </objectgroup>
  </tile>
  <tile id="42">
   <objectgroup draworder="index" id="2">
    <object id="1" x="0" y="0">
     <properties>
      <property name="type" type="int" value="3"/>
     </properties>
     <polygon points="0,0 16,0 16,16 0,16"/>
    </object>
   </objectgroup>
  </tile>
  <tile id="46">
   <objectgroup draworder="index" id="2">
    <object id="1" x="0" y="0">
     <polygon points="0,0 16,0 16,16 0,16"/>
    </object>
   </objectgroup>
  </tile>
  <tile id="47">
   <animation>
    <frame tileid="47" duration="150"/>
    <frame tileid="81" duration="150"/>
   </animation>
  </tile>
  <tile id="48">
   <animation>
    <frame tileid="48" duration="150"/>
    <frame tileid="82" duration="150"/>
   </animation>
  </tile>
  <tile id="49">
   <objectgroup draworder="index" id="2">
    <object id="1" x="0" y="0">
     <polygon points="0,0 16,0 16,16 0,16"/>
    </object>
   </objectgroup>
  </tile>
  <tile id="50">
   <objectgroup draworder="index" id="2">
    <object id="1" x="0" y="0">
     <polygon points="0,0 16,0 16,16 0,16"/>
    </object>
   </objectgroup>
  </tile>
  <tile id="51">
   <objectgroup draworder="index" id="2">
    <object id="1" x="0" y="0">
     <polygon points="0,0 16,0 16,16 0,16"/>
    </object>
   </objectgroup>
  </tile>
  <tile id="52">
   <objectgroup draworder="index" id="2">
    <object id="1" x="0" y="0">
     <polygon points="0,0 16,0 16,16 0,16"/>
    </object>
   </objectgroup>
  </tile>
  <tile id="53">
   <objectgroup draworder="index" id="2">
    <object id="1" x="0" y="0">
     <polygon points="0,0 16,0 16,16 0,16"/>
    </object>
   </objectgroup>
  </tile>
  <tile id="54">
   <objectgroup draworder="index" id="2">
    <object id="1" x="0" y="0">
     <polygon points="0,0 16,0 16,16 0,16"/>
    </object>
   </objectgroup>
  </tile>
  <tile id="55">
   <objectgroup draworder="index" id="2">
    <object id="1" x="0" y="0">
     <polygon points="0,0 16,0 16,16 0,16"/>
    </object>
   </objectgroup>
  </tile>
  <tile id="56">
   <objectgroup draworder="index" id="2">
    <object id="1" x="0" y="0">
     <polygon points="0,0 16,0 16,16 0,16"/>
    </object>
   </objectgroup>
  </tile>
  <tile id="57">
   <animation>
    <frame tileid="57" duration="150"/>
    <frame tileid="83" duration="150"/>
   </animation>
  </tile>
  <tile id="58">
   <animation>
    <frame tileid="58" duration="500"/>
    <frame tileid="60" duration="500"/>
   </animation>
  </tile>
  <tile id="59">
   <animation>
    <frame tileid="59" duration="500"/>
    <frame tileid="61" duration="500"/>
   </animation>
  </tile>
 </tileset>
 <layer id="1" name="layer0" width="61" height="59">
  <properties>
   <property name="collision" type="bool" value="true"/>
  </properties>
  <data encoding="csv">
1,1,1,1,1,1,1,1,1,1,1,1,1,1,1,1,1,1,1,1,1,1,1,1,1,1,1,1,1,1,1,1,1,1,1,1,1,1,1,1,1,1,1,1,1,1,1,1,1,1,1,1,1,1,1,1,1,1,1,1,1,
1,1,1,1,1,1,1,1,1,1,1,1,1,1,1,1,1,1,2,3,4,3,4,2,3,4,3,4,3,4,3,4,3,4,3,4,3,4,3,4,3,4,3,4,3,2,1,1,1,1,1,1,1,1,1,1,1,1,1,1,1,
1,1,1,1,1,1,1,1,1,1,1,1,1,1,1,1,5,1,5,6,7,8,7,9,6,7,8,7,8,7,8,7,8,7,8,7,8,7,8,7,8,7,8,7,10,2,1,1,1,1,1,1,1,1,1,1,1,1,1,1,1,
1,1,1,1,1,1,1,1,1,1,1,1,1,1,1,1,2,1,2,11,12,13,14,8,15,16,16,16,16,16,16,16,16,16,16,16,16,16,16,16,16,16,16,16,17,18,1,1,1,1,1,1,1,1,1,1,1,1,1,1,1,
1,2,3,4,3,4,3,2,1,1,1,1,1,1,5,4,3,4,3,11,19,20,21,16,16,16,16,16,16,22,23,24,25,16,16,22,24,23,24,23,25,16,16,16,26,9,1,1,1,1,1,1,1,1,1,1,1,1,1,1,1,
1,18,6,7,8,7,10,18,1,1,5,1,1,5,6,15,8,7,8,15,27,28,29,30,16,16,16,22,31,24,32,31,24,25,16,16,22,33,24,32,31,24,25,16,16,9,1,1,1,1,1,1,1,1,1,1,1,1,1,1,1,
1,6,15,16,16,16,26,10,4,3,2,1,3,4,11,16,16,16,16,34,16,16,16,35,16,16,22,32,33,24,32,32,31,25,16,22,24,33,31,32,32,31,25,16,16,9,1,1,1,1,1,1,1,1,1,1,1,1,1,1,1,
4,11,16,22,31,25,16,26,7,9,3,4,11,8,15,16,16,16,16,36,16,16,16,37,38,16,16,37,39,38,40,40,40,37,39,41,39,38,40,40,40,37,39,41,37,17,1,1,1,1,1,1,1,1,1,1,1,1,1,1,1,
8,15,16,22,32,24,25,16,16,26,7,8,15,16,16,16,16,16,16,16,16,16,16,17,42,16,16,12,12,12,16,16,16,16,12,12,12,16,16,16,12,12,12,16,17,2,1,1,1,1,1,1,1,1,1,1,1,1,1,1,1,
16,16,22,24,32,31,24,25,16,16,16,16,16,16,16,16,16,30,16,16,16,16,16,17,42,16,16,12,12,12,16,16,16,16,12,12,12,16,16,16,12,12,12,16,9,18,1,1,1,1,1,1,1,1,1,1,1,1,1,1,1,
16,22,23,44,32,32,31,44,25,16,16,16,16,16,16,16,16,35,16,16,16,16,16,17,42,39,41,39,41,39,41,39,41,41,38,16,16,37,41,41,41,41,39,41,17,47,1,1,1,1,1,1,1,1,1,1,1,1,1,1,1,
16,16,48,16,49,49,49,16,16,16,16,16,16,16,16,16,37,38,16,16,16,37,38,17,18,50,51,50,51,3,4,3,3,4,11,16,16,9,3,4,3,4,50,51,50,1,1,1,1,1,1,1,1,1,1,1,1,1,1,1,1,
41,39,41,39,38,40,40,37,39,41,39,41,39,41,39,41,17,42,16,16,16,17,47,1,47,3,4,3,4,11,7,8,8,7,15,16,16,8,7,8,9,51,1,52,1,1,1,1,1,1,1,1,1,1,1,1,1,1,1,1,1,
51,50,51,50,42,12,12,17,50,51,50,51,50,51,50,51,6,53,39,41,39,54,10,3,4,11,7,8,7,15,16,16,12,13,13,13,13,13,13,14,26,9,1,1,1,1,1,1,1,1,1,1,1,1,1,1,1,1,1,1,1,
1,1,47,18,42,12,12,17,18,1,1,1,1,1,1,1,6,8,7,7,7,8,7,8,7,15,16,16,16,16,16,16,19,20,20,20,20,20,20,21,16,9,1,1,1,1,1,1,1,1,1,1,1,1,1,1,1,1,1,1,1,
1,1,47,11,15,12,12,17,1,1,1,1,1,1,1,1,11,16,16,16,16,16,16,16,16,16,16,16,16,16,16,16,19,20,20,20,20,20,20,21,16,9,52,1,1,1,1,1,1,1,1,1,1,1,1,1,1,1,1,1,1,
1,1,47,42,16,12,12,17,1,1,1,1,1,1,1,1,11,16,16,16,16,16,16,16,16,16,16,16,16,16,16,16,27,28,28,28,28,28,28,29,37,17,1,1,1,1,1,1,1,1,1,1,1,1,1,1,1,1,1,1,1,
1,47,11,15,16,16,41,17,18,1,1,1,1,1,1,1,42,38,16,16,16,16,16,16,16,16,37,39,41,39,41,38,55,55,55,55,55,55,55,55,54,10,1,1,1,1,1,1,1,1,47,4,4,3,4,3,4,3,4,3,4,
1,1,42,16,16,16,17,18,1,1,1,1,1,1,1,1,18,42,16,16,16,16,16,16,16,16,17,3,4,3,4,54,56,56,56,56,56,56,56,56,51,47,1,1,1,1,1,1,1,47,47,11,7,8,7,8,7,8,7,8,7,
1,47,42,16,16,41,17,1,1,1,1,1,1,1,1,1,1,42,12,12,12,16,16,16,16,16,26,8,7,8,10,47,47,47,47,47,47,47,47,1,1,1,1,1,1,1,1,1,47,47,11,15,16,16,16,16,16,16,16,16,16,
1,11,15,16,16,17,18,1,1,1,1,1,1,1,1,1,18,42,12,12,12,16,16,16,16,16,12,12,12,12,17,5,1,1,47,3,4,3,4,3,4,3,4,3,4,3,4,3,4,11,15,16,16,16,16,16,16,16,16,16,16,
47,42,12,12,41,17,1,1,1,4,3,3,4,1,1,1,1,11,12,12,12,16,16,16,16,16,12,12,12,12,17,5,1,1,47,6,8,7,8,7,8,7,8,7,8,7,8,7,8,15,16,30,16,30,16,30,16,30,16,30,16,
1,42,12,12,17,53,4,3,3,11,7,7,9,3,3,3,4,42,39,41,41,39,41,39,41,39,41,39,16,16,17,2,1,1,47,11,16,16,16,16,12,13,13,13,13,13,13,13,13,14,16,35,16,35,16,35,16,35,16,35,16,
1,42,12,12,17,11,7,7,7,15,16,16,26,7,7,7,9,53,3,4,3,4,3,4,3,3,3,42,16,16,17,3,4,3,4,11,16,16,16,16,27,28,28,28,28,28,28,28,28,29,16,35,16,35,16,35,16,35,16,35,16,
1,42,12,12,17,11,16,16,16,22,23,25,16,16,16,16,9,11,8,8,7,8,7,8,7,8,7,15,16,16,26,8,8,8,8,15,16,16,37,38,16,16,16,16,16,16,16,16,16,16,37,39,41,39,41,39,41,39,39,41,39,
47,42,16,16,17,11,16,16,22,31,32,31,23,25,16,16,9,42,12,12,16,16,16,12,12,12,12,12,16,16,16,16,16,12,12,12,16,16,17,11,16,16,16,16,16,16,16,16,16,16,17,50,51,50,51,50,51,50,51,50,51,
1,42,16,16,17,11,22,23,31,32,32,32,32,31,25,16,9,42,12,12,16,16,16,12,12,12,12,12,16,16,16,16,16,12,12,12,16,16,17,42,16,16,16,16,16,16,16,16,16,16,17,18,1,1,1,1,1,1,1,1,1,
1,42,16,16,17,11,22,33,32,32,32,32,32,32,23,25,9,42,12,12,39,41,41,39,41,39,41,39,41,39,41,39,41,39,41,39,41,39,17,11,16,16,34,12,13,13,14,57,16,16,17,1,47,1,1,1,1,1,1,1,1,
47,42,16,16,26,15,16,40,37,38,40,40,37,38,40,16,26,15,12,12,9,50,50,51,50,51,50,51,50,51,50,51,50,51,50,51,50,51,53,42,16,16,36,27,28,28,29,36,16,16,17,1,47,1,1,1,1,1,1,1,1,
47,42,12,12,12,12,12,12,17,42,16,16,17,42,12,12,16,16,12,12,9,47,6,7,8,7,8,7,8,7,8,7,10,5,1,1,1,47,47,11,16,16,16,16,16,16,16,16,16,16,17,1,47,1,1,1,1,1,1,1,1,
1,42,12,12,12,12,12,12,17,42,12,12,17,42,12,12,16,16,12,12,9,47,11,16,16,16,16,16,16,16,16,16,10,2,1,1,1,47,1,42,16,16,16,16,16,16,16,16,16,16,17,47,47,1,1,1,1,1,1,1,1,
1,42,39,41,39,41,39,41,17,42,12,12,17,42,39,41,39,41,39,41,9,1,11,16,16,16,16,30,16,16,16,16,10,2,1,1,3,4,3,11,16,16,16,16,16,16,16,16,16,16,9,3,3,4,1,1,1,1,1,1,1,
1,18,50,51,51,51,51,51,53,42,12,12,17,53,50,51,50,51,50,51,54,3,11,16,16,16,16,35,16,16,16,16,17,18,1,1,6,7,15,15,16,16,16,16,16,16,16,16,16,16,26,7,7,10,1,1,1,1,1,1,1,
1,1,1,1,1,1,1,1,47,42,12,12,26,8,8,8,8,8,8,8,8,8,15,16,16,16,37,38,16,16,16,16,17,1,1,1,11,12,13,14,16,16,16,16,16,16,16,16,16,16,12,14,16,9,47,1,1,1,1,1,1,
1,1,1,1,1,1,1,1,47,42,12,12,16,16,16,16,12,12,12,12,12,16,16,16,12,12,17,42,16,16,16,16,9,1,1,1,42,19,20,21,16,16,16,16,16,16,16,16,16,16,19,21,16,9,1,1,1,1,1,1,1,
1,1,1,1,1,1,1,1,47,42,12,12,16,16,16,16,12,12,12,12,12,16,16,16,12,12,17,42,16,16,16,16,9,47,1,47,11,27,28,29,16,16,57,12,13,13,14,57,16,16,27,29,16,9,47,1,1,1,1,1,1,
1,1,1,1,1,1,1,1,47,11,39,39,41,39,41,39,41,39,41,39,41,39,41,39,41,39,17,42,16,16,16,16,9,1,1,47,42,55,55,38,16,16,36,27,28,28,29,36,16,16,37,39,41,17,1,1,1,1,1,1,1,
1,1,1,1,1,1,1,1,1,50,51,50,51,50,51,50,51,50,51,50,51,50,51,50,51,50,51,42,16,16,16,16,9,1,1,51,51,56,56,42,16,16,16,16,16,16,16,16,16,16,17,51,50,51,1,1,1,1,1,1,1,
18,53,3,4,3,4,3,4,3,4,3,4,3,4,3,4,3,4,3,4,3,4,3,4,3,4,3,42,16,16,16,16,37,17,47,1,1,1,1,42,16,16,16,16,16,16,16,16,16,16,17,47,47,1,1,1,1,1,1,1,1,
18,53,6,7,8,7,8,7,8,7,8,7,8,7,8,7,8,7,8,7,8,7,8,7,8,8,8,15,16,16,16,16,37,54,4,3,4,3,4,11,12,14,16,16,16,16,16,16,12,14,17,47,47,1,1,1,1,1,1,1,1,
18,53,42,16,16,36,16,16,36,16,16,16,36,16,16,16,16,16,36,16,16,16,16,16,16,16,16,16,16,16,16,16,26,8,8,7,8,54,7,15,27,29,16,16,16,16,16,16,27,29,17,1,1,1,1,1,1,1,1,1,1,
18,53,42,16,12,13,13,13,13,14,16,30,16,16,30,16,12,13,13,13,13,13,13,13,13,13,13,13,13,13,14,16,34,16,16,16,16,34,12,14,16,16,16,16,16,16,16,16,16,16,17,1,47,1,1,1,1,1,1,1,1,
18,53,42,16,19,20,20,20,20,21,16,35,16,16,35,16,19,20,20,20,20,20,20,20,20,20,20,20,20,20,21,16,34,16,16,16,16,34,19,21,16,16,16,34,16,16,34,16,16,16,17,1,47,1,1,1,1,1,1,1,1,
18,11,16,16,27,28,28,28,28,29,16,35,16,16,35,16,27,28,28,28,28,28,28,28,28,28,28,28,28,28,29,16,34,16,16,16,16,34,27,29,16,16,16,36,16,16,36,16,16,16,17,47,1,1,1,1,1,1,1,1,1,
18,11,16,16,16,16,16,16,16,16,16,37,16,16,38,16,16,16,16,16,16,16,16,16,37,39,39,41,39,41,39,41,53,41,38,16,16,37,41,38,16,16,16,16,16,16,16,16,16,16,17,47,1,1,1,1,1,1,1,1,1,
18,53,42,16,16,16,16,16,16,16,16,34,16,16,34,16,16,16,16,16,16,16,16,16,9,50,51,50,51,50,51,50,51,50,42,16,16,17,51,11,16,30,16,16,16,16,16,16,30,16,17,1,1,1,1,1,1,1,1,1,1,
1,18,42,41,16,16,16,16,16,16,16,34,16,16,34,16,16,16,16,16,16,16,16,37,17,18,1,1,1,1,1,1,1,18,42,12,12,17,18,11,16,35,16,16,16,16,16,16,35,16,17,47,1,1,1,1,1,1,1,1,1,
1,1,18,11,16,16,16,16,16,16,37,38,16,16,37,38,16,16,16,16,16,16,16,9,18,1,1,1,1,1,1,1,1,18,42,12,12,17,18,42,41,38,16,16,16,16,16,16,37,41,17,1,1,1,1,1,1,1,1,1,1,
1,1,1,42,41,12,12,12,16,41,17,11,16,16,9,42,41,16,12,12,12,16,41,17,18,1,3,4,3,4,3,4,3,4,42,12,12,17,18,51,50,11,16,16,16,16,16,16,17,51,50,1,1,1,1,1,1,1,1,1,1,
1,1,1,18,11,12,12,12,16,17,18,11,16,16,9,18,11,16,12,12,12,16,17,18,1,18,6,7,7,7,7,7,7,10,42,16,16,17,3,4,6,15,16,16,16,16,16,16,17,47,1,1,1,1,1,1,1,1,1,1,1,
1,1,1,18,42,41,39,41,39,17,18,11,16,16,9,18,42,41,41,39,41,39,17,18,1,18,11,49,16,16,30,48,16,9,42,16,16,26,8,8,15,16,16,16,16,12,12,12,17,47,1,1,1,1,1,1,1,1,1,1,1,
1,1,1,18,51,50,51,50,51,50,51,11,16,16,9,18,51,50,50,51,50,51,50,51,1,18,42,49,16,16,35,48,16,9,42,16,16,16,16,16,16,16,16,16,16,12,12,12,17,1,1,1,1,1,1,1,1,1,1,1,1,
1,1,1,1,1,1,1,1,1,18,54,11,16,16,9,53,4,3,4,3,4,3,4,3,4,3,42,49,16,37,38,58,16,26,15,16,16,16,16,16,16,16,16,16,16,16,16,16,17,47,1,1,1,1,1,1,1,1,1,1,1,
1,1,1,1,1,1,1,1,1,53,6,15,16,16,26,7,7,7,7,7,7,7,7,7,7,7,15,49,16,9,42,16,16,16,16,12,12,16,16,16,16,12,12,12,12,12,16,16,17,1,1,1,1,1,1,1,1,1,1,1,1,
1,1,1,1,1,1,1,1,18,47,11,16,16,16,16,48,16,49,48,16,16,48,16,48,16,49,16,49,16,9,42,16,16,16,16,12,12,16,16,16,16,12,12,12,12,12,16,16,17,47,1,1,1,1,1,1,1,1,1,1,1,
1,1,1,1,1,1,1,1,1,18,42,16,16,16,16,58,16,40,58,16,16,58,16,58,16,40,16,40,16,17,42,41,39,41,39,12,12,41,39,41,39,41,39,41,39,41,39,39,17,47,1,1,1,1,1,1,1,1,1,1,1,
1,1,1,1,1,1,1,1,1,18,42,41,39,41,39,41,39,41,39,41,39,41,39,41,39,41,39,41,39,17,51,51,50,51,42,41,39,17,51,51,51,51,51,51,51,51,51,51,51,1,1,1,1,1,1,1,1,1,1,1,1,
1,1,1,1,1,1,1,1,1,18,50,51,50,51,50,51,50,51,50,51,50,51,50,51,50,51,50,51,50,51,1,1,1,1,1,51,50,1,1,1,1,1,1,1,1,1,1,1,1,1,1,1,1,1,1,1,1,1,1,1,1,
1,1,1,1,1,1,1,1,1,1,1,1,1,1,1,1,1,1,1,1,1,1,1,1,1,1,1,1,1,1,1,1,1,1,1,1,1,1,1,1,1,1,1,1,1,1,1,1,1,1,1,1,1,1,1,1,1,1,1,1,1
</data>
 </layer>
 <layer id="2" name="layer1" width="61" height="59">
  <properties>
   <property name="collision" type="bool" value="true"/>
   <property name="priority" type="bool" value="true"/>
  </properties>
  <data encoding="csv">
0,0,0,0,0,0,0,0,0,0,0,0,0,0,0,0,0,0,0,0,0,0,0,0,0,0,0,0,0,0,0,0,0,0,0,0,0,0,0,0,0,0,0,0,0,0,0,0,0,0,0,0,0,0,0,0,0,0,0,0,0,
0,0,0,0,0,0,0,0,0,0,0,0,0,0,0,0,0,0,0,0,0,0,0,0,0,0,0,0,0,0,0,0,0,0,0,0,0,0,0,0,0,0,0,0,0,0,0,0,0,0,0,0,0,0,0,0,0,0,0,0,0,
0,0,0,0,0,0,0,0,0,0,0,0,0,0,0,0,0,0,0,0,0,0,0,0,0,0,0,0,0,0,0,0,0,0,0,0,0,0,0,0,0,0,0,0,0,0,0,0,0,0,0,0,0,0,0,0,0,0,0,0,0,
0,0,0,0,0,0,0,0,0,0,0,0,0,0,0,0,0,0,0,0,0,0,0,0,0,0,0,0,0,0,0,0,0,0,0,0,0,0,0,0,0,0,0,0,0,0,0,0,0,0,0,0,0,0,0,0,0,0,0,0,0,
0,0,0,0,0,0,0,0,0,0,0,0,0,0,0,0,0,0,0,0,0,0,0,0,0,0,0,0,0,0,0,0,0,0,0,0,0,0,0,0,0,0,0,0,0,0,0,0,0,0,0,0,0,0,0,0,0,0,0,0,0,
0,0,0,0,0,0,0,0,0,0,0,0,0,0,0,0,0,0,0,0,0,0,0,0,0,0,0,0,0,0,0,0,0,0,0,0,0,0,0,0,0,0,0,0,0,0,0,0,0,0,0,0,0,0,0,0,0,0,0,0,0,
0,0,0,0,0,0,0,0,0,0,0,0,0,0,0,0,0,0,0,0,0,0,0,0,0,0,0,0,0,0,0,0,0,0,0,0,0,0,0,0,0,0,0,0,0,0,0,0,0,0,0,0,0,0,0,0,0,0,0,0,0,
0,0,0,0,0,0,0,0,0,0,0,0,0,0,0,0,0,0,0,0,0,0,0,0,86,59,60,85,39,86,59,60,59,85,39,41,39,86,59,60,59,85,39,41,37,0,0,0,0,0,0,0,0,0,0,0,0,0,0,0,0,
0,0,0,0,0,0,0,0,0,0,0,0,0,0,0,0,0,0,0,0,0,0,0,0,70,43,43,43,43,43,43,43,43,43,43,43,43,43,43,43,43,43,43,43,65,0,0,0,0,0,0,0,0,0,0,0,0,0,0,0,0,
0,0,0,0,0,0,0,0,0,0,0,0,0,0,0,0,0,0,0,0,0,0,0,0,70,43,43,43,43,43,43,43,43,43,43,43,43,43,43,43,43,43,43,43,71,0,0,0,0,0,0,0,0,0,0,0,0,0,0,0,0,
0,0,0,0,0,0,0,0,0,0,0,0,0,0,0,0,0,0,0,0,0,0,0,0,42,63,64,63,64,63,64,63,64,64,38,45,46,37,64,64,64,64,63,64,17,0,0,0,0,0,0,0,0,0,0,0,0,0,0,0,0,
0,0,0,0,0,0,0,0,0,0,0,0,0,0,0,0,0,86,59,60,59,85,0,0,0,0,0,0,0,0,0,0,0,0,11,45,46,9,0,0,0,0,0,0,0,0,0,0,0,0,0,0,0,0,0,0,0,0,0,0,0,
0,0,0,0,86,59,60,85,0,0,0,0,0,0,0,0,0,70,43,43,43,65,0,0,0,0,0,0,0,0,0,0,0,0,15,45,46,8,0,0,0,0,0,0,0,0,0,0,0,0,0,0,0,0,0,0,0,0,0,0,0,
0,0,0,0,70,43,43,65,0,0,0,0,0,0,0,0,0,53,63,64,63,54,0,0,0,0,0,0,0,0,0,0,0,0,0,0,0,0,0,0,0,0,0,0,0,0,0,0,0,0,0,0,0,0,0,0,0,0,0,0,0,
0,0,0,0,70,43,43,65,0,0,0,0,0,0,0,0,0,0,0,0,0,0,0,0,0,0,0,0,0,0,0,0,0,0,0,0,0,0,0,0,0,0,0,0,0,0,0,0,0,0,0,0,0,0,0,0,0,0,0,0,0,
0,0,0,11,66,43,43,65,0,0,0,0,0,0,0,0,0,0,0,0,0,0,0,0,0,0,0,0,0,0,0,0,0,0,0,0,0,0,0,0,0,0,0,0,0,0,0,0,0,0,0,0,0,0,0,0,0,0,0,0,0,
0,0,0,70,43,43,43,65,0,0,0,0,0,0,0,0,0,0,0,0,0,0,0,0,0,0,0,0,0,0,0,0,0,0,0,0,0,0,0,0,0,0,0,0,0,0,0,0,0,0,0,0,0,0,0,0,0,0,0,0,0,
0,0,11,66,43,43,64,0,0,0,0,0,0,0,0,0,0,38,0,0,0,0,0,0,0,0,37,0,0,0,0,0,55,55,55,55,55,55,55,55,0,0,0,0,0,0,0,0,0,0,0,0,0,0,0,0,0,0,0,0,0,
0,0,70,43,43,43,65,0,0,0,0,0,0,0,0,0,0,76,59,60,59,60,59,60,59,60,75,0,0,0,0,0,0,0,0,0,0,0,0,0,0,0,0,0,0,0,0,0,0,0,0,0,0,0,0,0,0,0,0,0,0,
0,0,70,43,43,64,0,0,0,0,0,0,0,0,0,0,0,70,43,43,43,43,43,43,43,43,67,68,69,68,10,0,0,0,0,0,0,0,0,0,0,0,0,0,0,0,0,0,0,0,0,0,0,0,0,0,0,0,0,0,0,
0,0,66,43,43,65,0,0,0,0,0,0,0,0,0,0,0,70,43,43,43,43,43,43,43,43,43,43,43,43,65,0,0,0,0,0,0,0,0,0,0,0,0,0,0,0,0,0,0,0,0,0,0,0,0,0,0,0,0,0,0,
0,70,43,43,64,0,0,0,0,0,0,0,0,0,0,0,0,72,43,43,43,43,43,43,43,43,43,43,43,43,65,0,0,0,0,6,0,0,0,0,0,0,0,0,0,0,0,0,0,0,0,0,0,0,0,0,0,0,0,0,0,
0,70,43,43,65,0,0,0,0,0,0,0,0,0,0,0,0,42,63,64,64,63,64,63,64,63,64,63,43,43,65,0,0,0,0,11,0,0,0,0,0,0,0,0,0,0,0,0,0,0,0,0,0,0,0,0,0,0,0,0,0,
0,70,43,43,65,0,0,0,0,0,0,0,0,0,0,0,0,0,0,0,0,0,0,0,0,0,0,70,43,43,65,0,0,0,0,11,0,0,0,0,0,0,0,0,0,0,0,0,0,0,0,0,0,0,0,0,0,0,0,0,0,
0,70,43,43,65,0,0,0,0,0,0,0,0,0,0,0,0,11,68,68,69,68,69,68,69,68,69,66,43,43,67,68,68,68,68,73,59,60,85,0,0,0,0,0,0,0,0,0,0,0,0,0,0,0,0,0,0,0,0,0,0,
0,70,43,43,65,0,0,0,0,0,0,0,0,0,0,0,0,70,43,43,43,43,43,43,43,43,43,43,43,43,43,43,43,43,43,43,43,43,65,0,0,0,0,0,0,0,0,0,0,0,0,0,0,0,0,0,0,0,0,0,0,
0,70,43,43,65,0,0,0,0,0,0,0,0,0,0,0,0,70,43,43,43,43,43,43,43,43,43,43,43,43,43,43,43,43,43,43,43,43,65,0,0,0,0,0,0,0,0,0,0,0,0,0,0,0,0,0,0,0,0,0,0,
0,70,43,43,65,0,0,0,0,0,0,0,0,0,0,0,0,70,43,43,63,64,64,63,64,63,64,63,64,63,64,63,64,63,64,63,64,63,17,0,0,0,0,0,0,0,0,0,0,0,0,0,0,0,0,0,0,0,0,0,0,
0,70,43,43,67,73,59,60,85,86,59,60,85,86,59,60,74,66,43,43,71,0,0,0,0,0,0,0,0,0,0,0,0,0,0,0,0,0,0,0,0,0,0,0,0,0,0,0,0,0,0,0,0,0,0,0,0,0,0,0,0,
0,70,43,43,43,43,43,43,65,70,43,43,65,70,43,43,43,43,43,43,71,0,6,0,0,0,0,0,0,0,0,0,0,0,0,0,0,0,0,0,0,0,0,0,0,0,0,0,0,0,0,0,0,0,0,0,0,0,0,0,0,
0,70,43,43,43,43,43,43,65,70,43,43,65,70,43,43,43,43,43,43,71,0,11,0,0,0,0,0,0,0,0,0,0,0,0,0,0,0,0,0,0,0,0,0,0,0,0,0,0,0,0,0,0,0,0,0,0,0,0,0,0,
0,42,63,64,63,64,63,64,17,70,43,43,65,42,63,64,63,64,63,64,9,0,11,0,0,0,0,0,0,0,0,0,0,0,0,0,0,0,0,0,0,0,0,0,0,0,0,0,0,0,0,0,0,0,0,0,0,0,0,0,0,
0,0,0,0,0,0,0,0,0,70,43,43,65,0,0,0,0,0,0,0,0,0,11,0,0,0,0,0,0,0,0,0,0,0,0,0,0,0,0,0,0,0,0,0,0,0,0,0,0,0,0,0,0,0,0,0,0,0,0,0,0,
0,0,0,0,0,0,0,0,0,70,43,43,67,68,68,68,68,68,68,68,68,68,73,59,60,59,85,0,0,0,0,0,0,0,0,0,0,0,0,0,0,0,0,0,0,0,0,0,0,0,0,0,0,0,0,0,0,0,0,0,0,
0,0,0,0,0,0,0,0,0,70,43,43,43,43,43,43,43,43,43,43,43,43,43,43,43,43,65,0,0,0,0,0,0,0,0,0,0,0,0,0,0,0,0,0,0,0,0,0,0,0,0,0,0,0,0,0,0,0,0,0,0,
0,0,0,0,0,0,0,0,0,70,43,43,43,43,43,43,43,43,43,43,43,43,43,43,43,43,65,0,0,0,0,0,0,0,0,0,0,0,0,0,0,0,0,0,0,0,0,0,0,0,0,0,0,0,0,0,0,0,0,0,0,
0,0,0,0,0,0,0,0,0,11,63,63,64,63,64,63,64,63,64,63,64,63,64,63,64,63,17,0,0,0,0,0,0,0,0,0,0,55,55,38,0,0,0,0,0,0,0,0,0,0,0,0,0,0,0,0,0,0,0,0,0,
0,0,0,0,0,0,0,0,0,0,0,0,0,0,0,0,0,0,0,0,0,0,0,0,0,0,0,0,0,0,0,0,0,0,0,0,0,0,0,0,0,0,0,0,0,0,0,0,0,0,0,0,0,0,0,0,0,0,0,0,0,
0,0,0,0,0,0,0,0,0,0,0,0,0,0,0,0,0,0,0,0,0,0,0,0,0,0,0,0,0,0,0,0,0,0,0,0,0,0,0,0,0,0,0,0,0,0,0,0,0,0,0,0,0,0,0,0,0,0,0,0,0,
0,0,0,0,0,0,0,0,0,0,0,0,0,0,0,0,0,0,0,0,0,0,0,0,0,0,0,0,0,0,0,0,0,0,0,0,0,0,0,0,0,0,0,0,0,0,0,0,0,0,0,0,0,0,0,0,0,0,0,0,0,
0,0,0,0,0,0,0,0,0,0,0,0,0,0,0,0,0,0,0,0,0,0,0,0,0,0,0,0,0,0,0,0,0,0,0,0,0,0,0,0,0,0,0,0,0,0,0,0,0,0,0,0,0,0,0,0,0,0,0,0,0,
0,0,0,0,0,0,0,0,0,0,0,0,0,0,0,0,0,0,0,0,0,0,0,0,0,0,0,0,0,0,0,0,0,0,0,0,0,34,0,0,0,0,0,0,0,0,0,0,0,0,0,0,0,0,0,0,0,0,0,0,0,
0,0,0,0,0,0,0,0,0,0,0,0,0,0,0,0,0,0,0,0,0,0,0,0,0,0,0,0,0,0,0,0,0,0,0,0,0,34,0,0,0,0,0,0,0,0,0,0,0,0,0,0,0,0,0,0,0,0,0,0,0,
0,0,0,0,0,0,0,0,0,0,0,0,0,0,0,0,0,0,0,0,0,0,0,0,0,0,0,0,0,0,0,0,0,0,0,0,0,34,0,0,0,0,0,0,0,0,0,0,0,0,0,0,0,0,0,0,0,0,0,0,0,
0,0,0,0,0,0,0,0,0,0,0,37,0,0,38,0,0,0,0,0,0,0,0,0,0,0,0,0,0,0,0,0,0,0,86,59,60,85,0,0,0,0,0,0,0,0,0,0,0,0,0,0,0,0,0,0,0,0,0,0,0,
0,0,0,0,0,0,0,0,0,0,0,34,45,46,34,0,0,0,0,0,0,0,0,0,0,0,0,0,0,0,0,0,0,0,70,43,43,65,0,0,0,0,0,0,0,0,0,0,0,0,0,0,0,0,0,0,0,0,0,0,0,
0,0,0,41,0,0,0,0,0,0,0,34,45,46,34,0,0,0,0,0,0,0,0,37,0,0,0,0,0,0,0,0,0,0,70,43,43,65,0,0,0,0,0,0,0,0,0,0,0,0,0,0,0,0,0,0,0,0,0,0,0,
0,0,0,11,59,60,59,60,59,60,37,38,45,46,37,38,59,60,59,60,59,60,59,9,0,0,0,0,0,0,0,0,0,0,70,43,43,65,0,0,0,38,0,0,0,0,0,0,37,0,0,0,0,0,0,0,0,0,0,0,0,
0,0,0,42,64,43,43,43,43,64,17,11,45,46,9,42,64,43,43,43,43,43,64,17,0,0,0,0,0,0,0,0,0,0,70,43,43,65,0,0,0,11,59,60,59,60,59,60,17,0,0,0,0,0,0,0,0,0,0,0,0,
0,0,0,0,72,43,43,43,43,65,0,11,45,46,9,0,72,43,43,43,43,43,65,0,0,0,0,0,0,0,0,0,0,10,70,43,43,65,0,0,6,66,43,43,43,43,43,43,65,0,0,0,0,0,0,0,0,0,0,0,0,
0,0,0,0,42,64,63,64,63,17,0,11,45,46,9,0,42,64,64,63,64,63,17,0,0,0,0,0,0,0,0,0,0,9,70,43,43,67,68,68,66,43,43,43,43,43,43,43,65,0,0,0,0,0,0,0,0,0,0,0,0,
0,0,0,0,0,0,0,0,0,0,0,11,45,46,9,0,0,0,0,0,0,0,0,0,0,0,0,0,0,0,0,0,0,9,70,43,43,43,43,43,43,43,43,43,43,43,43,43,65,0,0,0,0,0,0,0,0,0,0,0,0,
0,0,0,0,0,0,0,0,0,0,0,11,45,46,9,0,0,0,0,0,0,0,0,0,0,0,0,0,0,37,86,59,60,74,66,43,43,43,43,43,43,43,43,43,43,43,43,43,65,0,0,0,0,0,0,0,0,0,0,0,0,
0,0,0,0,0,0,0,0,0,0,6,15,45,46,26,0,0,0,0,0,0,0,0,0,0,0,0,0,0,9,70,43,43,43,43,43,43,43,43,43,43,43,43,43,43,43,43,43,65,0,0,0,0,0,0,0,0,0,0,0,0,
0,0,0,0,0,0,0,0,0,0,11,0,0,0,0,0,0,0,0,0,0,0,0,0,0,0,0,0,0,9,70,43,43,43,43,43,43,43,43,43,43,43,43,43,43,43,43,43,65,0,0,0,0,0,0,0,0,0,0,0,0,
0,0,0,0,0,0,0,0,0,0,76,59,60,59,60,59,60,59,60,59,60,59,60,59,60,59,60,59,60,75,42,64,63,64,63,43,43,64,63,64,63,64,63,64,63,64,63,63,17,0,0,0,0,0,0,0,0,0,0,0,0,
0,0,0,0,0,0,0,0,0,0,42,64,63,64,63,64,63,64,63,64,63,64,63,64,63,64,63,64,63,17,0,0,0,0,42,64,63,17,0,0,0,0,0,0,0,0,0,0,0,0,0,0,0,0,0,0,0,0,0,0,0,
0,0,0,0,0,0,0,0,0,0,0,0,0,0,0,0,0,0,0,0,0,0,0,0,0,0,0,0,0,0,0,0,0,0,0,0,0,0,0,0,0,0,0,0,0,0,0,0,0,0,0,0,0,0,0,0,0,0,0,0,0,
0,0,0,0,0,0,0,0,0,0,0,0,0,0,0,0,0,0,0,0,0,0,0,0,0,0,0,0,0,0,0,0,0,0,0,0,0,0,0,0,0,0,0,0,0,0,0,0,0,0,0,0,0,0,0,0,0,0,0,0,0
</data>
 </layer>
</map>
