<?xml version="1.0" encoding="UTF-8"?>
<map version="1.10" tiledversion="1.11.2" orientation="orthogonal" renderorder="right-down" width="28" height="124" tilewidth="16" tileheight="16" infinite="0" nextlayerid="3" nextobjectid="1">
 <properties>
  <property name="priority" type="bool" value="true"/>
 </properties>
 <tileset firstgid="1" name="tiles" tilewidth="16" tileheight="16" tilecount="112" columns="11">
  <image source="ci.png" width="176" height="176"/>
  <tile id="0">
   <objectgroup draworder="index" id="2">
    <object id="1" x="0" y="0">
     <polygon points="0,0 16,0 16,16 0,16"/>
    </object>
   </objectgroup>
  </tile>
  <tile id="2">
   <objectgroup draworder="index" id="2">
    <object id="1" x="0" y="0">
     <polygon points="0,0 16,0 16,16 0,16"/>
    </object>
   </objectgroup>
  </tile>
  <tile id="3">
   <objectgroup draworder="index" id="2">
    <object id="1" x="0" y="0">
     <polygon points="0,0 16,0 16,16 0,16"/>
    </object>
   </objectgroup>
  </tile>
  <tile id="4">
   <objectgroup draworder="index" id="2">
    <object id="1" x="0" y="0">
     <polygon points="0,0 16,0 16,16 0,16"/>
    </object>
   </objectgroup>
  </tile>
  <tile id="6">
   <objectgroup draworder="index" id="2">
    <object id="1" x="0" y="0">
     <polygon points="0,0 16,0 16,16 0,16"/>
    </object>
   </objectgroup>
  </tile>
  <tile id="7">
   <objectgroup draworder="index" id="2">
    <object id="1" x="0" y="0">
     <polygon points="0,0 16,0 16,16 0,16"/>
    </object>
   </objectgroup>
  </tile>
  <tile id="9">
   <objectgroup draworder="index" id="2">
    <object id="1" x="0" y="0">
     <polygon points="0,0 16,0 16,16 0,16"/>
    </object>
   </objectgroup>
  </tile>
  <tile id="25">
   <objectgroup draworder="index" id="2">
    <object id="1" x="0" y="0">
     <polygon points="0,0 16,0 16,16 0,16"/>
    </object>
   </objectgroup>
  </tile>
  <tile id="33">
   <objectgroup draworder="index" id="2">
    <object id="1" x="0" y="0">
     <polygon points="0,0 16,0 16,16 0,16"/>
    </object>
   </objectgroup>
  </tile>
  <tile id="35">
   <objectgroup draworder="index" id="2">
    <object id="1" x="0" y="0">
     <polygon points="0,0 16,0 16,16 0,16"/>
    </object>
   </objectgroup>
  </tile>
  <tile id="17">
   <objectgroup draworder="index" id="2">
    <object id="1" x="0" y="0">
     <polygon points="0,0 16,0 16,16 0,16"/>
    </object>
   </objectgroup>
  </tile>
  <tile id="38">
   <objectgroup draworder="index" id="2">
    <object id="1" x="0" y="0">
     <polygon points="0,0 16,0 16,16 0,16"/>
    </object>
   </objectgroup>
  </tile>
  <tile id="40">
   <objectgroup draworder="index" id="2">
    <object id="1" x="0" y="0">
     <polygon points="0,0 16,0 16,16 0,16"/>
    </object>
   </objectgroup>
  </tile>
  <tile id="87">
   <objectgroup draworder="index" id="2">
    <object id="1" x="0" y="0">
     <polygon points="0,0 16,8 16,16 0,16"/>
    </object>
   </objectgroup>
  </tile>
  <tile id="88">
   <objectgroup draworder="index" id="2">
    <object id="1" x="0" y="8">
     <polygon points="0,0 16,8 0,8"/>
    </object>
   </objectgroup>
  </tile>
  <tile id="8">
   <objectgroup draworder="index" id="2">
    <object id="1" x="0" y="0">
     <polygon points="0,0 16,0 16,16 0,16"/>
    </object>
   </objectgroup>
  </tile>
  <tile id="49">
   <objectgroup draworder="index" id="2">
    <object id="1" x="0" y="0">
     <polygon points="0,0 16,0 16,16 0,16"/>
    </object>
   </objectgroup>
  </tile>
  <tile id="50">
   <objectgroup draworder="index" id="2">
    <object id="1" x="0" y="0">
     <polygon points="0,0 16,0 16,16 0,16"/>
    </object>
   </objectgroup>
  </tile>
  <tile id="90">
   <objectgroup draworder="index" id="2">
    <object id="1" x="0" y="0">
     <polygon points="0,0 16,0 16,16 0,16"/>
    </object>
   </objectgroup>
  </tile>
  <tile id="91">
   <objectgroup draworder="index" id="2">
    <object id="1" x="0" y="0">
     <polygon points="0,0 16,0 16,16 0,16"/>
    </object>
   </objectgroup>
  </tile>
  <tile id="46">
   <objectgroup draworder="index" id="2">
    <object id="1" x="0" y="0">
     <polygon points="0,0 16,0 16,16 0,16"/>
    </object>
   </objectgroup>
  </tile>
  <tile id="51">
   <objectgroup draworder="index" id="2">
    <object id="1" x="0" y="0">
     <polygon points="0,0 16,0 16,16 0,16"/>
    </object>
   </objectgroup>
  </tile>
  <tile id="36">
   <objectgroup draworder="index" id="2">
    <object id="1" x="0" y="0">
     <polygon points="0,0 16,0 16,16 0,16"/>
    </object>
   </objectgroup>
  </tile>
  <tile id="16">
   <objectgroup draworder="index" id="2">
    <object id="1" x="0" y="0">
     <polygon points="0,0 16,0 16,16 0,16"/>
    </object>
   </objectgroup>
  </tile>
  <tile id="5">
   <objectgroup draworder="index" id="2">
    <object id="1" x="0" y="0">
     <polygon points="0,0 16,0 16,16 0,16"/>
    </object>
   </objectgroup>
  </tile>
  <tile id="14">
   <objectgroup draworder="index" id="2">
    <object id="1" x="0" y="0">
     <polygon points="0,0 16,0 16,16 0,16"/>
    </object>
   </objectgroup>
  </tile>
  <tile id="92">
   <objectgroup draworder="index" id="2">
    <object id="1" x="0" y="0">
     <polygon points="0,0 16,0 16,16 0,16"/>
    </object>
   </objectgroup>
  </tile>
  <tile id="10">
   <objectgroup draworder="index" id="2">
    <object id="1" x="0" y="0">
     <polygon points="0,0 16,0 16,16 0,16"/>
    </object>
   </objectgroup>
  </tile>
  <tile id="41">
   <objectgroup draworder="index" id="2">
    <object id="1" x="0" y="0">
     <polygon points="0,0 16,0 16,16 0,16"/>
    </object>
   </objectgroup>
  </tile>
  <tile id="52">
   <objectgroup draworder="index" id="2">
    <object id="1" x="0" y="0">
     <polygon points="0,0 16,0 16,16 0,16"/>
    </object>
   </objectgroup>
  </tile>
  <tile id="93">
   <objectgroup draworder="index" id="2">
    <object id="1" x="0" y="0">
     <polygon points="0,0 16,0 16,16 0,16"/>
    </object>
   </objectgroup>
  </tile>
  <tile id="1">
   <objectgroup draworder="index" id="2">
    <object id="1" x="0" y="0">
     <polygon points="0,0 16,0 16,16 0,16"/>
    </object>
   </objectgroup>
  </tile>
  <tile id="47">
   <animation>
    <frame tileid="47" duration="150"/>
    <frame tileid="81" duration="150"/>
   </animation>
  </tile>
  <tile id="94">
   <properties>
    <property name="spikes" type="int" value="1"/>
   </properties>
  </tile>
  <tile id="95">
   <properties>
    <property name="spikes" type="int" value="2"/>
   </properties>
  </tile>
  <tile id="54">
   <objectgroup draworder="index" id="2">
    <object id="1" x="0" y="0">
     <polygon points="0,0 16,0 16,16 0,16"/>
    </object>
   </objectgroup>
  </tile>
  <tile id="37">
   <objectgroup draworder="index" id="2">
    <object id="1" x="0" y="0">
     <polygon points="0,0 16,0 16,16 0,16"/>
    </object>
   </objectgroup>
  </tile>
  <tile id="57">
   <animation>
    <frame tileid="57" duration="150"/>
    <frame tileid="83" duration="150"/>
   </animation>
  </tile>
  <tile id="96">
   <properties>
    <property name="spikes" type="int" value="0"/>
   </properties>
  </tile>
  <tile id="55">
   <objectgroup draworder="index" id="2">
    <object id="1" x="0" y="0">
     <polygon points="0,0 16,0 16,16 0,16"/>
    </object>
   </objectgroup>
  </tile>
  <tile id="42">
   <objectgroup draworder="index" id="2">
    <object id="1" x="0" y="0">
     <properties>
      <property name="type" type="int" value="3"/>
     </properties>
     <polygon points="0,0 16,0 16,16 0,16"/>
    </object>
   </objectgroup>
  </tile>
  <tile id="48">
   <animation>
    <frame tileid="48" duration="150"/>
    <frame tileid="106" duration="150"/>
   </animation>
  </tile>
  <tile id="39">
   <animation>
    <frame tileid="39" duration="150"/>
    <frame tileid="80" duration="150"/>
   </animation>
  </tile>
  <tile id="53">
   <objectgroup draworder="index" id="2">
    <object id="1" x="0" y="0">
     <polygon points="0,0 16,0 16,16 0,16"/>
    </object>
   </objectgroup>
  </tile>
  <tile id="56">
   <objectgroup draworder="index" id="2">
    <object id="1" x="0" y="0">
     <polygon points="0,0 16,0 16,16 0,16"/>
    </object>
   </objectgroup>
  </tile>
  <tile id="22">
   <animation>
    <frame tileid="22" duration="150"/>
    <frame tileid="107" duration="150"/>
   </animation>
  </tile>
  <tile id="30">
   <animation>
    <frame tileid="30" duration="150"/>
    <frame tileid="108" duration="150"/>
   </animation>
  </tile>
  <tile id="32">
   <animation>
    <frame tileid="32" duration="150"/>
    <frame tileid="79" duration="150"/>
   </animation>
  </tile>
  <tile id="31">
   <animation>
    <frame tileid="31" duration="150"/>
    <frame tileid="78" duration="150"/>
   </animation>
  </tile>
  <tile id="98">
   <objectgroup draworder="index" id="2">
    <object id="1" x="0" y="16">
     <polygon points="0,0 16,-8 16,0"/>
    </object>
   </objectgroup>
  </tile>
  <tile id="99">
   <objectgroup draworder="index" id="2">
    <object id="1" x="0" y="8">
     <polygon points="0,0 16,-8 16,8 0,8"/>
    </object>
   </objectgroup>
  </tile>
  <tile id="100">
   <objectgroup draworder="index" id="2">
    <object id="1" x="0" y="0">
     <polygon points="0,0 16,8 16,16 0,16"/>
    </object>
   </objectgroup>
  </tile>
  <tile id="101">
   <objectgroup draworder="index" id="2">
    <object id="1" x="0" y="8">
     <polygon points="0,0 16,8 0,8"/>
    </object>
   </objectgroup>
  </tile>
  <tile id="58">
   <animation>
    <frame tileid="58" duration="500"/>
    <frame tileid="60" duration="500"/>
   </animation>
  </tile>
  <tile id="59">
   <animation>
    <frame tileid="59" duration="500"/>
    <frame tileid="61" duration="500"/>
   </animation>
  </tile>
  <tile id="102">
   <objectgroup draworder="index" id="2">
    <object id="1" x="0" y="0">
     <polygon points="0,0 16,0 16,16 0,16"/>
    </object>
   </objectgroup>
   <animation>
    <frame tileid="102" duration="150"/>
    <frame tileid="104" duration="150"/>
    <frame tileid="105" duration="150"/>
   </animation>
  </tile>
  <tile id="103">
   <objectgroup draworder="index" id="2">
    <object id="1" x="0" y="0">
     <polygon points="0,0 16,0 16,16 0,16"/>
    </object>
   </objectgroup>
   <animation>
    <frame tileid="103" duration="150"/>
    <frame tileid="105" duration="150"/>
    <frame tileid="104" duration="150"/>
   </animation>
  </tile>
 </tileset>
 <layer id="1" name="layer0" width="28" height="124">
  <properties>
   <property name="collision" type="bool" value="true"/>
  </properties>
  <data encoding="csv">
1,1,1,1,1,1,1,1,1,1,1,1,1,1,1,1,1,1,1,1,1,1,1,1,1,1,1,1,
1,1,1,1,1,1,1,1,1,1,1,1,1,1,1,1,1,1,1,1,1,1,1,1,1,1,1,1,
3,4,3,4,3,4,3,4,3,4,3,4,3,5,1,1,1,1,1,1,1,1,1,1,1,1,1,1,
7,8,7,8,7,8,7,8,7,8,7,8,10,4,3,5,1,1,1,1,1,1,1,1,1,1,1,1,
16,16,16,16,16,16,16,16,16,16,16,16,26,7,10,4,3,5,1,1,1,1,1,1,1,1,1,1,
13,13,13,13,13,13,13,13,14,16,16,16,16,16,34,7,10,4,3,4,5,1,1,1,1,1,1,1,
20,20,20,20,20,20,20,20,20,13,14,16,16,16,36,16,26,34,7,10,4,1,1,1,1,1,1,1,
20,20,20,20,20,20,20,20,20,20,87,13,14,16,16,16,16,34,16,26,10,18,1,1,1,1,1,1,
39,41,39,41,39,41,39,41,39,88,89,90,87,13,14,16,16,36,16,16,9,10,3,5,1,1,1,1,
50,51,50,51,50,51,50,51,50,91,92,88,89,90,87,13,14,16,16,16,26,26,8,8,10,1,1,1,
1,1,1,1,1,1,1,1,1,1,47,91,92,88,89,90,87,13,13,14,16,12,14,16,9,1,1,1,
1,1,1,1,1,1,1,1,1,1,52,47,47,91,92,88,89,90,20,21,16,27,29,16,9,47,1,1,
1,1,1,1,1,1,1,1,1,1,1,52,52,47,47,91,92,88,89,29,16,37,39,41,17,47,1,1,
1,1,1,1,1,1,1,1,1,1,1,1,1,52,52,18,6,7,15,16,16,9,51,51,50,1,1,1,
1,1,1,1,1,1,1,1,1,1,1,1,1,1,5,6,15,16,16,16,16,9,1,1,1,1,1,1,
1,1,1,1,1,1,1,1,1,1,1,1,1,5,15,16,16,16,16,16,16,9,1,1,1,1,1,1,
1,1,1,1,1,1,1,1,1,1,1,1,1,6,16,16,16,16,16,99,100,93,1,1,1,1,1,1,
1,1,1,1,1,1,1,1,1,1,1,1,1,11,16,16,16,99,100,93,93,47,1,1,1,1,1,1,
1,1,1,1,1,1,1,1,1,1,1,1,1,11,16,16,16,26,7,10,47,52,1,1,1,1,1,1,
1,1,1,1,1,1,1,1,1,1,1,1,1,11,16,16,16,16,16,7,93,47,1,1,1,1,1,1,
1,1,1,1,1,1,1,1,1,1,1,1,47,42,16,16,16,16,16,16,16,7,1,1,1,1,1,1,
1,1,1,1,1,1,1,1,1,1,1,1,6,53,101,102,16,16,16,16,16,10,1,1,1,1,1,1,
1,1,1,1,1,1,1,1,1,1,1,1,18,18,18,94,101,102,16,16,16,9,5,1,1,1,1,1,
1,1,1,1,1,1,1,1,1,1,1,5,6,7,7,9,18,94,101,16,16,9,2,1,1,1,1,1,
1,1,1,1,1,1,1,1,1,1,5,4,11,16,16,26,18,94,11,16,16,9,3,4,3,1,1,1,
1,1,1,1,1,1,5,4,3,4,3,6,15,16,16,16,26,34,15,16,16,26,7,7,10,1,1,1,
1,4,3,4,3,4,3,6,7,8,7,15,16,16,16,16,16,36,16,16,16,16,48,16,9,5,1,1,
5,6,7,8,7,8,7,15,12,13,13,13,14,16,16,16,16,16,16,16,16,16,48,16,26,10,2,1,
2,42,95,95,95,95,95,95,19,20,20,20,21,16,16,16,16,16,16,16,16,16,48,16,96,9,18,1,
18,42,16,16,16,16,16,16,19,20,20,20,21,16,16,16,16,16,16,16,16,16,48,16,96,9,5,1,
1,42,16,16,16,16,16,16,27,28,28,28,29,16,16,16,16,16,16,16,16,16,48,16,39,17,2,1,
1,42,16,16,16,16,16,16,16,37,55,55,38,16,16,16,16,16,37,41,39,41,58,16,9,47,18,1,
47,42,16,16,16,16,97,97,97,9,56,56,11,16,16,16,16,16,9,51,50,42,16,16,9,52,1,1,
6,42,39,38,16,16,37,39,41,17,10,47,38,16,16,16,97,97,9,18,2,42,16,16,17,47,1,1,
1,51,50,42,16,16,17,50,51,50,51,53,38,16,16,37,39,41,17,1,5,42,12,14,17,52,1,1,
1,1,47,11,16,16,17,47,1,1,18,18,42,16,16,17,50,51,50,1,2,42,20,20,17,1,1,1,
1,1,52,42,16,16,17,52,1,18,4,3,42,16,16,17,3,4,18,1,18,42,28,29,17,47,1,1,
1,1,1,42,16,16,17,47,1,47,11,7,15,16,16,26,7,10,1,1,5,42,16,16,17,52,1,1,
1,1,47,42,16,16,17,52,1,52,11,20,21,16,16,19,20,17,47,1,2,42,16,16,17,47,1,1,
1,1,52,42,16,16,17,47,1,47,11,28,29,16,16,27,28,17,52,1,18,42,16,16,17,52,1,1,
1,1,1,42,19,19,17,52,1,52,42,16,16,16,16,16,16,17,18,1,18,42,12,14,17,1,1,1,
1,1,47,42,19,19,17,47,1,47,42,16,16,37,38,16,16,9,3,4,3,42,20,20,17,1,1,1,
1,1,52,42,19,19,17,52,1,52,42,16,16,17,42,16,16,26,8,8,8,15,20,20,17,47,1,1,
1,1,1,42,16,16,17,47,1,47,42,16,16,26,15,12,13,13,13,14,16,16,20,20,17,52,1,1,
1,1,47,42,16,16,17,52,1,52,42,16,16,16,16,19,19,19,19,21,16,16,27,29,17,1,1,1,
1,1,52,42,16,16,17,47,1,47,42,16,16,16,16,27,28,28,28,29,16,16,16,16,17,47,1,1,
1,1,1,42,16,16,17,52,1,52,42,16,16,41,39,39,41,39,39,41,39,39,39,41,10,52,1,1,
1,1,47,42,16,16,17,47,1,47,42,19,19,17,50,51,50,50,51,50,50,51,50,51,50,47,1,1,
1,1,52,42,19,19,17,52,1,47,42,19,19,17,47,1,1,1,18,1,52,1,1,1,1,1,1,1,
1,1,47,42,19,19,17,47,1,52,42,19,19,17,52,1,1,18,3,3,4,3,4,3,4,47,1,1,
1,1,52,42,16,16,17,52,4,3,42,16,16,17,3,4,18,1,11,7,7,7,7,7,10,52,1,1,
1,1,47,42,16,16,17,3,11,7,15,16,16,26,8,9,3,3,11,49,16,16,16,16,9,47,1,1,
1,1,52,42,16,16,26,7,15,16,16,16,16,16,16,26,9,11,15,49,16,16,16,16,9,52,1,1,
1,1,47,42,16,16,16,16,16,19,19,19,19,19,19,16,26,15,16,40,16,34,16,16,9,47,1,1,
1,1,52,42,16,16,16,16,16,19,19,19,19,19,19,16,16,16,16,16,16,34,16,16,9,52,1,1,
1,1,47,42,39,41,39,39,41,16,16,16,16,16,16,16,16,19,19,16,39,54,16,16,9,47,1,1,
1,1,52,50,51,50,51,51,42,39,39,39,39,39,16,16,16,19,19,39,54,15,16,16,9,52,1,1,
1,47,3,4,3,3,4,4,53,54,53,54,54,53,41,39,41,39,41,54,15,16,16,16,9,47,1,1,
1,52,6,8,7,8,7,8,53,8,7,8,7,53,8,7,8,7,8,15,16,16,30,16,9,52,1,1,
1,47,11,16,16,16,16,16,34,12,13,13,14,57,12,13,13,13,13,14,16,16,35,16,9,47,1,1,
1,52,11,16,16,16,16,16,34,27,28,28,29,36,27,28,28,28,28,29,16,16,35,16,9,52,1,1,
1,47,11,30,16,16,30,16,36,16,16,16,16,16,16,16,16,16,16,16,37,39,41,39,17,10,1,1,
1,52,11,35,16,16,35,16,16,16,16,16,16,16,16,16,16,16,16,16,9,50,51,50,51,47,1,1,
1,53,38,35,16,16,35,12,13,13,14,41,12,13,14,41,12,14,37,41,17,47,1,1,1,52,1,1,
1,6,42,38,16,16,57,19,98,28,29,34,27,28,29,34,27,29,9,50,51,52,1,1,1,1,1,1,
1,18,6,11,16,16,34,27,29,37,41,53,41,39,41,53,55,55,17,47,1,1,1,1,1,1,1,1,
1,1,47,11,16,16,53,55,55,17,51,50,51,50,51,50,56,56,56,52,1,1,1,1,1,1,1,1,
1,1,52,11,16,16,9,56,56,3,4,3,4,3,4,1,1,1,1,1,1,1,1,1,1,1,1,1,
1,1,47,11,16,16,26,7,7,7,7,7,7,7,10,1,1,1,1,1,1,1,1,1,1,1,1,1,
1,1,52,11,16,16,16,16,16,16,16,16,16,16,9,2,1,1,1,1,1,1,1,1,1,1,1,1,
1,1,1,11,16,16,22,24,23,24,31,25,16,16,9,18,1,1,1,1,1,1,1,1,1,1,1,1,
1,1,47,11,16,22,44,31,33,25,49,16,16,16,53,18,1,1,1,1,1,1,1,1,1,1,1,1,
1,1,52,11,16,16,16,49,48,16,49,37,39,41,54,3,4,3,4,3,4,3,4,3,4,3,47,1,
1,1,47,11,55,55,38,49,48,16,49,9,56,51,11,7,8,7,8,7,8,7,8,7,8,10,52,1,
1,1,52,50,56,56,11,49,48,16,49,9,18,18,11,16,16,16,16,16,16,48,16,49,16,17,47,1,
1,1,1,1,1,5,11,49,48,16,49,9,3,4,11,16,16,16,16,16,16,48,16,49,16,17,52,1,
1,1,1,1,1,2,11,49,48,16,49,26,8,7,15,16,16,16,16,16,16,48,16,49,16,17,47,1,
1,1,1,1,1,18,11,49,48,16,49,16,16,16,16,16,16,39,55,55,39,104,104,104,16,17,52,1,
1,1,1,1,1,5,11,49,48,16,104,104,104,104,104,16,16,17,56,56,11,16,16,49,16,17,47,1,
1,1,1,1,1,2,11,49,48,16,26,7,8,7,15,16,16,17,1,5,11,16,16,49,16,17,52,1,
1,1,1,1,1,18,11,49,48,16,16,16,16,48,16,16,16,17,1,2,11,16,103,103,103,17,1,1,
1,1,1,1,1,5,11,49,48,16,16,16,16,48,16,16,16,17,47,18,11,16,48,16,16,17,47,1,
1,1,1,1,1,2,42,103,103,103,103,16,16,48,16,16,16,17,52,1,11,16,48,16,16,17,52,1,
1,1,1,1,1,18,53,50,51,50,42,103,103,58,16,16,16,17,47,11,53,104,104,104,16,17,1,1,
1,1,1,1,1,1,1,1,1,1,50,51,42,16,16,16,16,17,52,11,16,49,16,48,16,17,1,1,
1,1,1,1,1,1,1,1,1,1,1,5,42,39,41,39,41,17,3,11,16,49,16,48,16,17,47,1,
1,1,1,1,1,1,1,1,1,1,1,2,6,8,7,8,7,34,8,15,16,49,103,103,103,17,52,1,
1,1,1,1,1,1,1,1,1,1,1,18,42,12,13,14,16,36,16,16,16,49,48,16,16,17,47,1,
1,1,1,1,1,1,1,1,1,1,1,1,11,19,20,21,16,16,30,16,16,49,48,16,16,17,52,1,
1,1,1,1,1,1,1,1,1,1,1,53,38,19,20,21,16,16,35,16,16,49,48,16,16,17,47,1,
1,1,1,1,1,1,1,1,1,1,1,18,42,19,20,21,16,16,35,16,16,49,48,16,16,17,52,1,
1,1,1,1,1,3,4,3,4,3,3,47,42,19,20,21,37,41,39,38,16,40,58,16,16,17,47,1,
1,1,1,1,47,6,7,7,7,15,7,7,15,19,20,21,17,50,51,42,16,16,16,16,16,17,52,1,
1,1,1,1,52,42,31,31,44,23,25,16,16,19,20,21,9,47,51,42,41,39,16,16,16,17,47,1,
1,1,1,1,47,42,32,32,25,48,16,16,16,27,28,29,17,52,47,50,51,42,41,16,16,17,52,1,
1,1,1,1,52,42,49,49,16,48,16,37,38,16,16,16,9,47,52,1,1,5,42,16,16,17,47,1,
1,1,1,1,47,42,40,40,16,58,16,9,42,16,16,16,17,52,1,1,1,2,42,19,19,17,52,1,
1,1,1,1,52,42,16,16,16,16,16,9,42,16,16,16,9,47,1,1,1,18,42,19,19,17,47,1,
1,1,1,1,6,42,38,41,38,39,39,9,42,16,16,16,9,52,1,1,1,5,42,19,19,17,52,1,
1,1,1,1,1,6,53,50,51,50,51,50,42,16,16,16,9,47,1,1,1,2,42,16,16,17,47,1,
1,1,1,1,1,1,1,1,1,1,1,1,11,16,16,16,26,10,3,4,1,18,42,16,16,17,52,1,
1,1,1,1,1,47,4,3,4,3,4,3,11,16,16,16,16,26,26,10,3,5,42,16,16,17,47,1,
1,1,1,1,1,52,6,7,8,7,53,7,15,16,16,16,16,16,16,26,10,2,42,16,16,17,52,1,
1,1,1,1,1,47,11,16,16,16,57,16,16,16,16,16,16,16,16,16,9,18,42,39,16,17,47,1,
1,1,1,1,1,52,11,16,16,16,36,16,22,23,25,16,16,16,16,16,9,1,11,15,16,17,52,1,
1,1,1,1,1,47,11,16,16,16,16,16,16,48,16,57,16,16,16,16,9,5,42,16,16,17,47,1,
1,1,1,1,1,52,11,16,22,44,23,25,16,48,16,36,16,16,16,16,9,2,42,16,16,17,52,1,
1,1,1,1,1,47,11,16,16,16,48,16,57,48,16,16,16,16,16,16,9,1,42,19,19,17,47,1,
1,1,1,1,1,52,11,16,16,16,48,16,36,48,16,16,16,16,16,16,17,18,42,19,19,17,52,1,
1,1,1,1,1,47,11,16,16,16,48,16,16,48,16,16,16,16,16,16,9,1,42,16,16,17,1,1,
1,1,1,1,1,52,11,16,16,16,48,22,44,33,23,44,25,16,16,16,9,18,42,16,16,17,47,1,
3,4,3,4,3,4,11,16,16,22,33,44,44,33,32,25,16,16,16,16,9,1,42,16,16,17,52,1,
7,8,7,8,7,8,15,16,22,44,33,31,25,48,49,16,16,16,16,37,17,18,42,16,39,17,47,1,
16,16,16,16,16,16,16,16,16,22,33,32,44,33,32,44,25,16,16,9,18,2,42,16,26,9,52,1,
16,30,16,30,16,30,16,22,23,31,33,32,25,48,49,16,16,16,37,17,1,18,42,16,16,17,1,1,
16,35,16,35,16,35,16,16,48,49,48,49,22,33,32,25,16,16,9,1,1,2,42,16,16,17,47,1,
16,35,16,35,16,35,16,16,48,49,48,49,16,48,49,16,37,37,17,18,1,18,42,16,16,17,52,1,
39,41,39,41,39,41,38,16,48,49,48,49,16,48,49,16,17,3,4,3,4,3,42,16,16,17,47,1,
50,51,50,51,50,51,42,16,58,40,58,40,16,58,40,16,26,7,8,8,8,8,15,19,19,17,52,1,
1,1,1,1,1,1,42,16,16,19,19,19,19,19,19,16,16,16,16,16,16,16,16,19,19,17,1,1,
1,1,1,1,1,47,42,16,16,19,19,19,19,19,19,16,16,16,16,16,16,16,16,19,19,17,47,1,
1,1,1,1,1,6,53,39,41,39,41,39,41,39,41,39,41,39,41,39,41,39,41,39,41,17,10,1,
1,1,1,1,1,1,50,50,51,50,51,50,51,50,51,50,51,50,51,50,51,50,51,50,51,51,1,1,
1,1,1,1,1,1,1,1,1,1,1,1,1,1,1,1,1,1,1,1,1,1,1,1,1,1,1,1
</data>
 </layer>
 <layer id="2" name="layer1" width="28" height="124">
  <properties>
   <property name="collision" type="bool" value="true"/>
   <property name="priority" type="bool" value="true"/>
  </properties>
  <data encoding="csv">
0,0,0,0,0,0,0,0,0,0,0,0,0,0,0,0,0,0,0,0,0,0,0,0,0,0,0,0,
0,0,0,0,0,0,0,0,0,0,0,0,0,0,0,0,0,0,0,0,0,0,0,0,0,0,0,0,
0,0,0,0,0,0,0,0,0,0,0,0,0,0,0,0,0,0,0,0,0,0,0,0,0,0,0,0,
0,0,0,0,0,0,0,0,0,0,0,0,0,0,0,0,0,0,0,0,0,0,0,0,0,0,0,0,
0,0,0,0,0,0,0,0,0,0,0,0,0,0,0,0,0,0,0,0,0,0,0,0,0,0,0,0,
0,0,0,0,0,0,0,0,0,0,0,0,0,0,0,0,0,0,0,0,0,0,0,0,0,0,0,0,
0,0,0,0,0,0,0,0,0,0,0,0,0,0,0,0,0,0,0,0,0,0,0,0,0,0,0,0,
0,0,0,0,0,0,0,0,0,0,0,0,0,0,0,0,0,0,0,0,0,0,0,0,0,0,0,0,
0,0,0,0,0,0,0,0,0,0,0,0,0,0,0,0,0,0,0,0,0,0,0,0,0,0,0,0,
0,0,0,0,0,0,0,0,0,0,0,0,0,0,0,0,0,0,0,0,0,0,0,0,0,0,0,0,
0,0,0,0,0,0,0,0,0,0,0,0,0,0,0,0,0,0,0,0,0,0,0,0,0,0,0,0,
0,0,0,0,0,0,0,0,0,0,0,0,0,0,0,0,0,0,0,0,0,0,0,0,0,0,0,0,
0,0,0,0,0,0,0,0,0,0,0,0,0,0,0,0,0,0,0,0,0,0,0,0,0,0,0,0,
0,0,0,0,0,0,0,0,0,0,0,0,0,0,0,0,0,0,0,0,0,0,0,0,0,0,0,0,
0,0,0,0,0,0,0,0,0,0,0,0,0,0,0,0,0,0,0,0,0,0,0,0,0,0,0,0,
0,0,0,0,0,0,0,0,0,0,0,0,0,0,0,0,0,0,0,0,0,0,0,0,0,0,0,0,
0,0,0,0,0,0,0,0,0,0,0,0,0,0,0,0,0,0,0,0,0,0,0,0,0,0,0,0,
0,0,0,0,0,0,0,0,0,0,0,0,0,0,0,0,0,0,0,0,0,0,0,0,0,0,0,0,
0,0,0,0,0,0,0,0,0,0,0,0,0,0,0,0,0,0,0,0,0,0,0,0,0,0,0,0,
0,0,0,0,0,0,0,0,0,0,0,0,0,0,0,0,0,0,0,0,0,0,0,0,0,0,0,0,
0,0,0,0,0,0,0,0,0,0,0,0,0,0,0,0,0,0,0,0,0,0,0,0,0,0,0,0,
0,0,0,0,0,0,0,0,0,0,0,0,0,0,0,0,0,0,0,0,0,0,0,0,0,0,0,0,
0,0,0,0,0,0,0,0,0,0,0,0,0,0,0,0,0,0,0,0,0,0,0,0,0,0,0,0,
0,0,0,0,0,0,0,0,0,0,0,0,0,0,0,0,0,0,0,0,0,0,0,0,0,0,0,0,
0,0,0,0,0,0,0,0,0,0,0,0,0,0,0,0,0,0,0,0,0,0,0,0,0,0,0,0,
0,0,0,0,0,0,0,0,0,0,0,0,0,0,0,0,0,0,0,0,0,0,0,0,0,0,0,0,
0,0,0,0,0,0,0,0,0,0,0,0,0,0,0,0,0,0,0,0,0,0,0,0,0,0,0,0,
0,0,0,0,0,0,0,0,0,0,0,0,0,0,0,0,0,0,0,0,0,0,0,0,0,0,0,0,
0,0,0,0,0,0,0,0,0,0,0,0,0,0,0,0,0,0,0,0,0,0,0,0,0,0,0,0,
0,0,0,0,0,0,0,0,0,0,0,0,0,0,0,0,0,0,0,0,0,0,0,0,0,0,0,0,
0,0,0,0,0,0,0,0,0,0,0,0,0,0,0,0,0,0,0,0,0,0,0,0,39,0,0,0,
0,0,0,0,0,0,0,0,0,0,55,55,0,0,0,0,0,0,0,0,0,41,59,60,9,0,0,0,
0,0,0,0,0,0,0,0,0,0,56,56,0,0,0,0,0,0,0,0,0,70,43,43,71,0,0,0,
0,0,0,38,0,0,37,0,0,0,0,0,0,0,0,0,0,0,0,0,0,70,43,43,65,0,0,0,
0,0,0,42,0,0,17,0,0,0,0,0,0,0,0,0,0,0,0,0,0,70,43,43,65,0,0,0,
0,0,0,11,59,60,17,0,0,0,0,0,0,0,0,0,0,0,0,0,0,70,43,43,65,0,0,0,
0,0,0,70,43,43,65,0,0,0,0,0,0,0,0,0,0,0,0,0,0,70,43,43,65,0,0,0,
0,0,0,70,43,43,65,0,0,0,0,0,0,0,0,0,0,0,0,0,0,70,43,43,65,0,0,0,
0,0,0,70,43,43,65,0,0,0,11,0,0,0,0,0,0,17,0,0,0,70,43,43,65,0,0,0,
0,0,0,70,43,43,65,0,0,0,11,0,0,0,0,0,0,17,0,0,0,70,43,43,65,0,0,0,
0,0,0,70,43,43,65,0,0,0,42,0,0,0,0,0,0,17,0,0,0,70,43,43,65,0,0,0,
0,0,0,70,43,43,65,0,0,0,76,59,60,85,86,59,60,9,0,0,0,70,43,43,65,0,0,0,
0,0,0,70,43,43,65,0,0,0,70,43,43,65,70,43,43,67,68,68,68,66,43,43,65,0,0,0,
0,0,0,70,43,43,65,0,0,0,70,43,43,67,66,43,43,43,43,43,43,43,43,43,65,0,0,0,
0,0,0,70,43,43,65,0,0,0,70,43,43,43,43,43,43,43,43,43,43,43,43,43,65,0,0,0,
0,0,0,70,43,43,65,0,0,0,70,43,43,43,43,43,43,43,43,43,43,43,43,43,65,0,0,0,
0,0,0,70,43,43,65,0,0,0,70,43,43,64,63,63,64,63,63,64,63,63,63,64,10,0,0,0,
0,0,0,70,43,43,65,0,0,0,70,43,43,65,0,0,0,0,0,0,0,0,0,0,0,0,0,0,
0,0,0,70,43,43,65,0,0,0,70,43,43,65,0,0,0,0,0,0,0,0,0,0,0,0,0,0,
0,0,0,70,43,43,65,0,0,0,70,43,43,65,0,0,0,0,0,0,0,0,0,0,0,0,0,0,
0,0,0,70,43,43,65,0,0,0,70,43,43,65,0,0,0,0,11,0,0,0,0,0,0,0,0,0,
0,0,0,70,43,43,65,0,11,69,66,43,43,67,68,9,0,0,11,0,0,0,0,0,0,0,0,0,
0,0,0,70,43,43,67,69,66,43,43,43,43,43,43,67,9,11,15,0,0,0,0,0,0,0,0,0,
0,0,0,70,43,43,43,43,43,43,43,43,43,43,43,43,67,73,59,60,59,34,0,0,0,0,0,0,
0,0,0,70,43,43,43,43,43,43,43,43,43,43,43,43,43,43,43,43,43,34,0,0,0,0,0,0,
0,0,0,42,63,64,63,63,64,43,43,43,43,43,43,43,43,43,43,43,63,54,0,0,0,0,0,0,
0,0,0,0,0,0,0,0,42,63,63,63,63,63,43,43,43,43,43,63,54,0,0,0,0,0,0,0,
0,0,0,0,0,0,0,0,0,0,0,0,0,53,64,63,64,63,64,54,0,0,0,0,0,0,0,0,
0,0,0,0,0,0,0,0,0,0,0,0,0,0,0,0,0,0,0,0,0,0,0,0,0,0,0,0,
0,0,0,0,0,0,0,0,0,0,0,0,0,0,0,0,0,0,0,0,0,0,0,0,0,0,0,0,
0,0,0,0,0,0,0,0,0,0,0,0,0,0,0,0,0,0,0,0,0,0,0,0,0,0,0,0,
0,0,0,0,0,0,0,0,0,0,0,0,0,0,0,0,0,0,0,0,0,0,0,0,0,0,0,0,
0,0,0,0,0,0,0,0,0,0,0,0,0,0,0,0,0,0,0,0,0,0,0,0,0,0,0,0,
0,0,0,0,0,0,0,0,0,0,0,0,0,0,0,0,0,0,0,0,0,0,0,0,0,0,0,0,
0,0,0,0,0,0,0,0,0,0,0,0,0,0,0,0,0,0,0,0,0,0,0,0,0,0,0,0,
0,0,0,0,0,0,0,0,0,0,0,0,0,0,0,0,55,55,0,0,0,0,0,0,0,0,0,0,
0,0,0,0,0,0,0,55,55,0,0,0,0,0,0,0,56,56,0,0,0,0,0,0,0,0,0,0,
0,0,0,0,0,0,0,56,56,0,0,0,0,0,0,0,0,0,0,0,0,0,0,0,0,0,0,0,
0,0,0,0,0,0,0,0,0,0,0,0,0,0,0,0,0,0,0,0,0,0,0,0,0,0,0,0,
0,0,0,0,0,0,0,0,0,0,0,0,0,0,0,0,0,0,0,0,0,0,0,0,0,0,0,0,
0,0,0,0,0,0,0,0,0,0,0,0,0,0,0,0,0,0,0,0,0,0,0,0,0,0,0,0,
0,0,0,0,0,0,0,0,0,0,0,0,0,0,0,0,0,0,0,0,0,0,0,0,0,0,0,0,
0,0,0,0,0,0,0,0,0,0,0,0,0,0,0,0,0,0,0,0,0,0,0,0,0,0,0,0,
0,0,0,0,55,55,0,0,0,0,0,0,0,0,0,0,0,0,0,0,0,0,0,0,0,0,0,0,
0,0,0,0,56,56,0,0,0,0,0,0,0,0,0,0,0,0,0,0,0,0,0,0,0,0,0,0,
0,0,0,0,0,0,0,0,0,0,0,0,0,0,0,0,0,0,0,0,0,0,0,0,0,0,0,0,
0,0,0,0,0,0,0,0,0,0,0,0,0,0,0,0,0,0,0,0,0,0,0,0,0,0,0,0,
0,0,0,0,0,0,0,0,0,0,0,0,0,0,0,0,0,0,55,55,0,0,0,0,0,0,0,0,
0,0,0,0,0,0,0,0,0,0,0,0,0,0,0,0,0,0,56,56,0,0,0,0,0,0,0,0,
0,0,0,0,0,0,0,0,0,0,0,0,0,0,0,0,0,0,0,0,0,0,0,0,0,0,0,0,
0,0,0,0,0,0,0,0,0,0,0,0,0,0,0,0,0,0,0,0,0,0,0,0,0,0,0,0,
0,0,0,0,0,0,0,0,0,0,0,0,0,0,0,0,0,0,0,0,0,0,0,0,0,0,0,0,
0,0,0,0,0,0,0,0,0,0,0,0,0,0,0,0,0,0,0,0,0,0,0,0,0,0,0,0,
0,0,0,0,0,0,0,0,0,0,0,103,103,59,60,59,60,17,0,0,0,0,0,0,0,0,0,0,
0,0,0,0,0,0,0,0,0,0,0,0,70,43,43,43,43,17,0,0,0,0,0,0,0,0,0,0,
0,0,0,0,0,0,0,0,0,0,0,0,42,63,64,63,64,17,0,0,0,0,0,0,0,0,0,0,
0,0,0,0,0,0,0,0,0,0,0,0,0,0,0,0,0,0,0,0,0,0,0,0,0,0,0,0,
0,0,0,0,0,0,0,0,0,0,0,0,0,0,0,0,0,0,0,0,0,0,0,0,0,17,0,0,
0,0,0,0,0,0,0,0,0,0,0,0,0,0,0,0,0,0,0,0,0,0,0,0,0,17,0,0,
0,0,0,0,0,0,0,0,0,0,0,0,0,0,0,0,0,0,0,0,0,0,0,0,0,17,0,0,
0,0,0,0,0,0,0,0,0,0,0,0,0,0,0,0,0,0,0,0,0,0,0,0,0,17,0,0,
0,0,0,0,0,0,0,0,0,0,0,0,0,0,0,0,0,0,0,38,59,60,59,60,59,17,0,0,
0,0,0,0,0,0,0,0,0,0,0,0,0,0,0,0,0,0,0,42,43,43,43,43,43,65,0,0,
0,0,0,0,0,42,0,0,0,0,0,0,0,0,0,0,0,0,0,42,64,63,43,43,43,65,0,0,
0,0,0,0,0,42,0,0,0,0,0,0,0,0,0,0,0,0,0,0,0,42,64,43,43,65,0,0,
0,0,0,0,0,42,0,0,0,0,0,37,0,0,0,0,0,0,0,0,0,0,70,43,43,65,0,0,
0,0,0,0,0,76,59,60,59,60,59,9,0,0,0,0,0,0,0,0,0,0,70,43,43,65,0,0,
0,0,0,0,0,70,43,43,43,43,43,71,0,0,0,0,0,0,0,0,0,0,70,43,43,65,0,0,
0,0,0,0,0,42,38,64,38,63,63,9,0,0,0,0,0,0,0,0,0,0,70,43,43,65,0,0,
0,0,0,0,0,0,0,0,0,0,0,0,0,0,0,0,0,0,0,0,0,0,70,43,43,65,0,0,
0,0,0,0,0,0,0,0,0,0,0,0,0,0,0,0,0,0,0,0,0,0,70,43,43,65,0,0,
0,0,0,0,0,0,0,0,0,0,0,0,0,0,0,0,0,0,0,0,0,0,70,43,43,65,0,0,
0,0,0,0,0,0,0,0,0,0,0,0,0,0,0,0,0,0,0,0,0,0,70,43,43,65,0,0,
0,0,0,0,0,0,0,0,0,0,0,0,0,0,0,0,0,0,0,0,0,0,42,63,43,65,0,0,
0,0,0,0,0,0,0,0,0,0,0,0,0,0,0,0,0,0,0,0,0,0,11,66,43,65,0,0,
0,0,0,0,0,0,0,0,0,0,0,0,0,0,0,0,0,0,0,0,0,0,70,43,43,65,0,0,
0,0,0,0,0,0,0,0,0,0,0,0,0,0,0,0,0,0,0,0,0,0,70,43,43,65,0,0,
0,0,0,0,0,0,0,0,0,0,0,0,0,0,0,0,0,0,0,0,0,0,70,43,43,65,0,0,
0,0,0,0,0,0,0,0,0,0,0,0,0,0,0,0,0,0,0,0,0,0,70,43,43,65,0,0,
0,0,0,0,0,0,0,0,0,0,0,0,0,0,0,0,0,0,0,0,0,0,70,43,43,65,0,0,
0,0,0,0,0,0,0,0,0,0,0,0,0,0,0,0,0,0,0,0,0,0,70,43,43,65,0,0,
0,0,0,0,0,0,0,0,0,0,0,0,0,0,0,0,0,0,0,0,0,0,70,43,43,65,0,0,
0,0,0,0,0,0,0,0,0,0,0,0,0,0,0,0,0,0,0,0,0,0,70,43,63,17,0,0,
0,0,0,0,0,0,0,0,0,0,0,0,0,0,0,0,0,0,0,0,0,0,70,43,67,9,0,0,
0,0,0,0,0,0,0,0,0,0,0,0,0,0,0,0,0,0,0,0,0,0,70,43,43,65,0,0,
0,0,0,0,0,0,0,0,0,0,0,0,0,0,0,0,0,0,0,0,0,0,70,43,43,65,0,0,
0,0,0,0,0,0,0,0,0,0,0,0,0,0,0,0,37,0,0,0,0,0,70,43,43,65,0,0,
0,0,0,0,0,0,38,0,0,0,0,0,0,0,0,0,17,0,0,0,0,0,70,43,43,65,0,0,
0,0,0,0,0,0,42,59,60,59,60,59,60,59,60,59,67,69,68,68,68,68,66,43,43,65,0,0,
0,0,0,0,0,0,70,43,43,43,43,43,43,43,43,43,43,43,43,43,43,43,43,43,43,65,0,0,
0,0,0,0,0,0,70,43,43,43,43,43,43,43,43,43,43,43,43,43,43,43,43,43,43,65,0,0,
0,0,0,0,0,0,53,63,64,63,64,63,64,63,64,63,64,63,64,63,64,63,64,63,64,17,0,0,
0,0,0,0,0,0,0,0,0,0,0,0,0,0,0,0,0,0,0,0,0,0,0,0,0,0,0,0,
0,0,0,0,0,0,0,0,0,0,0,0,0,0,0,0,0,0,0,0,0,0,0,0,0,0,0,0
</data>
 </layer>
</map>
