<?xml version="1.0" encoding="UTF-8"?>
<map version="1.10" tiledversion="1.11.2" orientation="orthogonal" renderorder="right-down" width="124" height="28" tilewidth="16" tileheight="16" infinite="0" nextlayerid="3" nextobjectid="1">
 <tileset firstgid="1" name="tiles" tilewidth="16" tileheight="16" tilecount="228" columns="16">
  <image source="cc.png" width="256" height="240"/>
  <tile id="1">
   <objectgroup draworder="index" id="2">
    <object id="1" x="0" y="0">
     <polygon points="0,0 16,0 16,16 0,16"/>
    </object>
   </objectgroup>
   <animation>
    <frame tileid="11" duration="70"/>
    <frame tileid="11" duration="70"/>
    <frame tileid="11" duration="70"/>
    <frame tileid="11" duration="70"/>
    <frame tileid="11" duration="70"/>
    <frame tileid="11" duration="70"/>
    <frame tileid="11" duration="70"/>
    <frame tileid="11" duration="70"/>
    <frame tileid="11" duration="70"/>
    <frame tileid="11" duration="70"/>
    <frame tileid="1" duration="70"/>
    <frame tileid="11" duration="70"/>
   </animation>
  </tile>
  <tile id="2">
   <objectgroup draworder="index" id="2">
    <object id="1" x="0" y="0">
     <polygon points="0,0 16,0 16,16 0,16"/>
    </object>
   </objectgroup>
   <animation>
    <frame tileid="12" duration="70"/>
    <frame tileid="12" duration="70"/>
    <frame tileid="12" duration="70"/>
    <frame tileid="12" duration="70"/>
    <frame tileid="12" duration="70"/>
    <frame tileid="12" duration="70"/>
    <frame tileid="12" duration="70"/>
    <frame tileid="12" duration="70"/>
    <frame tileid="12" duration="70"/>
    <frame tileid="12" duration="70"/>
    <frame tileid="2" duration="70"/>
    <frame tileid="12" duration="70"/>
   </animation>
  </tile>
  <tile id="3">
   <objectgroup draworder="index" id="2">
    <object id="1" x="0" y="0">
     <polygon points="0,0 16,0 16,16 0,16"/>
    </object>
   </objectgroup>
   <animation>
    <frame tileid="13" duration="70"/>
    <frame tileid="13" duration="70"/>
    <frame tileid="13" duration="70"/>
    <frame tileid="13" duration="70"/>
    <frame tileid="13" duration="70"/>
    <frame tileid="13" duration="70"/>
    <frame tileid="13" duration="70"/>
    <frame tileid="13" duration="70"/>
    <frame tileid="13" duration="70"/>
    <frame tileid="13" duration="70"/>
    <frame tileid="3" duration="70"/>
    <frame tileid="13" duration="70"/>
   </animation>
  </tile>
  <tile id="4">
   <objectgroup draworder="index" id="2">
    <object id="1" x="0" y="0">
     <polygon points="0,0 16,0 16,16 0,16"/>
    </object>
   </objectgroup>
   <animation>
    <frame tileid="14" duration="70"/>
    <frame tileid="14" duration="70"/>
    <frame tileid="14" duration="70"/>
    <frame tileid="14" duration="70"/>
    <frame tileid="14" duration="70"/>
    <frame tileid="14" duration="70"/>
    <frame tileid="14" duration="70"/>
    <frame tileid="14" duration="70"/>
    <frame tileid="14" duration="70"/>
    <frame tileid="14" duration="70"/>
    <frame tileid="4" duration="70"/>
    <frame tileid="14" duration="70"/>
   </animation>
  </tile>
  <tile id="5">
   <objectgroup draworder="index" id="2">
    <object id="1" x="0" y="0">
     <polygon points="0,0 16,0 16,16 0,16"/>
    </object>
   </objectgroup>
  </tile>
  <tile id="6">
   <objectgroup draworder="index" id="2">
    <object id="1" x="0" y="0">
     <polygon points="0,0 16,0 16,16 0,16"/>
    </object>
   </objectgroup>
  </tile>
  <tile id="7">
   <objectgroup draworder="index" id="2">
    <object id="1" x="0" y="0">
     <polygon points="0,0 16,0 16,16 0,16"/>
    </object>
   </objectgroup>
  </tile>
  <tile id="8">
   <objectgroup draworder="index" id="2">
    <object id="1" x="0" y="0">
     <polygon points="0,0 16,0 16,16 0,16"/>
    </object>
   </objectgroup>
  </tile>
  <tile id="9">
   <objectgroup draworder="index" id="2">
    <object id="1" x="0" y="0">
     <polygon points="0,0 16,0 16,16 0,16"/>
    </object>
   </objectgroup>
  </tile>
  <tile id="10">
   <objectgroup draworder="index" id="2">
    <object id="1" x="0" y="0">
     <polygon points="0,0 16,0 16,16 0,16"/>
    </object>
   </objectgroup>
  </tile>
  <tile id="15">
   <objectgroup draworder="index" id="2">
    <object id="1" x="0" y="0">
     <polygon points="0,0 16,0 16,16 0,16"/>
    </object>
   </objectgroup>
  </tile>
  <tile id="16">
   <objectgroup draworder="index" id="2">
    <object id="1" x="0" y="0">
     <polygon points="0,0 16,0 16,16 0,16"/>
    </object>
   </objectgroup>
   <animation>
    <frame tileid="26" duration="70"/>
    <frame tileid="26" duration="70"/>
    <frame tileid="26" duration="70"/>
    <frame tileid="26" duration="70"/>
    <frame tileid="26" duration="70"/>
    <frame tileid="26" duration="70"/>
    <frame tileid="26" duration="70"/>
    <frame tileid="26" duration="70"/>
    <frame tileid="26" duration="70"/>
    <frame tileid="26" duration="70"/>
    <frame tileid="16" duration="70"/>
    <frame tileid="26" duration="70"/>
   </animation>
  </tile>
  <tile id="17">
   <objectgroup draworder="index" id="2">
    <object id="1" x="0" y="0">
     <polygon points="0,0 16,0 16,16 0,16"/>
    </object>
   </objectgroup>
  </tile>
  <tile id="18">
   <objectgroup draworder="index" id="2">
    <object id="1" x="0" y="0">
     <polygon points="0,0 16,0 16,16 0,16"/>
    </object>
   </objectgroup>
   <animation>
    <frame tileid="27" duration="70"/>
    <frame tileid="27" duration="70"/>
    <frame tileid="27" duration="70"/>
    <frame tileid="27" duration="70"/>
    <frame tileid="27" duration="70"/>
    <frame tileid="27" duration="70"/>
    <frame tileid="27" duration="70"/>
    <frame tileid="27" duration="70"/>
    <frame tileid="27" duration="70"/>
    <frame tileid="27" duration="70"/>
    <frame tileid="18" duration="70"/>
    <frame tileid="27" duration="70"/>
   </animation>
  </tile>
  <tile id="19">
   <objectgroup draworder="index" id="2">
    <object id="1" x="0" y="0">
     <polygon points="0,0 16,0 16,16 0,16"/>
    </object>
   </objectgroup>
   <animation>
    <frame tileid="28" duration="70"/>
    <frame tileid="28" duration="70"/>
    <frame tileid="28" duration="70"/>
    <frame tileid="28" duration="70"/>
    <frame tileid="28" duration="70"/>
    <frame tileid="28" duration="70"/>
    <frame tileid="28" duration="70"/>
    <frame tileid="28" duration="70"/>
    <frame tileid="28" duration="70"/>
    <frame tileid="28" duration="70"/>
    <frame tileid="19" duration="70"/>
    <frame tileid="28" duration="70"/>
   </animation>
  </tile>
  <tile id="20">
   <objectgroup draworder="index" id="2">
    <object id="1" x="0" y="0">
     <polygon points="0,0 16,0 16,16 0,16"/>
    </object>
   </objectgroup>
   <animation>
    <frame tileid="29" duration="70"/>
    <frame tileid="29" duration="70"/>
    <frame tileid="29" duration="70"/>
    <frame tileid="29" duration="70"/>
    <frame tileid="29" duration="70"/>
    <frame tileid="29" duration="70"/>
    <frame tileid="29" duration="70"/>
    <frame tileid="29" duration="70"/>
    <frame tileid="29" duration="70"/>
    <frame tileid="29" duration="70"/>
    <frame tileid="20" duration="70"/>
    <frame tileid="29" duration="70"/>
   </animation>
  </tile>
  <tile id="21">
   <objectgroup draworder="index" id="2">
    <object id="1" x="0" y="0">
     <polygon points="0,0 16,0 16,16 0,16"/>
    </object>
   </objectgroup>
   <animation>
    <frame tileid="30" duration="70"/>
    <frame tileid="30" duration="70"/>
    <frame tileid="30" duration="70"/>
    <frame tileid="30" duration="70"/>
    <frame tileid="30" duration="70"/>
    <frame tileid="30" duration="70"/>
    <frame tileid="30" duration="70"/>
    <frame tileid="30" duration="70"/>
    <frame tileid="30" duration="70"/>
    <frame tileid="30" duration="70"/>
    <frame tileid="21" duration="70"/>
    <frame tileid="30" duration="70"/>
   </animation>
  </tile>
  <tile id="22">
   <objectgroup draworder="index" id="2">
    <object id="1" x="0" y="0">
     <polygon points="0,0 16,0 16,16 0,16"/>
    </object>
   </objectgroup>
  </tile>
  <tile id="23">
   <objectgroup draworder="index" id="2">
    <object id="1" x="0" y="0">
     <polygon points="0,0 16,0 16,16 0,16"/>
    </object>
   </objectgroup>
  </tile>
  <tile id="24">
   <objectgroup draworder="index" id="2">
    <object id="1" x="0" y="0">
     <polygon points="0,0 16,0 16,16 0,16"/>
    </object>
   </objectgroup>
   <animation>
    <frame tileid="31" duration="70"/>
    <frame tileid="31" duration="70"/>
    <frame tileid="31" duration="70"/>
    <frame tileid="31" duration="70"/>
    <frame tileid="31" duration="70"/>
    <frame tileid="31" duration="70"/>
    <frame tileid="31" duration="70"/>
    <frame tileid="31" duration="70"/>
    <frame tileid="31" duration="70"/>
    <frame tileid="31" duration="70"/>
    <frame tileid="24" duration="70"/>
    <frame tileid="31" duration="70"/>
   </animation>
  </tile>
  <tile id="25">
   <objectgroup draworder="index" id="2">
    <object id="1" x="0" y="0">
     <polygon points="0,0 16,0 16,16 0,16"/>
    </object>
   </objectgroup>
   <animation>
    <frame tileid="32" duration="70"/>
    <frame tileid="32" duration="70"/>
    <frame tileid="32" duration="70"/>
    <frame tileid="32" duration="70"/>
    <frame tileid="32" duration="70"/>
    <frame tileid="32" duration="70"/>
    <frame tileid="32" duration="70"/>
    <frame tileid="32" duration="70"/>
    <frame tileid="32" duration="70"/>
    <frame tileid="32" duration="70"/>
    <frame tileid="25" duration="70"/>
    <frame tileid="32" duration="70"/>
   </animation>
  </tile>
  <tile id="33">
   <animation>
    <frame tileid="44" duration="70"/>
    <frame tileid="44" duration="70"/>
    <frame tileid="44" duration="70"/>
    <frame tileid="44" duration="70"/>
    <frame tileid="44" duration="70"/>
    <frame tileid="44" duration="70"/>
    <frame tileid="44" duration="70"/>
    <frame tileid="44" duration="70"/>
    <frame tileid="44" duration="70"/>
    <frame tileid="44" duration="70"/>
    <frame tileid="33" duration="70"/>
    <frame tileid="44" duration="70"/>
   </animation>
  </tile>
  <tile id="34">
   <objectgroup draworder="index" id="2">
    <object id="1" x="0" y="0">
     <polygon points="0,0 16,0 16,16 0,16"/>
    </object>
   </objectgroup>
  </tile>
  <tile id="35">
   <objectgroup draworder="index" id="2">
    <object id="1" x="0" y="0">
     <polygon points="0,0 16,0 16,16 0,16"/>
    </object>
   </objectgroup>
  </tile>
  <tile id="36">
   <objectgroup draworder="index" id="2">
    <object id="1" x="0" y="0">
     <polygon points="0,0 16,0 16,16 0,16"/>
    </object>
   </objectgroup>
  </tile>
  <tile id="37">
   <objectgroup draworder="index" id="2">
    <object id="1" x="0" y="0">
     <polygon points="0,0 16,0 16,16 0,16"/>
    </object>
   </objectgroup>
  </tile>
  <tile id="38">
   <animation>
    <frame tileid="45" duration="70"/>
    <frame tileid="45" duration="70"/>
    <frame tileid="45" duration="70"/>
    <frame tileid="147" duration="70"/>
    <frame tileid="147" duration="70"/>
    <frame tileid="147" duration="70"/>
    <frame tileid="150" duration="70"/>
    <frame tileid="150" duration="70"/>
    <frame tileid="150" duration="70"/>
    <frame tileid="150" duration="70"/>
    <frame tileid="38" duration="70"/>
    <frame tileid="150" duration="70"/>
   </animation>
  </tile>
  <tile id="39">
   <animation>
    <frame tileid="46" duration="70"/>
    <frame tileid="46" duration="70"/>
    <frame tileid="46" duration="70"/>
    <frame tileid="148" duration="70"/>
    <frame tileid="148" duration="70"/>
    <frame tileid="148" duration="70"/>
    <frame tileid="151" duration="70"/>
    <frame tileid="151" duration="70"/>
    <frame tileid="151" duration="70"/>
    <frame tileid="151" duration="70"/>
    <frame tileid="39" duration="70"/>
    <frame tileid="151" duration="70"/>
   </animation>
  </tile>
  <tile id="40">
   <objectgroup draworder="index" id="2">
    <object id="1" x="0" y="0">
     <polygon points="0,0 16,0 16,16 0,16"/>
    </object>
   </objectgroup>
   <animation>
    <frame tileid="47" duration="70"/>
    <frame tileid="47" duration="70"/>
    <frame tileid="47" duration="70"/>
    <frame tileid="47" duration="70"/>
    <frame tileid="47" duration="70"/>
    <frame tileid="47" duration="70"/>
    <frame tileid="47" duration="70"/>
    <frame tileid="47" duration="70"/>
    <frame tileid="47" duration="70"/>
    <frame tileid="47" duration="70"/>
    <frame tileid="40" duration="70"/>
    <frame tileid="47" duration="70"/>
   </animation>
  </tile>
  <tile id="41">
   <objectgroup draworder="index" id="2">
    <object id="1" x="0" y="0">
     <polygon points="0,0 16,0 16,16 0,16"/>
    </object>
   </objectgroup>
   <animation>
    <frame tileid="48" duration="70"/>
    <frame tileid="48" duration="70"/>
    <frame tileid="48" duration="70"/>
    <frame tileid="48" duration="70"/>
    <frame tileid="48" duration="70"/>
    <frame tileid="48" duration="70"/>
    <frame tileid="48" duration="70"/>
    <frame tileid="48" duration="70"/>
    <frame tileid="48" duration="70"/>
    <frame tileid="48" duration="70"/>
    <frame tileid="41" duration="70"/>
    <frame tileid="48" duration="70"/>
   </animation>
  </tile>
  <tile id="42">
   <objectgroup draworder="index" id="2">
    <object id="1" x="0" y="0">
     <polygon points="0,0 16,0 16,16 0,16"/>
    </object>
   </objectgroup>
   <animation>
    <frame tileid="49" duration="70"/>
    <frame tileid="49" duration="70"/>
    <frame tileid="49" duration="70"/>
    <frame tileid="49" duration="70"/>
    <frame tileid="49" duration="70"/>
    <frame tileid="49" duration="70"/>
    <frame tileid="49" duration="70"/>
    <frame tileid="49" duration="70"/>
    <frame tileid="49" duration="70"/>
    <frame tileid="49" duration="70"/>
    <frame tileid="42" duration="70"/>
    <frame tileid="49" duration="70"/>
   </animation>
  </tile>
  <tile id="43">
   <animation>
    <frame tileid="50" duration="70"/>
    <frame tileid="50" duration="70"/>
    <frame tileid="50" duration="70"/>
    <frame tileid="149" duration="70"/>
    <frame tileid="149" duration="70"/>
    <frame tileid="149" duration="70"/>
    <frame tileid="152" duration="70"/>
    <frame tileid="152" duration="70"/>
    <frame tileid="152" duration="70"/>
    <frame tileid="152" duration="70"/>
    <frame tileid="43" duration="70"/>
    <frame tileid="152" duration="70"/>
   </animation>
  </tile>
  <tile id="51">
   <objectgroup draworder="index" id="2">
    <object id="1" x="0" y="0">
     <polygon points="0,0 16,0 16,16 0,16"/>
    </object>
   </objectgroup>
   <animation>
    <frame tileid="60" duration="70"/>
    <frame tileid="60" duration="70"/>
    <frame tileid="60" duration="70"/>
    <frame tileid="60" duration="70"/>
    <frame tileid="60" duration="70"/>
    <frame tileid="60" duration="70"/>
    <frame tileid="60" duration="70"/>
    <frame tileid="60" duration="70"/>
    <frame tileid="60" duration="70"/>
    <frame tileid="60" duration="70"/>
    <frame tileid="51" duration="70"/>
    <frame tileid="60" duration="70"/>
   </animation>
  </tile>
  <tile id="52">
   <objectgroup draworder="index" id="2">
    <object id="1" x="0" y="0">
     <polygon points="0,0 16,0 16,16 0,16"/>
    </object>
   </objectgroup>
  </tile>
  <tile id="54">
   <animation>
    <frame tileid="61" duration="70"/>
    <frame tileid="61" duration="70"/>
    <frame tileid="61" duration="70"/>
    <frame tileid="153" duration="70"/>
    <frame tileid="153" duration="70"/>
    <frame tileid="153" duration="70"/>
    <frame tileid="155" duration="70"/>
    <frame tileid="155" duration="70"/>
    <frame tileid="155" duration="70"/>
    <frame tileid="155" duration="70"/>
    <frame tileid="54" duration="70"/>
    <frame tileid="155" duration="70"/>
   </animation>
  </tile>
  <tile id="55">
   <animation>
    <frame tileid="62" duration="70"/>
    <frame tileid="62" duration="70"/>
    <frame tileid="62" duration="70"/>
    <frame tileid="154" duration="70"/>
    <frame tileid="154" duration="70"/>
    <frame tileid="154" duration="70"/>
    <frame tileid="156" duration="70"/>
    <frame tileid="156" duration="70"/>
    <frame tileid="156" duration="70"/>
    <frame tileid="156" duration="70"/>
    <frame tileid="55" duration="70"/>
    <frame tileid="156" duration="70"/>
   </animation>
  </tile>
  <tile id="56">
   <objectgroup draworder="index" id="2">
    <object id="1" x="0" y="0">
     <polygon points="0,0 16,0 16,16 0,16"/>
    </object>
   </objectgroup>
   <animation>
    <frame tileid="63" duration="70"/>
    <frame tileid="63" duration="70"/>
    <frame tileid="63" duration="70"/>
    <frame tileid="63" duration="70"/>
    <frame tileid="63" duration="70"/>
    <frame tileid="63" duration="70"/>
    <frame tileid="63" duration="70"/>
    <frame tileid="63" duration="70"/>
    <frame tileid="63" duration="70"/>
    <frame tileid="63" duration="70"/>
    <frame tileid="56" duration="70"/>
    <frame tileid="63" duration="70"/>
   </animation>
  </tile>
  <tile id="64">
   <animation>
    <frame tileid="75" duration="70"/>
    <frame tileid="75" duration="70"/>
    <frame tileid="75" duration="70"/>
    <frame tileid="157" duration="70"/>
    <frame tileid="157" duration="70"/>
    <frame tileid="157" duration="70"/>
    <frame tileid="158" duration="70"/>
    <frame tileid="158" duration="70"/>
    <frame tileid="158" duration="70"/>
    <frame tileid="158" duration="70"/>
    <frame tileid="64" duration="70"/>
    <frame tileid="158" duration="70"/>
   </animation>
  </tile>
  <tile id="66">
   <objectgroup draworder="index" id="2">
    <object id="1" x="0" y="0">
     <polygon points="0,0 16,0 16,16 0,16"/>
    </object>
   </objectgroup>
  </tile>
  <tile id="67">
   <objectgroup draworder="index" id="2">
    <object id="1" x="0" y="0">
     <polygon points="0,0 16,0 16,16 0,16"/>
    </object>
   </objectgroup>
  </tile>
  <tile id="68">
   <objectgroup draworder="index" id="2">
    <object id="1" x="0" y="0">
     <polygon points="0,0 16,0 16,16 0,16"/>
    </object>
   </objectgroup>
  </tile>
  <tile id="69">
   <objectgroup draworder="index" id="2">
    <object id="1" x="0" y="0">
     <properties>
      <property name="type" type="int" value="4"/>
     </properties>
     <polygon points="0,0 16,0 16,16 0,16"/>
    </object>
   </objectgroup>
  </tile>
  <tile id="71">
   <objectgroup draworder="index" id="2">
    <object id="1" x="0" y="0">
     <polygon points="0,0 16,0 16,16 0,16"/>
    </object>
   </objectgroup>
   <animation>
    <frame tileid="76" duration="70"/>
    <frame tileid="76" duration="70"/>
    <frame tileid="76" duration="70"/>
    <frame tileid="76" duration="70"/>
    <frame tileid="76" duration="70"/>
    <frame tileid="76" duration="70"/>
    <frame tileid="76" duration="70"/>
    <frame tileid="76" duration="70"/>
    <frame tileid="76" duration="70"/>
    <frame tileid="76" duration="70"/>
    <frame tileid="71" duration="70"/>
    <frame tileid="76" duration="70"/>
   </animation>
  </tile>
  <tile id="72">
   <objectgroup draworder="index" id="2">
    <object id="1" x="0" y="0">
     <polygon points="0,0 16,0 16,16 0,16"/>
    </object>
   </objectgroup>
   <animation>
    <frame tileid="77" duration="70"/>
    <frame tileid="77" duration="70"/>
    <frame tileid="77" duration="70"/>
    <frame tileid="77" duration="70"/>
    <frame tileid="77" duration="70"/>
    <frame tileid="77" duration="70"/>
    <frame tileid="77" duration="70"/>
    <frame tileid="77" duration="70"/>
    <frame tileid="77" duration="70"/>
    <frame tileid="77" duration="70"/>
    <frame tileid="72" duration="70"/>
    <frame tileid="77" duration="70"/>
   </animation>
  </tile>
  <tile id="73">
   <objectgroup draworder="index" id="2">
    <object id="1" x="0" y="0">
     <polygon points="0,0 16,0 16,16 0,16"/>
    </object>
   </objectgroup>
  </tile>
  <tile id="74">
   <objectgroup draworder="index" id="2">
    <object id="1" x="0" y="0">
     <polygon points="0,0 16,0 16,16 0,16"/>
    </object>
   </objectgroup>
  </tile>
  <tile id="78">
   <objectgroup draworder="index" id="2">
    <object id="1" x="0" y="0">
     <polygon points="0,0 16,0 16,16 0,16"/>
    </object>
   </objectgroup>
  </tile>
  <tile id="79">
   <objectgroup draworder="index" id="2">
    <object id="1" x="0" y="0">
     <polygon points="0,0 16,0 16,16 0,16"/>
    </object>
   </objectgroup>
  </tile>
  <tile id="80">
   <animation>
    <frame tileid="88" duration="70"/>
    <frame tileid="88" duration="70"/>
    <frame tileid="88" duration="70"/>
    <frame tileid="159" duration="70"/>
    <frame tileid="159" duration="70"/>
    <frame tileid="159" duration="70"/>
    <frame tileid="162" duration="70"/>
    <frame tileid="162" duration="70"/>
    <frame tileid="162" duration="70"/>
    <frame tileid="162" duration="70"/>
    <frame tileid="80" duration="70"/>
    <frame tileid="162" duration="70"/>
   </animation>
  </tile>
  <tile id="81">
   <animation>
    <frame tileid="89" duration="70"/>
    <frame tileid="89" duration="70"/>
    <frame tileid="89" duration="70"/>
    <frame tileid="160" duration="70"/>
    <frame tileid="160" duration="70"/>
    <frame tileid="160" duration="70"/>
    <frame tileid="163" duration="70"/>
    <frame tileid="163" duration="70"/>
    <frame tileid="163" duration="70"/>
    <frame tileid="163" duration="70"/>
    <frame tileid="81" duration="70"/>
    <frame tileid="163" duration="70"/>
   </animation>
  </tile>
  <tile id="82">
   <animation>
    <frame tileid="90" duration="70"/>
    <frame tileid="90" duration="70"/>
    <frame tileid="90" duration="70"/>
    <frame tileid="161" duration="70"/>
    <frame tileid="161" duration="70"/>
    <frame tileid="161" duration="70"/>
    <frame tileid="164" duration="70"/>
    <frame tileid="164" duration="70"/>
    <frame tileid="164" duration="70"/>
    <frame tileid="164" duration="70"/>
    <frame tileid="82" duration="70"/>
    <frame tileid="164" duration="70"/>
   </animation>
  </tile>
  <tile id="83">
   <objectgroup draworder="index" id="2">
    <object id="1" x="0" y="0">
     <polygon points="0,0 16,0 16,16 0,16"/>
    </object>
   </objectgroup>
  </tile>
  <tile id="84">
   <objectgroup draworder="index" id="2">
    <object id="1" x="0" y="0">
     <polygon points="0,0 16,0 16,16 0,16"/>
    </object>
   </objectgroup>
  </tile>
  <tile id="85">
   <objectgroup draworder="index" id="2">
    <object id="1" x="0" y="0">
     <polygon points="0,0 16,0 16,16 0,16"/>
    </object>
   </objectgroup>
  </tile>
  <tile id="86">
   <objectgroup draworder="index" id="2">
    <object id="1" x="0" y="0">
     <polygon points="0,0 16,0 16,16 0,16"/>
    </object>
   </objectgroup>
  </tile>
  <tile id="87">
   <objectgroup draworder="index" id="2">
    <object id="1" x="0" y="0">
     <polygon points="0,0 16,0 16,16 0,16"/>
    </object>
   </objectgroup>
  </tile>
  <tile id="92">
   <objectgroup draworder="index" id="2">
    <object id="1" x="0" y="0">
     <polygon points="0,0 16,0 16,16 0,16"/>
    </object>
   </objectgroup>
   <animation>
    <frame tileid="102" duration="70"/>
    <frame tileid="102" duration="70"/>
    <frame tileid="102" duration="70"/>
    <frame tileid="102" duration="70"/>
    <frame tileid="102" duration="70"/>
    <frame tileid="102" duration="70"/>
    <frame tileid="102" duration="70"/>
    <frame tileid="102" duration="70"/>
    <frame tileid="102" duration="70"/>
    <frame tileid="102" duration="70"/>
    <frame tileid="92" duration="70"/>
    <frame tileid="102" duration="70"/>
   </animation>
  </tile>
  <tile id="94">
   <animation>
    <frame tileid="103" duration="70"/>
    <frame tileid="103" duration="70"/>
    <frame tileid="103" duration="70"/>
    <frame tileid="165" duration="70"/>
    <frame tileid="165" duration="70"/>
    <frame tileid="165" duration="70"/>
    <frame tileid="166" duration="70"/>
    <frame tileid="166" duration="70"/>
    <frame tileid="166" duration="70"/>
    <frame tileid="166" duration="70"/>
    <frame tileid="94" duration="70"/>
    <frame tileid="166" duration="70"/>
   </animation>
  </tile>
  <tile id="95">
   <objectgroup draworder="index" id="2">
    <object id="1" x="0" y="0">
     <polygon points="0,0 16,0 16,16 0,16"/>
    </object>
   </objectgroup>
  </tile>
  <tile id="96">
   <animation>
    <frame tileid="104" duration="70"/>
    <frame tileid="104" duration="70"/>
    <frame tileid="104" duration="70"/>
    <frame tileid="104" duration="70"/>
    <frame tileid="104" duration="70"/>
    <frame tileid="104" duration="70"/>
    <frame tileid="104" duration="70"/>
    <frame tileid="104" duration="70"/>
    <frame tileid="104" duration="70"/>
    <frame tileid="104" duration="70"/>
    <frame tileid="96" duration="70"/>
    <frame tileid="104" duration="70"/>
   </animation>
  </tile>
  <tile id="97">
   <objectgroup draworder="index" id="2">
    <object id="1" x="0" y="0">
     <polygon points="0,0 16,0 16,16 0,16"/>
    </object>
   </objectgroup>
  </tile>
  <tile id="98">
   <objectgroup draworder="index" id="2">
    <object id="1" x="0" y="0">
     <polygon points="0,0 16,0 16,16 0,16"/>
    </object>
   </objectgroup>
  </tile>
  <tile id="99">
   <objectgroup draworder="index" id="2">
    <object id="1" x="0" y="0">
     <polygon points="0,0 16,0 16,16 0,16"/>
    </object>
   </objectgroup>
   <animation>
    <frame tileid="105" duration="70"/>
    <frame tileid="105" duration="70"/>
    <frame tileid="105" duration="70"/>
    <frame tileid="105" duration="70"/>
    <frame tileid="105" duration="70"/>
    <frame tileid="105" duration="70"/>
    <frame tileid="105" duration="70"/>
    <frame tileid="105" duration="70"/>
    <frame tileid="105" duration="70"/>
    <frame tileid="105" duration="70"/>
    <frame tileid="99" duration="70"/>
    <frame tileid="105" duration="70"/>
   </animation>
  </tile>
  <tile id="100">
   <objectgroup draworder="index" id="2">
    <object id="1" x="0" y="0">
     <polygon points="0,0 16,0 16,16 0,16"/>
    </object>
   </objectgroup>
   <animation>
    <frame tileid="106" duration="70"/>
    <frame tileid="106" duration="70"/>
    <frame tileid="106" duration="70"/>
    <frame tileid="106" duration="70"/>
    <frame tileid="106" duration="70"/>
    <frame tileid="106" duration="70"/>
    <frame tileid="106" duration="70"/>
    <frame tileid="106" duration="70"/>
    <frame tileid="106" duration="70"/>
    <frame tileid="106" duration="70"/>
    <frame tileid="100" duration="70"/>
    <frame tileid="106" duration="70"/>
   </animation>
  </tile>
  <tile id="101">
   <objectgroup draworder="index" id="2">
    <object id="1" x="0" y="0">
     <polygon points="0,0 16,0 16,16 0,16"/>
    </object>
   </objectgroup>
  </tile>
  <tile id="107">
   <animation>
    <frame tileid="118" duration="70"/>
    <frame tileid="118" duration="70"/>
    <frame tileid="118" duration="70"/>
    <frame tileid="167" duration="70"/>
    <frame tileid="167" duration="70"/>
    <frame tileid="167" duration="70"/>
    <frame tileid="171" duration="70"/>
    <frame tileid="171" duration="70"/>
    <frame tileid="171" duration="70"/>
    <frame tileid="171" duration="70"/>
    <frame tileid="107" duration="70"/>
    <frame tileid="171" duration="70"/>
   </animation>
  </tile>
  <tile id="108">
   <animation>
    <frame tileid="119" duration="70"/>
    <frame tileid="119" duration="70"/>
    <frame tileid="119" duration="70"/>
    <frame tileid="168" duration="70"/>
    <frame tileid="168" duration="70"/>
    <frame tileid="168" duration="70"/>
    <frame tileid="172" duration="70"/>
    <frame tileid="172" duration="70"/>
    <frame tileid="172" duration="70"/>
    <frame tileid="172" duration="70"/>
    <frame tileid="108" duration="70"/>
    <frame tileid="172" duration="70"/>
   </animation>
  </tile>
  <tile id="109">
   <animation>
    <frame tileid="120" duration="70"/>
    <frame tileid="120" duration="70"/>
    <frame tileid="120" duration="70"/>
    <frame tileid="169" duration="70"/>
    <frame tileid="169" duration="70"/>
    <frame tileid="169" duration="70"/>
    <frame tileid="173" duration="70"/>
    <frame tileid="173" duration="70"/>
    <frame tileid="173" duration="70"/>
    <frame tileid="173" duration="70"/>
    <frame tileid="109" duration="70"/>
    <frame tileid="173" duration="70"/>
   </animation>
  </tile>
  <tile id="110">
   <animation>
    <frame tileid="121" duration="70"/>
    <frame tileid="121" duration="70"/>
    <frame tileid="121" duration="70"/>
    <frame tileid="170" duration="70"/>
    <frame tileid="170" duration="70"/>
    <frame tileid="170" duration="70"/>
    <frame tileid="174" duration="70"/>
    <frame tileid="174" duration="70"/>
    <frame tileid="174" duration="70"/>
    <frame tileid="174" duration="70"/>
    <frame tileid="110" duration="70"/>
    <frame tileid="174" duration="70"/>
   </animation>
  </tile>
  <tile id="112">
   <properties>
    <property name="spikes" type="int" value="2"/>
   </properties>
  </tile>
  <tile id="113">
   <objectgroup draworder="index" id="2">
    <object id="1" x="0" y="0">
     <polygon points="0,0 16,0 16,16 0,16"/>
    </object>
   </objectgroup>
   <animation>
    <frame tileid="113" duration="24"/>
    <frame tileid="140" duration="24"/>
    <frame tileid="141" duration="24"/>
    <frame tileid="142" duration="24"/>
    <frame tileid="143" duration="24"/>
    <frame tileid="144" duration="24"/>
    <frame tileid="145" duration="24"/>
    <frame tileid="146" duration="24"/>
   </animation>
  </tile>
  <tile id="114">
   <properties>
    <property name="spikes" type="int" value="3"/>
   </properties>
  </tile>
  <tile id="115">
   <objectgroup draworder="index" id="2">
    <object id="1" x="0" y="0">
     <polygon points="0,0 16,0 16,16 0,16"/>
    </object>
   </objectgroup>
   <animation>
    <frame tileid="122" duration="70"/>
    <frame tileid="122" duration="70"/>
    <frame tileid="122" duration="70"/>
    <frame tileid="122" duration="70"/>
    <frame tileid="122" duration="70"/>
    <frame tileid="122" duration="70"/>
    <frame tileid="122" duration="70"/>
    <frame tileid="122" duration="70"/>
    <frame tileid="122" duration="70"/>
    <frame tileid="122" duration="70"/>
    <frame tileid="115" duration="70"/>
    <frame tileid="122" duration="70"/>
   </animation>
  </tile>
  <tile id="116">
   <objectgroup draworder="index" id="2">
    <object id="1" x="0" y="0">
     <polygon points="0,0 16,0 16,16 0,16"/>
    </object>
   </objectgroup>
   <animation>
    <frame tileid="123" duration="70"/>
    <frame tileid="123" duration="70"/>
    <frame tileid="123" duration="70"/>
    <frame tileid="123" duration="70"/>
    <frame tileid="123" duration="70"/>
    <frame tileid="123" duration="70"/>
    <frame tileid="123" duration="70"/>
    <frame tileid="123" duration="70"/>
    <frame tileid="123" duration="70"/>
    <frame tileid="123" duration="70"/>
    <frame tileid="116" duration="70"/>
    <frame tileid="123" duration="70"/>
   </animation>
  </tile>
  <tile id="117">
   <properties>
    <property name="spikes" type="int" value="1"/>
   </properties>
  </tile>
  <tile id="124">
   <objectgroup draworder="index" id="2">
    <object id="1" x="0" y="0">
     <polygon points="0,0 16,0 16,16 0,16"/>
    </object>
   </objectgroup>
  </tile>
  <tile id="126">
   <objectgroup draworder="index" id="2">
    <object id="1" x="0" y="0">
     <polygon points="0,0 16,0 16,16 0,16"/>
    </object>
   </objectgroup>
  </tile>
  <tile id="127">
   <animation>
    <frame tileid="134" duration="70"/>
    <frame tileid="134" duration="70"/>
    <frame tileid="134" duration="70"/>
    <frame tileid="175" duration="70"/>
    <frame tileid="175" duration="70"/>
    <frame tileid="175" duration="70"/>
    <frame tileid="179" duration="70"/>
    <frame tileid="179" duration="70"/>
    <frame tileid="179" duration="70"/>
    <frame tileid="179" duration="70"/>
    <frame tileid="127" duration="70"/>
    <frame tileid="179" duration="70"/>
   </animation>
  </tile>
  <tile id="128">
   <animation>
    <frame tileid="135" duration="70"/>
    <frame tileid="135" duration="70"/>
    <frame tileid="135" duration="70"/>
    <frame tileid="176" duration="70"/>
    <frame tileid="176" duration="70"/>
    <frame tileid="176" duration="70"/>
    <frame tileid="180" duration="70"/>
    <frame tileid="180" duration="70"/>
    <frame tileid="180" duration="70"/>
    <frame tileid="180" duration="70"/>
    <frame tileid="128" duration="70"/>
    <frame tileid="180" duration="70"/>
   </animation>
  </tile>
  <tile id="131">
   <animation>
    <frame tileid="136" duration="70"/>
    <frame tileid="136" duration="70"/>
    <frame tileid="136" duration="70"/>
    <frame tileid="177" duration="70"/>
    <frame tileid="177" duration="70"/>
    <frame tileid="177" duration="70"/>
    <frame tileid="181" duration="70"/>
    <frame tileid="181" duration="70"/>
    <frame tileid="181" duration="70"/>
    <frame tileid="181" duration="70"/>
    <frame tileid="131" duration="70"/>
    <frame tileid="181" duration="70"/>
   </animation>
  </tile>
  <tile id="132">
   <animation>
    <frame tileid="137" duration="70"/>
    <frame tileid="137" duration="70"/>
    <frame tileid="137" duration="70"/>
    <frame tileid="178" duration="70"/>
    <frame tileid="178" duration="70"/>
    <frame tileid="178" duration="70"/>
    <frame tileid="182" duration="70"/>
    <frame tileid="182" duration="70"/>
    <frame tileid="182" duration="70"/>
    <frame tileid="182" duration="70"/>
    <frame tileid="132" duration="70"/>
    <frame tileid="182" duration="70"/>
   </animation>
  </tile>
  <tile id="139">
   <properties>
    <property name="spikes" type="int" value="0"/>
   </properties>
  </tile>
  <tile id="140">
   <objectgroup draworder="index" id="2">
    <object id="1" x="0" y="0">
     <polygon points="0,0 16,0 16,16 0,16"/>
    </object>
   </objectgroup>
   <animation>
    <frame tileid="113" duration="24"/>
    <frame tileid="146" duration="24"/>
    <frame tileid="145" duration="24"/>
    <frame tileid="144" duration="24"/>
    <frame tileid="143" duration="24"/>
    <frame tileid="142" duration="24"/>
    <frame tileid="141" duration="24"/>
    <frame tileid="140" duration="24"/>
   </animation>
  </tile>
 </tileset>
 <layer id="1" name="layer0" width="124" height="28">
  <properties>
   <property name="collision" type="bool" value="true"/>
  </properties>
  <data encoding="csv">
6,6,6,6,6,6,7,8,6,6,6,6,9,10,6,6,6,6,6,6,6,6,6,9,11,16,17,17,17,17,17,17,17,17,17,17,17,17,17,17,17,17,17,17,17,17,17,17,17,17,17,17,17,17,17,17,17,17,17,17,17,17,17,18,19,20,20,20,21,22,17,17,17,17,17,17,17,17,17,17,18,22,17,17,17,17,18,22,17,17,17,17,17,17,17,17,17,17,17,17,17,17,17,17,17,17,17,17,17,17,17,17,23,2,3,24,25,26,34,34,34,34,34,34,
17,17,17,17,17,17,17,17,17,17,17,17,17,17,17,17,17,17,17,17,17,17,17,17,17,35,36,36,37,38,1,39,40,1,1,39,40,1,1,39,40,1,1,39,40,1,1,39,40,1,1,39,40,1,1,39,40,1,1,39,40,1,1,25,41,34,34,34,42,43,44,1,44,1,44,1,44,1,44,1,25,43,2,3,2,3,25,43,1,1,1,1,1,1,1,1,1,1,1,1,1,1,1,1,1,1,1,52,17,17,18,53,23,4,5,24,25,41,34,34,34,34,34,34,
1,1,1,1,1,1,1,1,1,1,1,1,1,1,1,1,1,1,1,1,1,1,1,1,1,1,1,1,54,1,1,55,56,1,1,55,56,1,1,55,56,1,1,55,56,1,1,55,56,1,1,55,56,1,1,55,56,1,1,55,56,1,1,25,26,34,34,34,57,43,1,58,59,59,59,59,59,59,60,1,11,53,4,5,4,5,11,53,1,1,1,1,1,65,1,65,1,65,1,65,1,65,1,1,1,1,1,1,1,1,11,10,6,6,6,6,7,8,6,6,6,6,6,6,
1,39,40,1,39,40,1,39,40,1,39,40,1,39,40,1,39,40,1,39,40,1,39,40,1,1,1,1,54,1,1,1,1,1,1,1,1,1,1,1,1,1,1,1,1,1,1,1,1,1,1,1,1,1,1,1,1,1,1,1,1,1,1,25,41,34,34,34,42,43,1,66,1,67,68,68,69,1,54,1,52,17,17,17,17,17,17,35,1,1,67,68,68,68,68,68,68,68,68,69,67,69,70,70,70,67,68,68,69,1,52,17,17,17,17,17,18,19,20,20,20,20,20,20,
1,55,56,1,55,56,1,55,56,1,55,56,1,55,56,1,55,56,1,55,56,1,55,56,1,1,1,1,71,60,1,1,1,1,1,1,1,1,1,1,1,1,1,1,1,1,1,1,1,1,1,1,1,1,1,1,1,1,1,1,1,1,1,25,26,34,34,34,57,43,1,66,1,72,2,3,72,1,54,1,1,1,1,39,40,1,1,1,1,1,72,72,1,1,1,1,1,1,1,73,36,36,1,1,1,36,36,1,1,1,1,1,1,1,1,1,25,26,34,34,34,34,34,34,
1,1,1,1,1,1,1,1,1,1,1,1,1,1,1,1,1,1,1,1,1,1,1,1,1,1,1,1,1,54,1,74,75,1,1,74,75,1,1,74,75,1,1,74,75,1,1,74,75,1,1,74,75,1,1,1,1,1,1,74,75,1,1,25,41,34,34,34,42,43,1,66,1,72,79,80,72,1,54,1,1,1,1,81,82,1,1,1,1,1,72,72,1,1,1,1,1,1,1,72,1,1,1,1,1,1,1,1,1,1,1,1,39,83,40,1,25,41,34,34,34,34,34,34,
86,84,84,85,86,84,84,84,85,87,84,84,84,84,84,88,87,84,38,1,1,1,1,1,37,38,37,38,37,38,37,38,37,84,84,38,67,68,68,69,37,84,84,88,86,84,84,38,67,68,68,68,69,74,75,1,1,67,68,68,68,68,69,11,8,6,6,6,9,53,1,66,1,72,4,5,72,1,54,1,1,1,1,55,56,1,1,1,1,1,72,72,37,38,92,60,73,1,1,93,1,58,59,59,59,59,59,94,37,38,1,1,55,95,56,1,25,26,34,34,34,34,34,34,
19,20,20,21,19,20,20,20,21,96,97,2,3,2,3,98,96,25,43,1,1,1,1,1,25,43,96,99,99,99,98,25,43,99,99,99,99,99,99,99,99,99,99,99,99,99,99,99,99,99,99,99,99,25,43,1,1,52,17,17,17,17,17,17,17,17,17,17,17,35,1,66,1,72,99,99,72,1,71,94,67,68,69,1,1,67,68,68,68,68,68,69,1,1,1,66,72,1,1,1,1,66,1,1,1,1,1,1,1,1,1,1,1,1,1,1,25,41,34,34,34,34,34,34,
26,34,34,57,26,34,34,34,57,100,99,4,5,4,5,101,100,25,43,1,1,1,1,1,25,43,100,102,102,102,101,25,43,17,17,17,17,17,17,17,17,17,17,17,17,17,17,17,17,17,17,17,17,25,43,1,1,1,1,1,1,1,1,1,1,1,1,1,1,1,1,66,1,52,17,17,35,70,70,70,72,99,72,1,1,72,97,72,1,1,1,1,1,1,1,66,72,1,1,1,1,66,1,1,1,1,1,1,1,1,1,1,1,1,1,1,25,26,34,34,34,34,34,34,
8,6,6,9,8,6,6,6,9,53,6,6,6,6,6,7,10,52,35,1,39,83,40,1,25,43,10,6,6,6,7,25,43,108,108,109,109,108,108,109,109,108,108,109,109,108,108,109,109,108,108,109,109,25,43,1,1,1,39,40,1,1,1,1,1,1,1,1,1,1,1,66,1,1,1,1,1,1,1,1,72,97,72,1,1,52,17,35,1,1,1,1,1,1,1,66,67,68,68,69,37,38,70,70,70,37,38,74,84,84,75,1,39,83,40,1,11,8,6,6,6,6,6,6,
19,20,20,21,19,20,20,20,21,22,17,17,17,17,17,17,35,36,36,1,55,95,56,1,52,17,17,17,17,17,17,18,43,110,110,111,111,110,110,111,111,110,110,111,111,110,110,111,111,110,110,111,111,25,43,1,1,1,81,82,1,1,1,1,1,1,65,1,1,1,1,66,1,1,1,1,1,1,1,1,72,99,72,1,1,1,1,1,1,1,1,1,1,1,1,71,37,38,59,59,59,59,59,59,59,112,113,23,102,101,43,1,55,95,56,1,52,17,18,19,20,20,20,20,
26,34,34,57,26,34,34,34,57,43,44,1,44,1,44,1,44,1,1,1,1,1,1,1,1,73,44,1,44,1,44,25,43,1,1,1,1,1,1,1,1,1,1,67,69,1,1,1,1,1,1,1,1,25,43,1,1,1,55,56,1,1,1,67,68,68,68,68,69,1,1,67,68,68,68,68,69,1,1,1,72,97,72,1,1,1,1,1,1,1,67,69,70,70,70,70,52,35,1,1,1,1,1,1,1,1,113,23,99,101,43,1,1,1,1,1,1,1,25,41,34,34,34,34,
26,34,34,57,26,34,34,34,57,43,1,1,1,1,1,1,1,1,1,1,1,1,1,1,1,72,1,1,1,1,1,25,43,108,108,109,109,108,108,109,109,108,108,25,43,1,1,1,1,1,1,1,1,25,43,1,1,1,1,1,1,1,1,24,72,2,3,99,67,68,68,69,99,72,52,17,35,1,1,1,67,68,69,70,70,67,68,68,68,68,68,69,1,1,1,1,1,1,1,1,114,114,114,114,114,114,114,23,102,101,43,1,1,1,1,1,1,1,25,26,34,34,34,34,
26,34,34,57,26,34,34,34,57,43,1,1,1,1,1,1,1,1,1,1,39,83,40,1,1,93,1,1,1,1,1,25,43,110,110,111,111,110,110,111,111,110,110,25,43,67,69,73,1,1,73,67,69,25,43,84,84,84,84,84,84,84,84,24,72,4,5,99,97,99,97,99,97,72,23,115,1,1,1,1,1,1,1,1,1,1,1,1,1,1,1,1,1,1,1,65,1,65,1,1,116,96,99,97,99,11,10,10,6,7,53,1,39,83,40,1,1,1,25,41,34,34,34,34,
26,34,34,57,26,34,34,34,57,43,1,1,1,1,1,1,1,1,1,1,55,95,56,58,74,75,74,84,117,1,1,52,35,1,1,1,1,1,1,1,1,1,1,25,43,118,118,72,1,1,72,118,118,25,43,6,6,9,99,2,3,2,3,24,72,17,17,17,17,17,17,17,17,72,23,115,1,65,1,65,1,65,1,65,1,65,1,65,1,65,1,65,1,1,114,114,114,114,114,114,11,10,6,6,6,7,53,99,16,25,43,1,55,95,56,1,73,73,25,26,34,34,34,34,
26,34,34,57,26,34,34,34,57,43,1,1,1,74,84,84,75,37,38,92,59,59,59,112,25,43,99,25,125,108,108,109,109,108,108,109,109,108,108,109,109,108,108,25,43,1,1,93,1,1,93,1,1,25,43,25,43,18,96,79,80,79,80,24,72,2,3,2,3,2,3,2,3,72,74,75,114,114,114,114,114,114,114,114,114,114,114,114,114,114,114,114,114,114,67,68,68,68,68,69,52,17,17,17,17,17,35,2,3,25,43,1,1,1,1,1,72,72,25,41,34,34,34,34,
26,34,34,57,26,34,34,34,57,43,1,1,1,116,96,2,3,98,125,1,39,40,1,73,25,43,99,25,43,110,110,111,111,110,110,111,111,110,110,111,111,110,110,25,43,1,1,1,1,1,1,1,1,25,43,25,43,25,100,4,5,4,5,24,72,79,80,79,80,79,80,79,80,72,2,3,2,3,2,3,2,3,2,3,2,3,2,3,2,3,73,67,68,69,73,1,1,1,1,1,1,1,44,1,25,43,53,4,5,11,53,1,1,1,1,1,72,72,25,26,34,34,34,34,
26,34,34,57,8,6,6,6,9,53,1,1,1,25,100,4,5,101,43,1,55,56,1,93,25,43,99,25,43,1,1,67,69,1,1,1,1,1,1,1,1,1,1,25,43,1,1,1,1,1,1,1,1,25,43,25,43,11,10,6,6,6,6,7,72,4,5,4,5,4,5,4,5,72,4,5,4,5,4,5,4,5,4,5,4,5,4,5,4,5,93,1,126,36,93,1,1,1,1,1,1,1,1,1,11,16,17,17,17,17,35,1,39,83,40,1,52,17,127,41,34,34,34,34,
41,34,34,57,22,17,17,17,17,35,1,1,1,25,100,2,3,101,43,1,1,1,1,1,25,43,99,25,43,108,108,109,109,108,108,128,40,1,1,1,39,129,108,25,43,1,1,1,1,1,1,1,1,52,17,17,17,17,17,17,17,17,17,72,72,68,68,68,68,68,68,68,68,68,68,68,68,68,68,68,68,68,68,68,68,68,68,68,68,68,69,1,67,68,69,1,1,1,1,1,1,1,1,1,25,43,1,126,36,6,72,1,55,95,56,1,1,1,25,26,34,34,34,34,
26,34,34,42,43,130,1,131,1,1,1,1,1,25,100,79,80,101,43,73,1,39,40,1,25,43,99,25,43,110,110,111,111,110,110,132,56,1,1,1,55,133,110,25,43,1,1,1,67,69,1,1,1,1,1,1,1,1,1,1,1,1,1,72,72,6,6,36,126,1,1,1,1,1,1,1,1,1,1,1,1,1,1,1,1,1,1,1,1,1,1,1,1,1,1,1,1,1,1,74,84,75,1,1,52,35,1,67,68,68,69,1,1,1,1,1,1,1,25,41,34,34,34,34,
41,34,34,57,43,134,70,134,1,1,1,1,1,25,100,4,5,10,7,93,1,55,56,1,25,43,99,25,43,1,1,1,1,1,1,1,1,1,73,1,1,1,1,25,43,1,1,1,52,35,1,1,1,1,1,1,1,1,1,1,1,1,1,67,68,68,68,68,68,68,69,1,1,1,1,1,1,1,1,1,1,1,1,1,1,1,1,1,1,1,1,1,1,1,65,1,65,1,65,72,116,125,1,1,1,1,1,1,1,1,1,1,1,1,1,1,1,1,25,26,34,34,34,34,
26,34,34,57,43,139,70,139,1,1,1,1,1,25,100,97,24,73,115,1,1,1,1,1,52,17,17,17,35,70,70,70,70,70,70,70,70,70,70,70,70,70,70,52,35,1,1,1,1,1,1,1,1,1,1,1,1,1,1,1,1,1,1,1,1,1,1,1,1,1,1,1,1,1,1,1,1,1,1,1,65,1,65,1,65,1,1,1,1,1,1,1,1,74,84,84,84,84,84,38,25,43,1,39,40,1,39,40,1,39,40,1,39,83,40,1,73,73,25,41,34,34,34,34,
41,34,34,57,43,130,1,131,65,1,65,1,65,11,10,6,7,72,115,39,129,108,108,109,109,108,108,109,109,108,108,109,109,108,108,109,109,108,108,109,109,128,40,113,73,65,1,65,1,1,65,1,65,1,65,1,65,1,65,1,65,1,65,1,65,1,65,1,65,1,65,1,65,1,65,1,65,1,65,74,84,84,84,84,75,1,65,1,65,1,65,1,65,25,43,2,3,2,3,97,25,43,1,55,56,1,55,56,1,55,56,1,55,95,56,1,72,72,25,41,34,34,34,34,
26,34,34,57,43,67,68,69,74,84,84,84,38,37,88,87,38,93,115,55,133,110,110,111,111,110,110,111,111,110,110,111,111,110,110,111,111,110,110,111,111,132,56,113,93,141,141,141,140,140,114,114,114,37,86,84,84,84,85,86,84,84,84,85,86,84,84,84,84,85,86,38,141,141,141,141,141,141,141,8,6,6,6,6,7,114,114,114,114,114,114,114,114,25,43,4,5,4,5,102,11,53,1,1,1,1,1,1,1,1,1,1,1,1,1,1,72,72,25,26,34,34,34,34,
41,34,34,57,43,1,1,1,116,96,2,3,2,3,98,96,2,37,38,114,114,114,114,114,67,68,68,68,69,141,141,141,141,141,141,141,141,141,141,141,141,141,141,67,69,2,3,2,3,2,3,2,3,98,19,20,20,20,21,19,20,20,20,21,19,20,20,20,20,21,19,20,20,20,20,21,19,20,20,20,20,21,19,20,20,20,20,21,19,20,20,20,20,21,22,17,17,17,17,17,18,125,141,141,141,141,73,114,114,114,114,114,114,114,114,114,72,72,25,41,34,34,34,34,
26,34,34,57,43,1,1,1,25,100,79,80,79,80,101,100,79,80,99,98,19,20,20,20,20,21,19,20,20,20,20,21,19,20,20,20,20,21,19,20,20,20,20,25,43,79,80,79,80,79,80,79,80,101,26,34,34,34,57,26,34,34,34,57,26,34,34,34,34,57,26,34,34,34,34,57,26,34,34,34,34,57,26,34,34,34,34,57,26,34,34,34,34,57,43,34,34,34,34,34,25,43,37,84,84,38,93,37,84,84,84,84,84,84,84,38,72,72,25,26,34,34,34,34,
41,34,34,57,43,1,1,1,25,100,4,5,4,5,101,100,4,5,99,101,26,34,34,34,34,57,26,34,34,34,34,57,26,34,34,34,34,57,26,34,34,34,34,25,43,4,5,4,5,4,5,4,5,101,41,34,34,34,42,41,34,34,34,42,41,34,34,34,34,42,41,34,34,34,34,42,41,34,34,34,34,42,41,34,34,34,34,42,41,34,34,34,34,42,43,34,34,34,34,34,25,43,2,3,2,3,2,3,2,3,2,3,2,3,2,3,72,72,25,26,34,34,34,34,
26,34,34,57,43,1,1,1,25,100,2,3,2,3,101,100,2,3,97,101,26,34,34,34,34,42,41,34,34,34,34,42,41,34,34,34,34,42,41,34,34,34,34,25,43,2,3,2,3,2,3,2,3,101,26,34,34,34,57,26,34,34,34,57,26,34,34,34,34,57,26,34,34,34,34,57,26,34,34,34,34,57,26,34,34,34,34,57,26,34,34,34,34,57,43,34,34,34,34,34,25,43,4,5,4,5,4,5,4,5,4,5,4,5,4,5,72,72,25,41,34,34,34,34
</data>
 </layer>
 <layer id="2" name="layer1" width="124" height="28">
  <properties>
   <property name="priority" type="bool" value="true"/>
  </properties>
  <data encoding="csv">
0,0,0,0,0,0,0,0,0,0,0,0,0,0,0,0,0,0,0,0,0,0,0,0,0,0,0,0,0,0,0,0,0,0,0,0,0,0,0,0,0,0,0,0,0,0,0,0,0,0,0,0,0,0,0,0,0,0,0,0,0,0,0,0,0,0,0,0,0,0,0,0,0,0,0,0,0,0,0,0,0,0,0,0,0,0,0,0,0,0,0,0,0,0,0,0,0,0,0,0,0,0,0,0,0,0,0,0,0,0,0,0,0,0,0,0,0,0,0,0,0,0,0,0,
0,0,0,0,0,0,0,0,0,0,0,0,0,0,0,0,0,0,0,0,0,0,0,0,0,0,0,0,0,0,0,0,0,0,0,0,0,0,0,0,0,0,0,0,0,0,0,0,0,0,0,0,0,0,0,0,0,0,0,0,0,0,0,0,0,0,0,0,0,0,0,0,0,0,0,0,0,0,0,0,0,0,0,0,0,0,0,0,0,0,0,0,0,0,0,0,0,0,0,0,0,0,0,0,0,0,0,0,0,0,0,0,0,0,0,0,0,0,0,0,0,0,0,0,
0,0,0,0,0,0,0,0,0,0,0,0,0,0,0,0,0,0,0,0,0,0,0,0,0,0,0,0,0,0,0,0,0,0,0,0,0,0,0,0,0,0,0,0,0,0,0,0,0,0,0,0,0,0,0,0,0,0,0,0,0,0,0,0,0,0,0,0,0,0,0,0,0,0,0,0,0,0,0,0,0,0,0,0,0,0,0,0,0,0,0,0,0,0,0,0,0,0,0,0,0,0,0,0,0,0,0,0,0,0,0,0,0,0,0,0,0,0,0,0,0,0,0,0,
0,0,0,0,0,0,0,0,0,0,0,0,0,0,0,0,0,0,0,0,0,0,0,0,0,0,0,0,0,0,0,0,0,0,0,0,0,0,0,0,0,0,0,0,0,0,0,0,0,0,0,0,0,0,0,0,0,0,0,0,0,0,0,0,0,0,0,0,0,0,0,0,0,0,0,0,0,0,0,0,0,0,0,0,0,0,0,0,0,0,0,0,0,0,0,0,0,0,0,0,0,0,0,0,0,0,0,0,0,0,0,0,0,0,0,0,0,0,0,0,0,0,0,0,
0,0,0,0,0,0,0,0,0,0,0,0,0,0,0,0,0,0,0,0,0,0,0,0,0,0,0,0,0,0,0,0,0,0,0,0,0,0,0,0,0,0,0,0,0,0,0,0,0,0,0,0,0,0,0,0,0,0,0,0,0,0,0,0,0,0,0,0,0,0,0,0,0,0,0,0,0,0,0,0,0,0,0,0,0,0,0,0,0,0,0,0,0,0,0,0,0,0,0,0,0,0,0,0,0,0,0,0,0,0,0,0,0,0,0,0,0,0,0,0,0,0,0,0,
0,0,0,0,0,0,0,0,0,0,0,0,0,0,0,0,0,0,0,0,0,0,0,0,0,0,0,0,0,0,0,0,0,0,0,0,0,0,0,0,0,0,0,0,0,0,0,0,0,0,0,0,0,0,0,0,0,0,0,0,0,0,0,0,0,0,0,0,0,0,0,0,0,0,0,0,0,0,0,0,0,0,0,0,0,0,0,0,0,0,0,0,0,0,0,0,0,0,0,0,0,0,0,0,0,0,0,0,0,0,0,0,0,0,0,0,0,0,0,0,0,0,0,0,
0,0,0,0,0,0,0,0,0,0,0,0,0,0,0,0,0,0,0,0,0,0,0,0,0,0,0,0,0,0,0,0,0,0,0,0,0,0,0,0,0,0,0,0,0,0,0,0,0,0,0,0,0,0,0,0,0,0,0,0,0,0,0,0,0,0,0,0,0,0,0,0,0,0,0,0,0,0,0,0,0,0,0,0,0,0,0,0,0,0,0,0,0,0,0,0,0,0,0,0,0,0,0,0,0,0,0,0,0,0,0,0,0,0,0,0,0,0,0,0,0,0,0,0,
0,0,0,0,0,0,0,0,0,0,0,0,0,0,0,0,0,0,0,0,0,0,0,0,0,0,0,0,0,0,0,0,0,0,0,0,0,0,0,0,0,0,0,0,0,0,0,0,0,0,0,0,0,0,0,0,0,0,0,0,0,0,0,0,0,0,0,0,0,0,0,0,0,0,0,0,0,0,0,0,0,0,0,0,0,0,0,0,0,0,0,0,0,0,0,0,0,0,0,0,0,0,0,0,0,0,0,0,0,0,0,0,0,0,0,0,0,0,0,0,0,0,0,0,
0,0,0,0,0,0,0,0,0,0,0,0,0,0,0,0,0,0,0,0,0,0,0,0,0,0,0,0,0,0,0,0,0,0,0,0,0,0,0,0,0,0,0,0,0,0,0,0,0,0,0,0,0,0,0,0,0,0,0,0,0,0,0,0,0,0,0,0,0,0,0,0,0,0,0,0,0,0,0,0,0,0,0,0,0,0,0,0,0,0,0,0,0,0,0,0,0,0,0,0,0,0,0,0,0,0,0,0,0,0,0,0,0,0,0,0,0,0,0,0,0,0,0,0,
0,0,0,0,0,0,0,0,0,0,0,0,0,0,0,0,0,0,0,0,0,0,0,0,0,0,0,0,0,0,0,0,0,0,0,0,0,0,0,0,0,0,0,0,0,0,0,0,0,0,0,0,0,0,0,0,0,0,0,0,0,0,0,0,0,0,0,0,0,0,0,0,0,0,0,0,0,0,0,0,0,0,0,0,0,0,0,0,0,0,0,0,0,0,0,0,0,0,0,0,0,0,0,0,0,0,0,0,0,0,0,0,0,0,0,0,0,0,0,0,0,0,0,0,
0,0,0,0,0,0,0,0,0,0,0,0,0,0,0,0,0,0,0,0,0,0,0,0,0,0,0,0,0,0,0,0,0,0,0,0,0,0,0,0,0,0,0,0,0,0,0,0,0,0,0,0,0,0,0,0,0,0,0,0,0,0,0,0,0,0,0,0,0,0,0,0,0,0,0,0,0,0,0,0,0,0,0,0,0,0,0,0,0,0,0,0,0,0,0,0,0,0,0,0,0,0,0,0,0,0,0,0,0,0,0,0,0,0,0,0,0,0,0,0,0,0,0,0,
0,0,0,0,0,0,0,0,0,0,0,0,0,0,0,0,0,0,0,0,0,0,0,0,0,0,0,0,0,0,0,0,0,0,0,0,0,0,0,0,0,0,0,0,0,0,0,0,0,0,0,0,0,0,0,0,0,0,0,0,0,0,0,0,0,0,0,0,0,0,0,0,0,0,0,0,0,0,0,0,0,0,0,0,0,0,0,0,0,0,0,0,0,0,0,0,0,0,0,0,0,0,0,0,0,0,0,0,0,0,0,0,0,0,0,0,0,0,0,0,0,0,0,0,
0,0,0,0,0,0,0,0,0,0,0,0,0,0,0,0,0,0,0,0,0,0,0,0,0,0,0,0,0,0,0,0,0,0,0,0,0,0,0,0,0,0,0,0,0,0,0,0,0,0,0,0,0,0,0,0,0,0,0,0,0,0,0,0,0,0,0,0,0,0,0,0,0,0,0,0,0,0,0,0,0,0,0,0,0,0,0,0,0,0,0,0,0,0,0,0,0,0,0,0,0,0,0,0,0,0,0,0,0,0,0,0,0,0,0,0,0,0,0,0,0,0,0,0,
0,0,0,0,0,0,0,0,0,0,0,0,0,0,0,0,0,0,0,0,0,0,0,0,0,0,0,0,0,0,0,0,0,0,0,0,0,0,0,0,0,0,0,0,0,0,0,0,0,0,0,0,0,0,0,0,0,0,0,0,0,0,0,0,0,0,0,0,0,0,0,0,0,0,0,0,0,0,0,0,0,0,0,0,0,0,0,0,0,0,0,0,0,0,0,0,0,0,0,0,0,0,0,0,0,0,0,0,0,0,0,0,0,0,0,0,0,0,0,0,0,0,0,0,
0,0,0,0,0,0,0,0,0,0,0,0,0,0,0,0,0,0,0,0,0,0,0,0,0,0,0,0,0,0,0,0,0,0,0,0,0,0,0,0,0,0,0,0,0,0,0,0,0,0,0,0,0,0,0,0,0,0,0,0,0,0,0,0,0,0,0,0,0,0,0,0,0,0,0,0,0,0,0,0,0,0,0,0,0,0,0,0,0,0,0,0,0,0,0,0,0,0,0,0,0,0,0,0,0,0,0,0,0,0,0,0,0,0,0,0,0,0,0,0,0,0,0,0,
0,0,0,0,0,0,0,0,0,0,0,0,0,0,0,0,0,0,0,0,0,0,0,0,0,0,0,0,0,0,0,0,0,0,0,0,0,0,0,0,0,0,0,0,0,0,0,0,0,0,0,0,0,0,0,0,0,0,0,0,0,0,0,0,0,0,0,0,0,0,0,0,0,0,0,0,0,0,0,0,0,0,0,0,0,0,0,0,0,0,0,0,0,0,0,0,0,0,0,0,0,0,0,0,0,0,0,0,0,0,0,0,0,0,0,0,0,0,0,0,0,0,0,0,
0,0,0,0,0,0,0,0,0,0,0,0,0,0,0,0,0,0,0,0,0,0,0,0,0,0,0,0,0,0,0,0,0,0,0,0,0,0,0,0,0,0,0,0,0,0,0,0,0,0,0,0,0,0,0,0,0,0,0,0,0,0,0,0,0,0,0,0,0,0,0,0,0,0,0,0,0,0,0,0,0,0,0,0,0,0,0,0,0,0,0,0,0,0,0,0,0,0,0,0,0,0,0,0,0,0,0,0,0,0,0,0,0,0,0,0,0,0,0,0,0,0,0,0,
0,0,0,0,0,0,0,0,0,0,0,0,0,0,0,0,0,0,0,0,0,0,0,0,0,0,0,0,0,0,0,0,0,0,0,0,0,0,0,0,0,0,0,0,0,0,0,0,0,0,0,0,0,0,0,0,0,0,0,0,0,0,0,0,0,0,0,0,0,0,0,0,0,0,0,0,0,0,0,0,0,0,0,0,0,0,0,0,0,0,0,0,126,36,0,0,0,0,0,0,0,0,0,0,0,0,0,0,0,0,0,0,0,0,0,0,0,0,0,0,0,0,0,0,
0,0,0,0,0,0,0,0,0,0,0,0,0,0,0,0,0,0,0,0,0,0,0,0,0,0,0,0,0,0,0,0,0,0,0,0,0,0,0,0,0,0,0,0,0,0,0,0,0,0,0,0,0,0,0,0,0,0,0,0,0,0,0,0,0,0,0,0,0,0,0,0,0,0,0,0,0,0,0,0,0,0,0,0,0,0,0,0,0,0,0,0,0,0,0,0,0,0,0,0,0,0,0,0,0,0,0,126,36,0,0,0,0,0,0,0,0,0,0,0,0,0,0,0,
0,0,0,0,0,0,0,0,0,0,0,0,0,0,0,0,0,0,0,0,0,0,0,0,0,0,0,0,0,0,0,0,0,0,0,0,0,0,0,0,0,0,0,0,0,0,0,0,0,0,0,0,0,0,0,0,0,0,0,0,0,0,0,0,0,0,0,36,126,0,0,0,0,0,0,0,0,0,0,0,0,0,0,0,0,0,0,0,0,0,0,0,0,0,0,0,0,0,0,0,0,0,0,0,0,0,0,0,0,0,0,0,0,0,0,0,0,0,0,0,0,0,0,0,
0,0,0,0,0,0,0,0,0,0,0,0,0,0,0,0,0,0,0,0,0,0,0,0,0,0,0,0,0,0,0,0,0,0,0,0,0,0,0,0,0,0,0,0,0,0,0,0,0,0,0,0,0,0,0,0,0,0,0,0,0,0,0,0,0,0,0,0,0,0,0,0,0,0,0,0,0,0,0,0,0,0,0,0,0,0,0,0,0,0,0,0,0,0,0,0,0,0,0,0,0,0,0,0,0,0,0,0,0,0,0,0,0,0,0,0,0,0,0,0,0,0,0,0,
0,0,0,0,0,0,0,0,0,0,0,0,0,0,0,0,0,0,0,0,0,0,0,0,0,0,0,0,0,0,0,0,0,0,0,0,0,0,0,0,0,0,0,0,0,0,0,0,0,0,0,0,0,0,0,0,0,0,0,0,0,0,0,0,0,0,0,0,0,0,0,0,0,0,0,0,0,0,0,0,0,0,0,0,0,0,0,0,0,0,0,0,0,0,0,0,0,0,0,0,0,0,0,0,0,0,0,0,0,0,0,0,0,0,0,0,0,0,0,0,0,0,0,0,
0,0,0,0,0,0,0,0,0,0,0,0,0,0,0,0,0,0,0,0,0,0,0,0,0,0,0,0,0,0,0,0,0,0,0,0,0,0,0,0,0,0,0,0,0,0,0,0,0,0,0,0,0,0,0,0,0,0,0,0,0,0,0,0,0,0,0,0,0,0,0,0,0,0,0,0,0,0,0,0,0,0,0,0,0,0,0,0,0,0,0,0,0,0,0,0,0,0,0,0,0,0,0,0,0,0,0,0,0,0,0,0,0,0,0,0,0,0,0,0,0,0,0,0,
0,0,0,0,0,0,0,0,0,0,0,0,0,0,0,0,0,0,0,0,0,0,0,0,0,0,0,0,0,0,0,0,0,0,0,0,0,0,0,0,0,0,0,0,0,0,0,0,0,0,0,0,0,0,0,0,0,0,0,0,0,0,0,0,0,0,0,0,0,0,0,0,0,0,0,0,0,0,0,0,0,0,0,0,0,0,0,0,0,0,0,0,0,0,0,0,0,0,0,0,0,0,0,0,0,0,0,0,0,0,0,0,0,0,0,0,0,0,0,0,0,0,0,0,
0,0,0,0,0,0,0,0,0,0,0,0,0,0,0,0,0,0,0,0,0,0,0,0,0,0,0,0,0,0,0,0,0,0,0,0,0,0,0,0,0,0,0,0,0,0,0,0,0,0,0,0,0,0,0,0,0,0,0,0,0,0,0,0,0,0,0,0,0,0,0,0,0,0,0,0,0,0,0,0,0,0,0,0,0,0,0,0,0,0,0,0,0,0,0,0,0,0,0,0,0,0,0,0,0,0,0,0,0,0,0,0,0,0,0,0,0,0,0,0,0,0,0,0,
0,0,0,0,0,0,0,0,0,0,0,0,0,0,0,0,0,0,0,0,0,0,0,0,0,0,0,0,0,0,0,0,0,0,0,0,0,0,0,0,0,0,0,0,0,0,0,0,0,0,0,0,0,0,0,0,0,0,0,0,0,0,0,0,0,0,0,0,0,0,0,0,0,0,0,0,0,0,0,0,0,0,0,0,0,0,0,0,0,0,0,0,0,0,0,0,0,0,0,0,0,0,0,0,0,0,0,0,0,0,0,0,0,0,0,0,0,0,0,0,0,0,0,0,
0,0,0,0,0,0,0,0,0,0,0,0,0,0,0,0,0,0,0,0,0,0,0,0,0,0,0,0,0,0,0,0,0,0,0,0,0,0,0,0,0,0,0,0,0,0,0,0,0,0,0,0,0,0,0,0,0,0,0,0,0,0,0,0,0,0,0,0,0,0,0,0,0,0,0,0,0,0,0,0,0,0,0,0,0,0,0,0,0,0,0,0,0,0,0,0,0,0,0,0,0,0,0,0,0,0,0,0,0,0,0,0,0,0,0,0,0,0,0,0,0,0,0,0,
0,0,0,0,0,0,0,0,0,0,0,0,0,0,0,0,0,0,0,0,0,0,0,0,0,0,0,0,0,0,0,0,0,0,0,0,0,0,0,0,0,0,0,0,0,0,0,0,0,0,0,0,0,0,0,0,0,0,0,0,0,0,0,0,0,0,0,0,0,0,0,0,0,0,0,0,0,0,0,0,0,0,0,0,0,0,0,0,0,0,0,0,0,0,0,0,0,0,0,0,0,0,0,0,0,0,0,0,0,0,0,0,0,0,0,0,0,0,0,0,0,0,0,0
</data>
 </layer>
</map>
