<?xml version="1.0" encoding="UTF-8"?>
<map version="1.10" tiledversion="1.11.2" orientation="orthogonal" renderorder="right-down" width="61" height="58" tilewidth="16" tileheight="16" infinite="0" nextlayerid="2" nextobjectid="1">
 <tileset firstgid="1" name="tiles" tilewidth="16" tileheight="16" tilecount="228" columns="16">
  <image source="cc.png" width="256" height="240"/>
  <tile id="33">
   <animation>
    <frame tileid="44" duration="70"/>
    <frame tileid="44" duration="70"/>
    <frame tileid="44" duration="70"/>
    <frame tileid="44" duration="70"/>
    <frame tileid="44" duration="70"/>
    <frame tileid="44" duration="70"/>
    <frame tileid="44" duration="70"/>
    <frame tileid="44" duration="70"/>
    <frame tileid="44" duration="70"/>
    <frame tileid="44" duration="70"/>
    <frame tileid="33" duration="70"/>
    <frame tileid="44" duration="70"/>
   </animation>
  </tile>
  <tile id="41">
   <objectgroup draworder="index" id="2">
    <object id="1" x="0" y="0">
     <polygon points="0,0 16,0 16,16 0,16"/>
    </object>
   </objectgroup>
   <animation>
    <frame tileid="48" duration="70"/>
    <frame tileid="48" duration="70"/>
    <frame tileid="48" duration="70"/>
    <frame tileid="48" duration="70"/>
    <frame tileid="48" duration="70"/>
    <frame tileid="48" duration="70"/>
    <frame tileid="48" duration="70"/>
    <frame tileid="48" duration="70"/>
    <frame tileid="48" duration="70"/>
    <frame tileid="48" duration="70"/>
    <frame tileid="41" duration="70"/>
    <frame tileid="48" duration="70"/>
   </animation>
  </tile>
  <tile id="42">
   <objectgroup draworder="index" id="2">
    <object id="1" x="0" y="0">
     <polygon points="0,0 16,0 16,16 0,16"/>
    </object>
   </objectgroup>
   <animation>
    <frame tileid="49" duration="70"/>
    <frame tileid="49" duration="70"/>
    <frame tileid="49" duration="70"/>
    <frame tileid="49" duration="70"/>
    <frame tileid="49" duration="70"/>
    <frame tileid="49" duration="70"/>
    <frame tileid="49" duration="70"/>
    <frame tileid="49" duration="70"/>
    <frame tileid="49" duration="70"/>
    <frame tileid="49" duration="70"/>
    <frame tileid="42" duration="70"/>
    <frame tileid="49" duration="70"/>
   </animation>
  </tile>
  <tile id="100">
   <objectgroup draworder="index" id="2">
    <object id="1" x="0" y="0">
     <polygon points="0,0 16,0 16,16 0,16"/>
    </object>
   </objectgroup>
   <animation>
    <frame tileid="106" duration="70"/>
    <frame tileid="106" duration="70"/>
    <frame tileid="106" duration="70"/>
    <frame tileid="106" duration="70"/>
    <frame tileid="106" duration="70"/>
    <frame tileid="106" duration="70"/>
    <frame tileid="106" duration="70"/>
    <frame tileid="106" duration="70"/>
    <frame tileid="106" duration="70"/>
    <frame tileid="106" duration="70"/>
    <frame tileid="100" duration="70"/>
    <frame tileid="106" duration="70"/>
   </animation>
  </tile>
  <tile id="23">
   <objectgroup draworder="index" id="2">
    <object id="1" x="0" y="0">
     <polygon points="0,0 16,0 16,16 0,16"/>
    </object>
   </objectgroup>
  </tile>
  <tile id="22">
   <objectgroup draworder="index" id="2">
    <object id="1" x="0" y="0">
     <polygon points="0,0 16,0 16,16 0,16"/>
    </object>
   </objectgroup>
  </tile>
  <tile id="99">
   <objectgroup draworder="index" id="2">
    <object id="1" x="0" y="0">
     <polygon points="0,0 16,0 16,16 0,16"/>
    </object>
   </objectgroup>
   <animation>
    <frame tileid="105" duration="70"/>
    <frame tileid="105" duration="70"/>
    <frame tileid="105" duration="70"/>
    <frame tileid="105" duration="70"/>
    <frame tileid="105" duration="70"/>
    <frame tileid="105" duration="70"/>
    <frame tileid="105" duration="70"/>
    <frame tileid="105" duration="70"/>
    <frame tileid="105" duration="70"/>
    <frame tileid="105" duration="70"/>
    <frame tileid="99" duration="70"/>
    <frame tileid="105" duration="70"/>
   </animation>
  </tile>
  <tile id="24">
   <objectgroup draworder="index" id="2">
    <object id="1" x="0" y="0">
     <polygon points="0,0 16,0 16,16 0,16"/>
    </object>
   </objectgroup>
   <animation>
    <frame tileid="31" duration="70"/>
    <frame tileid="31" duration="70"/>
    <frame tileid="31" duration="70"/>
    <frame tileid="31" duration="70"/>
    <frame tileid="31" duration="70"/>
    <frame tileid="31" duration="70"/>
    <frame tileid="31" duration="70"/>
    <frame tileid="31" duration="70"/>
    <frame tileid="31" duration="70"/>
    <frame tileid="31" duration="70"/>
    <frame tileid="24" duration="70"/>
    <frame tileid="31" duration="70"/>
   </animation>
  </tile>
  <tile id="101">
   <objectgroup draworder="index" id="2">
    <object id="1" x="0" y="0">
     <polygon points="0,0 16,0 16,16 0,16"/>
    </object>
   </objectgroup>
  </tile>
  <tile id="52">
   <objectgroup draworder="index" id="2">
    <object id="1" x="0" y="0">
     <polygon points="0,0 16,0 16,16 0,16"/>
    </object>
   </objectgroup>
  </tile>
  <tile id="10">
   <objectgroup draworder="index" id="2">
    <object id="1" x="0" y="0">
     <polygon points="0,0 16,0 16,16 0,16"/>
    </object>
   </objectgroup>
  </tile>
  <tile id="15">
   <objectgroup draworder="index" id="2">
    <object id="1" x="0" y="0">
     <polygon points="0,0 16,0 16,16 0,16"/>
    </object>
   </objectgroup>
  </tile>
  <tile id="16">
   <objectgroup draworder="index" id="2">
    <object id="1" x="0" y="0">
     <polygon points="0,0 16,0 16,16 0,16"/>
    </object>
   </objectgroup>
   <animation>
    <frame tileid="26" duration="70"/>
    <frame tileid="26" duration="70"/>
    <frame tileid="26" duration="70"/>
    <frame tileid="26" duration="70"/>
    <frame tileid="26" duration="70"/>
    <frame tileid="26" duration="70"/>
    <frame tileid="26" duration="70"/>
    <frame tileid="26" duration="70"/>
    <frame tileid="26" duration="70"/>
    <frame tileid="26" duration="70"/>
    <frame tileid="16" duration="70"/>
    <frame tileid="26" duration="70"/>
   </animation>
  </tile>
  <tile id="34">
   <objectgroup draworder="index" id="2">
    <object id="1" x="0" y="0">
     <polygon points="0,0 16,0 16,16 0,16"/>
    </object>
   </objectgroup>
  </tile>
  <tile id="51">
   <objectgroup draworder="index" id="2">
    <object id="1" x="0" y="0">
     <polygon points="0,0 16,0 16,16 0,16"/>
    </object>
   </objectgroup>
   <animation>
    <frame tileid="60" duration="70"/>
    <frame tileid="60" duration="70"/>
    <frame tileid="60" duration="70"/>
    <frame tileid="60" duration="70"/>
    <frame tileid="60" duration="70"/>
    <frame tileid="60" duration="70"/>
    <frame tileid="60" duration="70"/>
    <frame tileid="60" duration="70"/>
    <frame tileid="60" duration="70"/>
    <frame tileid="60" duration="70"/>
    <frame tileid="51" duration="70"/>
    <frame tileid="60" duration="70"/>
   </animation>
  </tile>
  <tile id="126">
   <objectgroup draworder="index" id="2">
    <object id="1" x="0" y="0">
     <polygon points="0,0 16,0 16,16 0,16"/>
    </object>
   </objectgroup>
  </tile>
  <tile id="9">
   <objectgroup draworder="index" id="2">
    <object id="1" x="0" y="0">
     <polygon points="0,0 16,0 16,16 0,16"/>
    </object>
   </objectgroup>
  </tile>
  <tile id="5">
   <objectgroup draworder="index" id="2">
    <object id="1" x="0" y="0">
     <polygon points="0,0 16,0 16,16 0,16"/>
    </object>
   </objectgroup>
  </tile>
  <tile id="6">
   <objectgroup draworder="index" id="2">
    <object id="1" x="0" y="0">
     <polygon points="0,0 16,0 16,16 0,16"/>
    </object>
   </objectgroup>
  </tile>
  <tile id="21">
   <objectgroup draworder="index" id="2">
    <object id="1" x="0" y="0">
     <polygon points="0,0 16,0 16,16 0,16"/>
    </object>
   </objectgroup>
   <animation>
    <frame tileid="30" duration="70"/>
    <frame tileid="30" duration="70"/>
    <frame tileid="30" duration="70"/>
    <frame tileid="30" duration="70"/>
    <frame tileid="30" duration="70"/>
    <frame tileid="30" duration="70"/>
    <frame tileid="30" duration="70"/>
    <frame tileid="30" duration="70"/>
    <frame tileid="30" duration="70"/>
    <frame tileid="30" duration="70"/>
    <frame tileid="21" duration="70"/>
    <frame tileid="30" duration="70"/>
   </animation>
  </tile>
  <tile id="17">
   <objectgroup draworder="index" id="2">
    <object id="1" x="0" y="0">
     <polygon points="0,0 16,0 16,16 0,16"/>
    </object>
   </objectgroup>
  </tile>
  <tile id="115">
   <objectgroup draworder="index" id="2">
    <object id="1" x="0" y="0">
     <polygon points="0,0 16,0 16,16 0,16"/>
    </object>
   </objectgroup>
   <animation>
    <frame tileid="122" duration="70"/>
    <frame tileid="122" duration="70"/>
    <frame tileid="122" duration="70"/>
    <frame tileid="122" duration="70"/>
    <frame tileid="122" duration="70"/>
    <frame tileid="122" duration="70"/>
    <frame tileid="122" duration="70"/>
    <frame tileid="122" duration="70"/>
    <frame tileid="122" duration="70"/>
    <frame tileid="122" duration="70"/>
    <frame tileid="115" duration="70"/>
    <frame tileid="122" duration="70"/>
   </animation>
  </tile>
  <tile id="18">
   <objectgroup draworder="index" id="2">
    <object id="1" x="0" y="0">
     <polygon points="0,0 16,0 16,16 0,16"/>
    </object>
   </objectgroup>
   <animation>
    <frame tileid="27" duration="70"/>
    <frame tileid="27" duration="70"/>
    <frame tileid="27" duration="70"/>
    <frame tileid="27" duration="70"/>
    <frame tileid="27" duration="70"/>
    <frame tileid="27" duration="70"/>
    <frame tileid="27" duration="70"/>
    <frame tileid="27" duration="70"/>
    <frame tileid="27" duration="70"/>
    <frame tileid="27" duration="70"/>
    <frame tileid="18" duration="70"/>
    <frame tileid="27" duration="70"/>
   </animation>
  </tile>
  <tile id="19">
   <objectgroup draworder="index" id="2">
    <object id="1" x="0" y="0">
     <polygon points="0,0 16,0 16,16 0,16"/>
    </object>
   </objectgroup>
   <animation>
    <frame tileid="28" duration="70"/>
    <frame tileid="28" duration="70"/>
    <frame tileid="28" duration="70"/>
    <frame tileid="28" duration="70"/>
    <frame tileid="28" duration="70"/>
    <frame tileid="28" duration="70"/>
    <frame tileid="28" duration="70"/>
    <frame tileid="28" duration="70"/>
    <frame tileid="28" duration="70"/>
    <frame tileid="28" duration="70"/>
    <frame tileid="19" duration="70"/>
    <frame tileid="28" duration="70"/>
   </animation>
  </tile>
  <tile id="20">
   <objectgroup draworder="index" id="2">
    <object id="1" x="0" y="0">
     <polygon points="0,0 16,0 16,16 0,16"/>
    </object>
   </objectgroup>
   <animation>
    <frame tileid="29" duration="70"/>
    <frame tileid="29" duration="70"/>
    <frame tileid="29" duration="70"/>
    <frame tileid="29" duration="70"/>
    <frame tileid="29" duration="70"/>
    <frame tileid="29" duration="70"/>
    <frame tileid="29" duration="70"/>
    <frame tileid="29" duration="70"/>
    <frame tileid="29" duration="70"/>
    <frame tileid="29" duration="70"/>
    <frame tileid="20" duration="70"/>
    <frame tileid="29" duration="70"/>
   </animation>
  </tile>
  <tile id="124">
   <objectgroup draworder="index" id="2">
    <object id="1" x="0" y="0">
     <polygon points="0,0 16,0 16,16 0,16"/>
    </object>
   </objectgroup>
   <animation>
    <frame tileid="183" duration="70"/>
    <frame tileid="183" duration="70"/>
    <frame tileid="183" duration="70"/>
    <frame tileid="183" duration="70"/>
    <frame tileid="183" duration="70"/>
    <frame tileid="183" duration="70"/>
    <frame tileid="183" duration="70"/>
    <frame tileid="183" duration="70"/>
    <frame tileid="183" duration="70"/>
    <frame tileid="183" duration="70"/>
    <frame tileid="124" duration="70"/>
    <frame tileid="183" duration="70"/>
   </animation>
  </tile>
  <tile id="25">
   <objectgroup draworder="index" id="2">
    <object id="1" x="0" y="0">
     <polygon points="0,0 16,0 16,16 0,16"/>
    </object>
   </objectgroup>
   <animation>
    <frame tileid="32" duration="70"/>
    <frame tileid="32" duration="70"/>
    <frame tileid="32" duration="70"/>
    <frame tileid="32" duration="70"/>
    <frame tileid="32" duration="70"/>
    <frame tileid="32" duration="70"/>
    <frame tileid="32" duration="70"/>
    <frame tileid="32" duration="70"/>
    <frame tileid="32" duration="70"/>
    <frame tileid="32" duration="70"/>
    <frame tileid="25" duration="70"/>
    <frame tileid="32" duration="70"/>
   </animation>
  </tile>
  <tile id="56">
   <objectgroup draworder="index" id="2">
    <object id="1" x="0" y="0">
     <polygon points="0,0 16,0 16,16 0,16"/>
    </object>
   </objectgroup>
   <animation>
    <frame tileid="63" duration="70"/>
    <frame tileid="63" duration="70"/>
    <frame tileid="63" duration="70"/>
    <frame tileid="63" duration="70"/>
    <frame tileid="63" duration="70"/>
    <frame tileid="63" duration="70"/>
    <frame tileid="63" duration="70"/>
    <frame tileid="63" duration="70"/>
    <frame tileid="63" duration="70"/>
    <frame tileid="63" duration="70"/>
    <frame tileid="56" duration="70"/>
    <frame tileid="63" duration="70"/>
   </animation>
  </tile>
  <tile id="113">
   <objectgroup draworder="index" id="2">
    <object id="1" x="0" y="0">
     <polygon points="0,0 16,0 16,16 0,16"/>
    </object>
   </objectgroup>
   <animation>
    <frame tileid="113" duration="24"/>
    <frame tileid="140" duration="24"/>
    <frame tileid="141" duration="24"/>
    <frame tileid="142" duration="24"/>
    <frame tileid="143" duration="24"/>
    <frame tileid="144" duration="24"/>
    <frame tileid="145" duration="24"/>
    <frame tileid="146" duration="24"/>
   </animation>
  </tile>
  <tile id="83">
   <objectgroup draworder="index" id="2">
    <object id="1" x="0" y="0">
     <polygon points="0,0 16,0 16,16 0,16"/>
    </object>
   </objectgroup>
  </tile>
  <tile id="87">
   <objectgroup draworder="index" id="2">
    <object id="1" x="0" y="0">
     <polygon points="0,0 16,0 16,16 0,16"/>
    </object>
   </objectgroup>
  </tile>
  <tile id="74">
   <objectgroup draworder="index" id="2">
    <object id="1" x="0" y="0">
     <polygon points="0,0 16,0 16,16 0,16"/>
    </object>
   </objectgroup>
  </tile>
  <tile id="36">
   <objectgroup draworder="index" id="2">
    <object id="1" x="0" y="0">
     <polygon points="0,0 16,0 16,16 0,16"/>
    </object>
   </objectgroup>
  </tile>
  <tile id="37">
   <objectgroup draworder="index" id="2">
    <object id="1" x="0" y="0">
     <polygon points="0,0 16,0 16,16 0,16"/>
    </object>
   </objectgroup>
  </tile>
  <tile id="8">
   <objectgroup draworder="index" id="2">
    <object id="1" x="0" y="0">
     <polygon points="0,0 16,0 16,16 0,16"/>
    </object>
   </objectgroup>
  </tile>
  <tile id="7">
   <objectgroup draworder="index" id="2">
    <object id="1" x="0" y="0">
     <polygon points="0,0 16,0 16,16 0,16"/>
    </object>
   </objectgroup>
  </tile>
  <tile id="184">
   <objectgroup draworder="index" id="2">
    <object id="1" x="0" y="0">
     <polygon points="0,0 16,0 16,16 0,16"/>
    </object>
   </objectgroup>
  </tile>
  <tile id="64">
   <animation>
    <frame tileid="75" duration="70"/>
    <frame tileid="75" duration="70"/>
    <frame tileid="75" duration="70"/>
    <frame tileid="157" duration="70"/>
    <frame tileid="157" duration="70"/>
    <frame tileid="157" duration="70"/>
    <frame tileid="158" duration="70"/>
    <frame tileid="158" duration="70"/>
    <frame tileid="158" duration="70"/>
    <frame tileid="158" duration="70"/>
    <frame tileid="64" duration="70"/>
    <frame tileid="158" duration="70"/>
   </animation>
  </tile>
  <tile id="67">
   <objectgroup draworder="index" id="2">
    <object id="1" x="0" y="0">
     <polygon points="0,0 16,0 16,16 0,16"/>
    </object>
   </objectgroup>
  </tile>
  <tile id="68">
   <objectgroup draworder="index" id="2">
    <object id="1" x="0" y="0">
     <polygon points="0,0 16,0 16,16 0,16"/>
    </object>
   </objectgroup>
  </tile>
  <tile id="66">
   <objectgroup draworder="index" id="2">
    <object id="1" x="0" y="0">
     <polygon points="0,0 16,0 16,16 0,16"/>
    </object>
   </objectgroup>
  </tile>
  <tile id="73">
   <objectgroup draworder="index" id="2">
    <object id="1" x="0" y="0">
     <polygon points="0,0 16,0 16,16 0,16"/>
    </object>
   </objectgroup>
  </tile>
  <tile id="69">
   <objectgroup draworder="index" id="2">
    <object id="1" x="0" y="0">
     <properties>
      <property name="type" type="int" value="4"/>
     </properties>
     <polygon points="0,0 16,0 16,16 0,16"/>
    </object>
   </objectgroup>
  </tile>
  <tile id="35">
   <objectgroup draworder="index" id="2">
    <object id="1" x="0" y="0">
     <polygon points="0,0 16,0 16,16 0,16"/>
    </object>
   </objectgroup>
  </tile>
  <tile id="43">
   <animation>
    <frame tileid="50" duration="70"/>
    <frame tileid="50" duration="70"/>
    <frame tileid="50" duration="70"/>
    <frame tileid="149" duration="70"/>
    <frame tileid="149" duration="70"/>
    <frame tileid="149" duration="70"/>
    <frame tileid="152" duration="70"/>
    <frame tileid="152" duration="70"/>
    <frame tileid="152" duration="70"/>
    <frame tileid="152" duration="70"/>
    <frame tileid="43" duration="70"/>
    <frame tileid="152" duration="70"/>
   </animation>
  </tile>
  <tile id="95">
   <objectgroup draworder="index" id="2">
    <object id="1" x="0" y="0">
     <polygon points="0,0 16,0 16,16 0,16"/>
    </object>
   </objectgroup>
  </tile>
  <tile id="98">
   <objectgroup draworder="index" id="2">
    <object id="1" x="0" y="0">
     <polygon points="0,0 16,0 16,16 0,16"/>
    </object>
   </objectgroup>
  </tile>
  <tile id="139">
   <properties>
    <property name="spikes" type="int" value="0"/>
   </properties>
  </tile>
  <tile id="188">
   <objectgroup draworder="index" id="2">
    <object id="1" x="0" y="0">
     <polygon points="0,0 16,0 16,16 0,16"/>
    </object>
   </objectgroup>
   <animation>
    <frame tileid="189" duration="70"/>
    <frame tileid="189" duration="70"/>
    <frame tileid="189" duration="70"/>
    <frame tileid="189" duration="70"/>
    <frame tileid="189" duration="70"/>
    <frame tileid="189" duration="70"/>
    <frame tileid="189" duration="70"/>
    <frame tileid="189" duration="70"/>
    <frame tileid="189" duration="70"/>
    <frame tileid="189" duration="70"/>
    <frame tileid="188" duration="70"/>
    <frame tileid="189" duration="70"/>
   </animation>
  </tile>
  <tile id="71">
   <objectgroup draworder="index" id="2">
    <object id="1" x="0" y="0">
     <polygon points="0,0 16,0 16,16 0,16"/>
    </object>
   </objectgroup>
   <animation>
    <frame tileid="76" duration="70"/>
    <frame tileid="76" duration="70"/>
    <frame tileid="76" duration="70"/>
    <frame tileid="76" duration="70"/>
    <frame tileid="76" duration="70"/>
    <frame tileid="76" duration="70"/>
    <frame tileid="76" duration="70"/>
    <frame tileid="76" duration="70"/>
    <frame tileid="76" duration="70"/>
    <frame tileid="76" duration="70"/>
    <frame tileid="71" duration="70"/>
    <frame tileid="76" duration="70"/>
   </animation>
  </tile>
  <tile id="97">
   <objectgroup draworder="index" id="2">
    <object id="1" x="0" y="0">
     <polygon points="0,0 16,0 16,16 0,16"/>
    </object>
   </objectgroup>
  </tile>
  <tile id="190">
   <animation>
    <frame tileid="194" duration="70"/>
    <frame tileid="194" duration="70"/>
    <frame tileid="194" duration="70"/>
    <frame tileid="198" duration="70"/>
    <frame tileid="198" duration="70"/>
    <frame tileid="198" duration="70"/>
    <frame tileid="202" duration="70"/>
    <frame tileid="202" duration="70"/>
    <frame tileid="202" duration="70"/>
    <frame tileid="202" duration="70"/>
    <frame tileid="190" duration="70"/>
    <frame tileid="202" duration="70"/>
   </animation>
  </tile>
  <tile id="82">
   <animation>
    <frame tileid="90" duration="70"/>
    <frame tileid="90" duration="70"/>
    <frame tileid="90" duration="70"/>
    <frame tileid="161" duration="70"/>
    <frame tileid="161" duration="70"/>
    <frame tileid="161" duration="70"/>
    <frame tileid="164" duration="70"/>
    <frame tileid="164" duration="70"/>
    <frame tileid="164" duration="70"/>
    <frame tileid="164" duration="70"/>
    <frame tileid="82" duration="70"/>
    <frame tileid="164" duration="70"/>
   </animation>
  </tile>
  <tile id="191">
   <animation>
    <frame tileid="195" duration="70"/>
    <frame tileid="195" duration="70"/>
    <frame tileid="195" duration="70"/>
    <frame tileid="199" duration="70"/>
    <frame tileid="199" duration="70"/>
    <frame tileid="199" duration="70"/>
    <frame tileid="203" duration="70"/>
    <frame tileid="203" duration="70"/>
    <frame tileid="203" duration="70"/>
    <frame tileid="203" duration="70"/>
    <frame tileid="191" duration="70"/>
    <frame tileid="203" duration="70"/>
   </animation>
  </tile>
  <tile id="192">
   <animation>
    <frame tileid="196" duration="70"/>
    <frame tileid="196" duration="70"/>
    <frame tileid="196" duration="70"/>
    <frame tileid="200" duration="70"/>
    <frame tileid="200" duration="70"/>
    <frame tileid="200" duration="70"/>
    <frame tileid="204" duration="70"/>
    <frame tileid="204" duration="70"/>
    <frame tileid="204" duration="70"/>
    <frame tileid="204" duration="70"/>
    <frame tileid="192" duration="70"/>
    <frame tileid="204" duration="70"/>
   </animation>
  </tile>
  <tile id="94">
   <animation>
    <frame tileid="103" duration="70"/>
    <frame tileid="103" duration="70"/>
    <frame tileid="103" duration="70"/>
    <frame tileid="165" duration="70"/>
    <frame tileid="165" duration="70"/>
    <frame tileid="165" duration="70"/>
    <frame tileid="166" duration="70"/>
    <frame tileid="166" duration="70"/>
    <frame tileid="166" duration="70"/>
    <frame tileid="166" duration="70"/>
    <frame tileid="94" duration="70"/>
    <frame tileid="166" duration="70"/>
   </animation>
  </tile>
  <tile id="193">
   <animation>
    <frame tileid="197" duration="70"/>
    <frame tileid="197" duration="70"/>
    <frame tileid="197" duration="70"/>
    <frame tileid="201" duration="70"/>
    <frame tileid="201" duration="70"/>
    <frame tileid="201" duration="70"/>
    <frame tileid="205" duration="70"/>
    <frame tileid="205" duration="70"/>
    <frame tileid="205" duration="70"/>
    <frame tileid="205" duration="70"/>
    <frame tileid="193" duration="70"/>
    <frame tileid="205" duration="70"/>
   </animation>
  </tile>
  <tile id="85">
   <objectgroup draworder="index" id="2">
    <object id="1" x="0" y="0">
     <polygon points="0,0 16,0 16,16 0,16"/>
    </object>
   </objectgroup>
  </tile>
  <tile id="84">
   <objectgroup draworder="index" id="2">
    <object id="1" x="0" y="0">
     <polygon points="0,0 16,0 16,16 0,16"/>
    </object>
   </objectgroup>
  </tile>
  <tile id="40">
   <objectgroup draworder="index" id="2">
    <object id="1" x="0" y="0">
     <polygon points="0,0 16,0 16,16 0,16"/>
    </object>
   </objectgroup>
   <animation>
    <frame tileid="47" duration="70"/>
    <frame tileid="47" duration="70"/>
    <frame tileid="47" duration="70"/>
    <frame tileid="47" duration="70"/>
    <frame tileid="47" duration="70"/>
    <frame tileid="47" duration="70"/>
    <frame tileid="47" duration="70"/>
    <frame tileid="47" duration="70"/>
    <frame tileid="47" duration="70"/>
    <frame tileid="47" duration="70"/>
    <frame tileid="40" duration="70"/>
    <frame tileid="47" duration="70"/>
   </animation>
  </tile>
  <tile id="140">
   <objectgroup draworder="index" id="2">
    <object id="1" x="0" y="0">
     <polygon points="0,0 16,0 16,16 0,16"/>
    </object>
   </objectgroup>
   <animation>
    <frame tileid="113" duration="24"/>
    <frame tileid="146" duration="24"/>
    <frame tileid="145" duration="24"/>
    <frame tileid="144" duration="24"/>
    <frame tileid="143" duration="24"/>
    <frame tileid="142" duration="24"/>
    <frame tileid="141" duration="24"/>
    <frame tileid="140" duration="24"/>
   </animation>
  </tile>
 </tileset>
 <layer id="1" name="layer" width="61" height="58">
  <properties>
   <property name="collision" type="bool" value="true"/>
  </properties>
  <data encoding="csv">
34,34,34,42,43,52,35,92,59,59,59,59,59,94,52,35,11,10,6,6,6,6,6,6,7,22,17,17,17,17,17,17,17,17,17,17,17,17,17,18,43,34,34,34,34,34,34,34,34,34,34,34,34,34,34,34,34,34,34,34,34,
34,34,34,42,43,1,54,1,1,1,54,1,1,1,54,1,116,19,20,20,20,20,20,20,21,125,58,59,59,59,59,59,59,59,59,59,59,59,94,25,43,34,34,34,34,34,34,34,34,34,34,34,34,34,34,34,34,34,34,34,34,
34,34,34,42,43,1,54,1,1,1,54,1,1,1,54,1,25,26,34,34,34,34,34,34,57,43,66,114,114,114,114,114,114,114,114,114,114,114,1,25,43,84,84,84,84,84,84,88,75,34,34,34,34,34,34,34,34,34,34,34,34,
34,34,34,42,43,92,59,59,94,37,84,38,92,59,59,94,25,26,34,34,34,34,34,34,57,43,66,11,16,17,17,17,17,17,17,17,17,35,1,52,17,17,17,17,17,17,17,18,125,34,34,34,34,34,34,34,34,34,34,34,34,
6,6,6,9,53,1,54,1,1,1,1,1,1,1,54,1,11,8,6,6,6,6,6,6,9,53,66,25,43,10,6,6,6,185,6,6,6,9,1,8,6,185,6,6,6,185,7,25,43,34,34,34,34,34,34,34,34,34,34,34,34,
17,17,17,18,125,92,59,59,59,59,59,59,59,59,59,94,116,22,17,17,17,17,17,17,18,125,66,25,43,1,1,1,1,1,1,1,1,1,1,1,1,1,1,1,1,1,1,25,43,34,34,34,34,34,34,34,34,34,34,34,34,
34,34,34,25,43,1,54,1,1,1,1,1,1,1,54,1,25,43,92,59,59,59,59,94,25,43,66,25,43,1,65,1,65,1,65,1,65,1,65,1,65,1,65,1,65,1,1,25,43,34,34,34,34,34,34,34,34,34,34,34,34,
34,34,34,11,16,68,68,69,1,1,1,1,1,67,68,68,127,53,92,59,59,59,59,94,25,43,66,25,43,1,114,114,114,114,114,114,114,114,114,114,114,114,114,114,114,114,1,25,43,34,34,34,34,34,34,34,34,34,34,34,34,
34,34,34,25,43,1,54,1,1,1,1,1,1,1,54,1,25,43,92,59,59,59,59,94,25,43,66,25,43,1,8,185,6,6,6,6,6,185,6,6,6,6,6,6,6,9,1,25,43,34,34,34,34,34,34,34,34,34,34,34,34,
34,34,34,25,43,92,59,59,59,59,59,59,59,59,59,94,25,43,92,59,59,59,59,94,25,43,66,25,43,1,1,1,1,1,1,1,1,1,1,1,1,1,1,1,1,1,1,25,43,34,34,34,34,34,34,34,34,34,34,34,34,
34,74,75,25,43,1,54,1,1,1,1,1,1,1,54,1,25,43,92,59,59,59,59,94,25,43,66,25,43,65,1,65,1,1,65,1,65,1,65,1,1,65,1,65,1,65,1,25,43,34,34,34,34,34,34,34,34,34,34,34,34,
34,52,17,127,16,68,68,69,1,1,1,1,1,67,68,68,127,53,92,59,59,59,59,94,25,43,66,11,16,141,141,141,141,1,114,114,114,114,114,114,1,114,114,114,114,114,114,127,53,34,34,34,34,34,34,34,34,34,34,34,34,
84,38,16,17,35,1,1,66,1,1,1,1,1,1,66,1,23,37,84,84,84,84,84,84,38,53,66,25,43,92,59,94,24,1,23,92,59,59,94,24,1,23,92,59,59,59,94,25,43,37,84,84,84,88,75,34,34,34,34,34,34,
20,21,125,1,1,1,1,66,1,1,1,1,1,1,66,1,52,17,17,17,17,17,17,17,17,35,66,52,17,17,17,17,35,70,10,7,36,36,10,7,70,52,17,17,17,17,17,17,17,17,17,17,17,18,125,34,34,34,34,34,34,
34,42,43,1,1,1,1,66,1,1,1,1,1,1,66,1,1,1,1,66,1,1,1,1,1,1,66,1,54,1,1,1,1,1,66,1,1,1,1,66,1,44,1,1,1,44,1,1,1,44,1,1,44,25,43,34,34,34,34,34,34,
34,42,43,1,1,1,1,66,1,1,1,1,1,1,66,1,1,58,59,59,59,59,59,59,59,59,112,1,54,1,1,1,1,1,66,1,1,1,1,66,1,1,1,1,1,1,1,1,1,1,1,1,1,25,43,34,34,34,34,34,34,
6,9,53,92,59,59,59,59,59,59,59,59,59,59,59,59,59,112,1,66,1,1,1,1,1,1,1,1,54,1,1,1,1,1,66,1,1,1,1,71,59,59,59,59,59,59,59,59,59,59,59,60,1,25,43,34,34,34,34,34,34,
17,18,125,1,1,1,1,66,1,1,1,1,1,1,66,1,1,1,1,66,1,1,1,1,1,1,1,1,54,1,1,1,1,1,66,1,1,1,1,1,1,1,1,1,1,1,1,1,1,1,1,66,1,25,43,34,34,34,34,34,34,
94,25,43,1,1,1,1,66,1,1,1,1,1,1,66,1,1,1,1,74,75,1,1,1,1,1,1,1,54,1,74,84,84,84,84,38,37,38,37,84,84,84,84,84,84,84,84,84,75,1,1,66,1,25,43,34,34,34,34,34,34,
94,25,43,92,60,1,1,74,75,1,1,58,59,59,59,59,59,59,94,23,24,1,1,1,1,1,1,1,54,1,116,96,92,59,59,59,112,71,59,59,112,71,59,59,59,59,59,94,24,1,1,66,1,25,43,34,34,34,34,34,34,
84,38,53,1,71,59,59,23,24,59,59,112,1,1,66,1,1,1,1,52,35,1,1,1,1,1,1,1,54,1,25,100,92,59,59,59,59,59,59,59,59,59,59,59,59,59,59,94,24,1,1,66,1,25,43,34,34,34,34,34,34,
20,21,125,1,1,1,1,52,35,1,1,1,1,74,75,1,1,1,1,1,1,1,58,59,94,74,75,1,54,1,25,100,116,22,17,17,17,17,17,17,17,17,17,17,17,17,17,17,35,1,1,66,1,25,43,34,34,34,34,34,34,
34,42,43,1,1,1,1,1,1,1,1,58,59,23,24,59,59,59,59,59,59,59,112,1,1,23,24,1,54,1,25,100,25,43,44,1,1,1,44,1,134,1,44,1,66,1,44,134,1,1,1,66,1,25,43,34,34,34,34,34,34,
34,42,43,92,59,59,59,59,59,59,59,112,1,52,35,1,1,1,1,1,1,1,1,1,1,52,35,1,54,1,25,100,25,43,1,1,1,58,59,59,59,59,59,59,59,59,59,59,59,59,59,112,1,25,43,34,34,34,34,34,34,
6,9,53,1,1,1,1,1,1,1,1,1,1,1,1,1,1,1,1,1,1,1,1,1,1,66,1,1,54,1,25,100,25,43,58,59,59,112,1,1,186,1,1,1,66,1,1,186,1,1,1,1,1,25,43,34,34,34,34,34,34,
17,18,125,1,1,58,59,59,59,59,59,59,59,59,59,59,59,59,59,59,59,59,59,59,59,112,1,1,71,94,25,100,25,43,66,1,1,1,1,1,139,187,1,1,66,1,1,188,1,1,1,1,1,25,43,34,34,34,34,34,34,
94,25,43,1,1,66,1,1,1,1,1,1,1,1,1,1,1,1,1,1,1,1,1,1,1,1,1,1,1,1,25,100,25,43,112,1,187,1,1,74,84,84,84,75,66,1,187,139,1,1,1,1,1,25,43,34,34,34,34,34,34,
94,25,43,1,1,66,1,1,1,1,1,1,1,1,1,1,1,1,1,1,1,1,1,1,1,1,1,1,1,1,25,100,25,43,1,74,84,84,84,38,102,99,102,37,84,84,84,75,1,1,1,1,1,25,43,34,34,34,34,34,34,
84,38,53,140,140,66,140,140,140,140,140,140,140,140,140,140,140,140,140,140,140,140,140,140,140,140,140,140,140,140,25,100,25,43,1,52,17,17,17,17,17,17,17,17,17,17,17,35,1,1,1,1,1,25,43,34,34,34,34,34,34,
20,21,125,84,75,66,74,84,84,84,84,84,84,84,84,84,84,84,84,84,84,84,84,84,84,84,84,84,84,84,84,84,84,75,92,59,59,59,59,59,60,23,92,59,59,59,94,24,1,1,1,1,1,25,43,34,34,34,34,34,34,
34,42,43,17,35,66,52,17,17,17,17,17,17,17,17,17,17,17,17,17,17,17,17,17,17,17,17,17,17,17,17,17,17,35,67,68,68,68,68,69,54,52,17,35,36,36,52,35,1,1,1,1,1,25,43,34,34,34,34,34,34,
34,42,43,44,1,66,1,44,25,43,92,59,59,94,25,43,1,1,1,1,1,1,1,1,1,1,66,1,1,1,1,1,1,1,1,134,1,1,66,1,54,1,1,1,1,1,1,1,1,1,1,1,1,25,43,34,34,34,34,34,34,
6,9,53,1,1,66,1,1,25,43,92,59,59,94,25,43,1,1,1,1,1,58,59,59,59,59,59,59,59,59,59,59,59,59,59,59,59,59,112,1,54,1,1,1,1,1,1,1,1,1,1,1,1,25,43,34,34,34,34,34,34,
17,18,125,92,59,112,1,1,25,43,92,59,59,94,25,43,1,1,58,59,59,112,1,1,1,1,66,1,1,1,1,1,1,1,1,139,1,1,1,1,54,1,1,1,1,1,1,1,1,1,1,1,1,25,43,34,34,34,34,34,34,
94,25,43,65,1,1,1,65,25,43,17,17,17,17,52,35,92,59,112,1,1,1,67,68,69,1,66,1,1,1,1,1,1,67,68,69,1,1,1,1,54,1,1,1,1,1,1,65,1,65,1,65,1,25,43,34,34,34,34,34,34,
94,25,43,67,68,68,68,69,101,43,1,54,1,1,1,1,1,1,1,1,1,1,188,1,1,1,66,1,1,1,1,1,1,1,1,1,1,1,1,1,71,94,37,38,37,38,37,84,84,84,84,84,84,25,43,34,34,34,34,34,34,
84,38,53,92,59,59,59,94,101,43,1,54,1,1,1,1,1,1,1,1,1,1,186,1,1,1,66,1,1,1,1,1,1,1,1,1,1,1,1,1,1,1,23,92,59,59,59,59,59,59,59,59,94,25,43,34,34,34,34,34,34,
20,21,125,92,59,59,59,94,101,43,1,54,1,1,1,1,1,1,1,1,1,1,139,1,1,1,66,1,1,1,1,1,1,1,1,1,1,1,1,1,1,1,23,6,6,6,6,6,6,6,6,6,6,7,53,34,34,34,34,34,34,
34,42,43,92,59,59,59,94,101,43,1,54,1,1,74,75,140,140,141,141,141,141,141,141,141,141,141,140,140,140,140,114,114,114,114,114,114,114,114,114,114,114,23,92,59,59,59,94,11,16,17,17,17,17,189,34,34,34,34,34,34,
34,42,43,6,6,6,6,6,7,53,1,54,1,1,11,8,6,6,6,6,6,6,6,6,6,6,6,6,6,6,6,6,6,6,6,6,6,6,6,6,6,6,9,92,59,59,59,94,25,43,34,34,34,34,34,34,34,34,34,34,34,
84,38,53,17,17,17,17,17,17,35,1,54,1,1,52,17,17,17,17,17,17,17,17,17,17,17,17,17,17,17,17,17,35,92,59,59,59,59,59,59,59,94,52,17,17,17,17,17,127,53,34,34,34,34,34,34,34,34,34,34,34,
20,21,125,44,134,1,44,1,1,1,1,54,1,1,1,1,1,134,44,1,1,44,25,100,92,94,101,43,92,59,59,59,94,16,17,17,17,17,17,17,17,127,92,59,59,59,59,94,25,43,34,34,34,34,34,34,34,34,34,34,34,
34,42,43,1,188,1,1,1,1,1,1,71,59,60,1,1,1,186,1,1,1,1,25,100,92,94,101,16,17,17,17,17,17,35,1,66,1,1,1,66,1,52,17,17,17,17,17,17,127,53,34,34,34,34,34,34,34,34,34,34,34,
34,42,43,1,188,1,1,1,1,1,1,1,1,71,59,60,1,188,1,1,1,1,25,100,92,94,101,43,44,134,1,1,44,1,1,66,1,1,1,66,1,1,44,66,1,1,44,1,25,43,34,34,34,34,34,34,34,34,34,34,34,
6,9,53,1,139,187,1,1,1,1,1,1,1,1,1,54,1,186,1,187,1,1,25,100,92,94,101,43,92,59,59,59,59,59,59,59,59,59,59,66,59,59,59,59,59,60,1,1,25,43,34,34,34,34,34,34,34,34,34,34,34,
17,18,125,84,84,84,75,1,1,1,1,67,68,69,1,54,1,188,67,84,84,84,25,100,92,94,101,43,1,186,1,1,1,1,1,66,1,1,1,66,1,1,1,66,1,71,59,94,25,43,34,34,34,34,34,34,34,34,34,34,34,
94,25,43,92,59,94,72,1,1,1,1,1,1,1,1,71,59,59,72,92,94,72,11,10,6,6,7,53,1,186,1,1,1,67,68,68,68,68,68,68,68,68,69,66,1,1,1,1,25,43,34,34,34,34,34,34,34,34,34,34,34,
94,25,43,92,59,94,72,1,1,1,1,1,1,1,1,1,1,186,72,92,94,72,52,17,17,35,25,43,92,59,59,60,1,1,1,116,96,92,94,98,125,1,1,66,1,58,59,94,25,43,34,34,34,34,34,34,34,34,34,34,34,
84,38,53,92,59,94,72,1,187,1,1,1,1,1,1,1,187,139,72,92,94,72,134,92,94,134,25,43,1,188,1,71,59,59,94,25,100,92,94,101,43,92,59,59,59,112,1,1,25,43,34,34,34,34,34,34,34,34,34,34,34,
20,21,125,92,59,94,37,84,84,75,1,1,1,1,1,67,68,68,68,68,68,69,188,36,36,188,67,68,68,69,1,1,1,1,1,25,100,92,94,101,43,1,1,66,1,1,67,68,127,10,6,6,6,6,6,6,6,6,6,6,6,
34,42,43,92,59,59,59,94,98,125,1,1,1,1,1,134,1,66,1,1,66,1,188,1,1,188,1,1,1,134,1,1,1,1,1,25,100,92,94,101,43,1,58,66,59,59,66,94,52,17,17,17,17,17,17,17,17,17,17,17,17,
34,42,43,92,59,59,59,94,101,43,1,191,83,192,1,188,1,66,1,1,66,1,188,1,1,188,1,1,1,188,1,58,59,59,94,52,17,127,16,17,35,92,112,66,1,1,66,1,1,1,1,44,1,44,1,44,1,44,1,44,1,
6,9,53,92,59,59,59,94,101,43,1,193,95,194,1,188,1,66,1,1,66,1,188,1,1,188,58,59,59,59,59,112,1,1,1,1,1,25,43,1,1,1,1,66,1,1,66,1,1,1,1,1,1,1,1,1,1,1,1,1,1,
17,18,125,92,59,59,59,94,101,43,1,1,1,1,1,139,1,66,1,1,66,1,139,1,1,139,66,1,1,139,1,1,1,74,75,1,1,25,43,1,1,74,75,66,1,1,66,1,1,1,1,65,1,65,1,65,1,65,1,65,1,
94,25,43,92,59,59,59,94,98,22,37,86,84,84,84,84,85,86,84,84,84,84,38,37,38,37,84,84,84,84,85,86,84,84,84,84,38,7,10,37,84,84,84,84,85,86,84,84,84,84,84,85,86,84,84,84,84,84,85,86,84,
94,25,43,92,59,59,59,94,101,43,98,19,20,20,20,20,21,19,20,20,20,20,20,21,19,20,20,20,20,20,21,19,20,20,20,20,20,21,19,20,20,20,20,20,21,19,20,20,20,20,20,21,19,20,20,20,20,20,21,19,20,
84,38,53,92,59,59,59,94,101,43,101,41,34,34,34,34,57,26,34,34,34,34,34,57,26,34,34,34,34,34,57,26,34,34,34,34,34,57,26,34,34,34,34,34,57,26,34,34,34,34,34,57,26,34,34,34,34,34,57,26,34,
20,21,125,92,59,59,59,94,101,43,101,41,34,34,34,34,42,41,34,34,34,34,34,42,41,34,34,34,34,34,42,41,34,34,34,34,34,42,41,34,34,34,34,34,42,41,34,34,34,34,34,42,41,34,34,34,34,34,42,41,34
</data>
 </layer>
</map>
