<?xml version="1.0" encoding="UTF-8"?>
<map version="1.10" tiledversion="1.11.2" orientation="orthogonal" renderorder="right-down" width="29" height="30" tilewidth="16" tileheight="16" infinite="0" nextlayerid="2" nextobjectid="1">
 <tileset firstgid="1" name="tiles" tilewidth="16" tileheight="16" tilecount="228" columns="16">
  <image source="cc.png" width="256" height="240"/>
  <tile id="3">
   <objectgroup draworder="index" id="2">
    <object id="1" x="0" y="0">
     <polygon points="0,0 16,0 16,16 0,16"/>
    </object>
   </objectgroup>
   <animation>
    <frame tileid="13" duration="70"/>
    <frame tileid="13" duration="70"/>
    <frame tileid="13" duration="70"/>
    <frame tileid="13" duration="70"/>
    <frame tileid="13" duration="70"/>
    <frame tileid="13" duration="70"/>
    <frame tileid="13" duration="70"/>
    <frame tileid="13" duration="70"/>
    <frame tileid="13" duration="70"/>
    <frame tileid="13" duration="70"/>
    <frame tileid="3" duration="70"/>
    <frame tileid="13" duration="70"/>
   </animation>
  </tile>
  <tile id="4">
   <objectgroup draworder="index" id="2">
    <object id="1" x="0" y="0">
     <polygon points="0,0 16,0 16,16 0,16"/>
    </object>
   </objectgroup>
   <animation>
    <frame tileid="14" duration="70"/>
    <frame tileid="14" duration="70"/>
    <frame tileid="14" duration="70"/>
    <frame tileid="14" duration="70"/>
    <frame tileid="14" duration="70"/>
    <frame tileid="14" duration="70"/>
    <frame tileid="14" duration="70"/>
    <frame tileid="14" duration="70"/>
    <frame tileid="14" duration="70"/>
    <frame tileid="14" duration="70"/>
    <frame tileid="4" duration="70"/>
    <frame tileid="14" duration="70"/>
   </animation>
  </tile>
  <tile id="100">
   <objectgroup draworder="index" id="2">
    <object id="1" x="0" y="0">
     <polygon points="0,0 16,0 16,16 0,16"/>
    </object>
   </objectgroup>
   <animation>
    <frame tileid="106" duration="70"/>
    <frame tileid="106" duration="70"/>
    <frame tileid="106" duration="70"/>
    <frame tileid="106" duration="70"/>
    <frame tileid="106" duration="70"/>
    <frame tileid="106" duration="70"/>
    <frame tileid="106" duration="70"/>
    <frame tileid="106" duration="70"/>
    <frame tileid="106" duration="70"/>
    <frame tileid="106" duration="70"/>
    <frame tileid="100" duration="70"/>
    <frame tileid="106" duration="70"/>
   </animation>
  </tile>
  <tile id="42">
   <objectgroup draworder="index" id="2">
    <object id="1" x="0" y="0">
     <polygon points="0,0 16,0 16,16 0,16"/>
    </object>
   </objectgroup>
   <animation>
    <frame tileid="49" duration="70"/>
    <frame tileid="49" duration="70"/>
    <frame tileid="49" duration="70"/>
    <frame tileid="49" duration="70"/>
    <frame tileid="49" duration="70"/>
    <frame tileid="49" duration="70"/>
    <frame tileid="49" duration="70"/>
    <frame tileid="49" duration="70"/>
    <frame tileid="49" duration="70"/>
    <frame tileid="49" duration="70"/>
    <frame tileid="42" duration="70"/>
    <frame tileid="49" duration="70"/>
   </animation>
  </tile>
  <tile id="96">
   <animation>
    <frame tileid="104" duration="70"/>
    <frame tileid="104" duration="70"/>
    <frame tileid="104" duration="70"/>
    <frame tileid="104" duration="70"/>
    <frame tileid="104" duration="70"/>
    <frame tileid="104" duration="70"/>
    <frame tileid="104" duration="70"/>
    <frame tileid="104" duration="70"/>
    <frame tileid="104" duration="70"/>
    <frame tileid="104" duration="70"/>
    <frame tileid="96" duration="70"/>
    <frame tileid="104" duration="70"/>
   </animation>
  </tile>
  <tile id="1">
   <objectgroup draworder="index" id="2">
    <object id="1" x="0" y="0">
     <polygon points="0,0 16,0 16,16 0,16"/>
    </object>
   </objectgroup>
   <animation>
    <frame tileid="11" duration="70"/>
    <frame tileid="11" duration="70"/>
    <frame tileid="11" duration="70"/>
    <frame tileid="11" duration="70"/>
    <frame tileid="11" duration="70"/>
    <frame tileid="11" duration="70"/>
    <frame tileid="11" duration="70"/>
    <frame tileid="11" duration="70"/>
    <frame tileid="11" duration="70"/>
    <frame tileid="11" duration="70"/>
    <frame tileid="1" duration="70"/>
    <frame tileid="11" duration="70"/>
   </animation>
  </tile>
  <tile id="2">
   <objectgroup draworder="index" id="2">
    <object id="1" x="0" y="0">
     <polygon points="0,0 16,0 16,16 0,16"/>
    </object>
   </objectgroup>
   <animation>
    <frame tileid="12" duration="70"/>
    <frame tileid="12" duration="70"/>
    <frame tileid="12" duration="70"/>
    <frame tileid="12" duration="70"/>
    <frame tileid="12" duration="70"/>
    <frame tileid="12" duration="70"/>
    <frame tileid="12" duration="70"/>
    <frame tileid="12" duration="70"/>
    <frame tileid="12" duration="70"/>
    <frame tileid="12" duration="70"/>
    <frame tileid="2" duration="70"/>
    <frame tileid="12" duration="70"/>
   </animation>
  </tile>
  <tile id="24">
   <objectgroup draworder="index" id="2">
    <object id="1" x="0" y="0">
     <polygon points="0,0 16,0 16,16 0,16"/>
    </object>
   </objectgroup>
   <animation>
    <frame tileid="31" duration="70"/>
    <frame tileid="31" duration="70"/>
    <frame tileid="31" duration="70"/>
    <frame tileid="31" duration="70"/>
    <frame tileid="31" duration="70"/>
    <frame tileid="31" duration="70"/>
    <frame tileid="31" duration="70"/>
    <frame tileid="31" duration="70"/>
    <frame tileid="31" duration="70"/>
    <frame tileid="31" duration="70"/>
    <frame tileid="24" duration="70"/>
    <frame tileid="31" duration="70"/>
   </animation>
  </tile>
  <tile id="99">
   <objectgroup draworder="index" id="2">
    <object id="1" x="0" y="0">
     <polygon points="0,0 16,0 16,16 0,16"/>
    </object>
   </objectgroup>
   <animation>
    <frame tileid="105" duration="70"/>
    <frame tileid="105" duration="70"/>
    <frame tileid="105" duration="70"/>
    <frame tileid="105" duration="70"/>
    <frame tileid="105" duration="70"/>
    <frame tileid="105" duration="70"/>
    <frame tileid="105" duration="70"/>
    <frame tileid="105" duration="70"/>
    <frame tileid="105" duration="70"/>
    <frame tileid="105" duration="70"/>
    <frame tileid="99" duration="70"/>
    <frame tileid="105" duration="70"/>
   </animation>
  </tile>
  <tile id="101">
   <objectgroup draworder="index" id="3">
    <object id="2" x="0" y="0">
     <polygon points="0,0 16,0 16,16 0,16"/>
    </object>
   </objectgroup>
  </tile>
  <tile id="95">
   <objectgroup draworder="index" id="2">
    <object id="1" x="0" y="0">
     <polygon points="0,0 16,0 16,16 0,16"/>
    </object>
   </objectgroup>
  </tile>
  <tile id="16">
   <objectgroup draworder="index" id="2">
    <object id="1" x="0" y="0">
     <polygon points="0,0 16,0 16,16 0,16"/>
    </object>
   </objectgroup>
   <animation>
    <frame tileid="26" duration="70"/>
    <frame tileid="26" duration="70"/>
    <frame tileid="26" duration="70"/>
    <frame tileid="26" duration="70"/>
    <frame tileid="26" duration="70"/>
    <frame tileid="26" duration="70"/>
    <frame tileid="26" duration="70"/>
    <frame tileid="26" duration="70"/>
    <frame tileid="26" duration="70"/>
    <frame tileid="26" duration="70"/>
    <frame tileid="16" duration="70"/>
    <frame tileid="26" duration="70"/>
   </animation>
  </tile>
  <tile id="17">
   <objectgroup draworder="index" id="2">
    <object id="1" x="0" y="0">
     <polygon points="0,0 16,0 16,16 0,16"/>
    </object>
   </objectgroup>
  </tile>
  <tile id="22">
   <objectgroup draworder="index" id="2">
    <object id="1" x="0" y="0">
     <polygon points="0,0 16,0 16,16 0,16"/>
    </object>
   </objectgroup>
  </tile>
  <tile id="23">
   <objectgroup draworder="index" id="2">
    <object id="1" x="0" y="0">
     <polygon points="0,0 16,0 16,16 0,16"/>
    </object>
   </objectgroup>
  </tile>
  <tile id="73">
   <objectgroup draworder="index" id="2">
    <object id="1" x="0" y="0">
     <polygon points="0,0 16,0 16,16 0,16"/>
    </object>
   </objectgroup>
  </tile>
  <tile id="83">
   <objectgroup draworder="index" id="2">
    <object id="1" x="0" y="0">
     <polygon points="0,0 16,0 16,16 0,16"/>
    </object>
   </objectgroup>
  </tile>
  <tile id="74">
   <objectgroup draworder="index" id="2">
    <object id="1" x="0" y="0">
     <polygon points="0,0 16,0 16,16 0,16"/>
    </object>
   </objectgroup>
  </tile>
  <tile id="5">
   <objectgroup draworder="index" id="2">
    <object id="1" x="0" y="0">
     <polygon points="0,0 16,0 16,16 0,16"/>
    </object>
   </objectgroup>
  </tile>
  <tile id="6">
   <objectgroup draworder="index" id="2">
    <object id="1" x="0" y="0">
     <polygon points="0,0 16,0 16,16 0,16"/>
    </object>
   </objectgroup>
  </tile>
  <tile id="52">
   <objectgroup draworder="index" id="2">
    <object id="1" x="0" y="0">
     <polygon points="0,0 16,0 16,16 0,16"/>
    </object>
   </objectgroup>
  </tile>
  <tile id="8">
   <objectgroup draworder="index" id="2">
    <object id="1" x="0" y="0">
     <polygon points="0,0 16,0 16,16 0,16"/>
    </object>
   </objectgroup>
  </tile>
  <tile id="9">
   <objectgroup draworder="index" id="2">
    <object id="1" x="0" y="0">
     <polygon points="0,0 16,0 16,16 0,16"/>
    </object>
   </objectgroup>
  </tile>
  <tile id="66">
   <objectgroup draworder="index" id="2">
    <object id="1" x="0" y="0">
     <polygon points="0,0 16,0 16,16 0,16"/>
    </object>
   </objectgroup>
  </tile>
  <tile id="68">
   <objectgroup draworder="index" id="2">
    <object id="1" x="0" y="0">
     <polygon points="0,0 16,0 16,16 0,16"/>
    </object>
   </objectgroup>
  </tile>
  <tile id="10">
   <objectgroup draworder="index" id="2">
    <object id="1" x="0" y="0">
     <polygon points="0,0 16,0 16,16 0,16"/>
    </object>
   </objectgroup>
  </tile>
  <tile id="15">
   <objectgroup draworder="index" id="2">
    <object id="1" x="0" y="0">
     <polygon points="0,0 16,0 16,16 0,16"/>
    </object>
   </objectgroup>
  </tile>
  <tile id="34">
   <objectgroup draworder="index" id="2">
    <object id="1" x="0" y="0">
     <polygon points="0,0 16,0 16,16 0,16"/>
    </object>
   </objectgroup>
  </tile>
  <tile id="51">
   <objectgroup draworder="index" id="2">
    <object id="1" x="0" y="0">
     <polygon points="0,0 16,0 16,16 0,16"/>
    </object>
   </objectgroup>
   <animation>
    <frame tileid="60" duration="70"/>
    <frame tileid="60" duration="70"/>
    <frame tileid="60" duration="70"/>
    <frame tileid="60" duration="70"/>
    <frame tileid="60" duration="70"/>
    <frame tileid="60" duration="70"/>
    <frame tileid="60" duration="70"/>
    <frame tileid="60" duration="70"/>
    <frame tileid="60" duration="70"/>
    <frame tileid="60" duration="70"/>
    <frame tileid="51" duration="70"/>
    <frame tileid="60" duration="70"/>
   </animation>
  </tile>
  <tile id="38">
   <animation>
    <frame tileid="45" duration="70"/>
    <frame tileid="45" duration="70"/>
    <frame tileid="45" duration="70"/>
    <frame tileid="147" duration="70"/>
    <frame tileid="147" duration="70"/>
    <frame tileid="147" duration="70"/>
    <frame tileid="150" duration="70"/>
    <frame tileid="150" duration="70"/>
    <frame tileid="150" duration="70"/>
    <frame tileid="150" duration="70"/>
    <frame tileid="38" duration="70"/>
    <frame tileid="150" duration="70"/>
   </animation>
  </tile>
  <tile id="39">
   <animation>
    <frame tileid="46" duration="70"/>
    <frame tileid="46" duration="70"/>
    <frame tileid="46" duration="70"/>
    <frame tileid="148" duration="70"/>
    <frame tileid="148" duration="70"/>
    <frame tileid="148" duration="70"/>
    <frame tileid="151" duration="70"/>
    <frame tileid="151" duration="70"/>
    <frame tileid="151" duration="70"/>
    <frame tileid="151" duration="70"/>
    <frame tileid="39" duration="70"/>
    <frame tileid="151" duration="70"/>
   </animation>
  </tile>
  <tile id="35">
   <objectgroup draworder="index" id="2">
    <object id="1" x="0" y="0">
     <polygon points="0,0 16,0 16,16 0,16"/>
    </object>
   </objectgroup>
  </tile>
  <tile id="72">
   <objectgroup draworder="index" id="2">
    <object id="1" x="0" y="0">
     <polygon points="0,0 16,0 16,16 0,16"/>
    </object>
   </objectgroup>
   <animation>
    <frame tileid="77" duration="70"/>
    <frame tileid="77" duration="70"/>
    <frame tileid="77" duration="70"/>
    <frame tileid="77" duration="70"/>
    <frame tileid="77" duration="70"/>
    <frame tileid="77" duration="70"/>
    <frame tileid="77" duration="70"/>
    <frame tileid="77" duration="70"/>
    <frame tileid="77" duration="70"/>
    <frame tileid="77" duration="70"/>
    <frame tileid="72" duration="70"/>
    <frame tileid="77" duration="70"/>
   </animation>
  </tile>
  <tile id="80">
   <animation>
    <frame tileid="88" duration="70"/>
    <frame tileid="88" duration="70"/>
    <frame tileid="88" duration="70"/>
    <frame tileid="159" duration="70"/>
    <frame tileid="159" duration="70"/>
    <frame tileid="159" duration="70"/>
    <frame tileid="162" duration="70"/>
    <frame tileid="162" duration="70"/>
    <frame tileid="162" duration="70"/>
    <frame tileid="162" duration="70"/>
    <frame tileid="80" duration="70"/>
    <frame tileid="162" duration="70"/>
   </animation>
  </tile>
  <tile id="81">
   <animation>
    <frame tileid="89" duration="70"/>
    <frame tileid="89" duration="70"/>
    <frame tileid="89" duration="70"/>
    <frame tileid="160" duration="70"/>
    <frame tileid="160" duration="70"/>
    <frame tileid="160" duration="70"/>
    <frame tileid="163" duration="70"/>
    <frame tileid="163" duration="70"/>
    <frame tileid="163" duration="70"/>
    <frame tileid="163" duration="70"/>
    <frame tileid="81" duration="70"/>
    <frame tileid="163" duration="70"/>
   </animation>
  </tile>
  <tile id="208">
   <objectgroup draworder="index" id="2">
    <object id="1" x="0" y="0">
     <polygon points="0,0 16,0 16,16 0,16"/>
    </object>
   </objectgroup>
  </tile>
  <tile id="209">
   <objectgroup draworder="index" id="2">
    <object id="1" x="0" y="0">
     <polygon points="0,0 16,0 16,16 0,16"/>
    </object>
   </objectgroup>
  </tile>
  <tile id="190">
   <animation>
    <frame tileid="194" duration="70"/>
    <frame tileid="194" duration="70"/>
    <frame tileid="194" duration="70"/>
    <frame tileid="198" duration="70"/>
    <frame tileid="198" duration="70"/>
    <frame tileid="198" duration="70"/>
    <frame tileid="202" duration="70"/>
    <frame tileid="202" duration="70"/>
    <frame tileid="202" duration="70"/>
    <frame tileid="202" duration="70"/>
    <frame tileid="190" duration="70"/>
    <frame tileid="202" duration="70"/>
   </animation>
  </tile>
  <tile id="191">
   <animation>
    <frame tileid="195" duration="70"/>
    <frame tileid="195" duration="70"/>
    <frame tileid="195" duration="70"/>
    <frame tileid="199" duration="70"/>
    <frame tileid="199" duration="70"/>
    <frame tileid="199" duration="70"/>
    <frame tileid="203" duration="70"/>
    <frame tileid="203" duration="70"/>
    <frame tileid="203" duration="70"/>
    <frame tileid="203" duration="70"/>
    <frame tileid="191" duration="70"/>
    <frame tileid="203" duration="70"/>
   </animation>
  </tile>
  <tile id="71">
   <objectgroup draworder="index" id="2">
    <object id="1" x="0" y="0">
     <polygon points="0,0 16,0 16,16 0,16"/>
    </object>
   </objectgroup>
   <animation>
    <frame tileid="76" duration="70"/>
    <frame tileid="76" duration="70"/>
    <frame tileid="76" duration="70"/>
    <frame tileid="76" duration="70"/>
    <frame tileid="76" duration="70"/>
    <frame tileid="76" duration="70"/>
    <frame tileid="76" duration="70"/>
    <frame tileid="76" duration="70"/>
    <frame tileid="76" duration="70"/>
    <frame tileid="76" duration="70"/>
    <frame tileid="71" duration="70"/>
    <frame tileid="76" duration="70"/>
   </animation>
  </tile>
  <tile id="192">
   <animation>
    <frame tileid="196" duration="70"/>
    <frame tileid="196" duration="70"/>
    <frame tileid="196" duration="70"/>
    <frame tileid="200" duration="70"/>
    <frame tileid="200" duration="70"/>
    <frame tileid="200" duration="70"/>
    <frame tileid="204" duration="70"/>
    <frame tileid="204" duration="70"/>
    <frame tileid="204" duration="70"/>
    <frame tileid="204" duration="70"/>
    <frame tileid="192" duration="70"/>
    <frame tileid="204" duration="70"/>
   </animation>
  </tile>
  <tile id="193">
   <animation>
    <frame tileid="197" duration="70"/>
    <frame tileid="197" duration="70"/>
    <frame tileid="197" duration="70"/>
    <frame tileid="201" duration="70"/>
    <frame tileid="201" duration="70"/>
    <frame tileid="201" duration="70"/>
    <frame tileid="205" duration="70"/>
    <frame tileid="205" duration="70"/>
    <frame tileid="205" duration="70"/>
    <frame tileid="205" duration="70"/>
    <frame tileid="193" duration="70"/>
    <frame tileid="205" duration="70"/>
   </animation>
  </tile>
  <tile id="54">
   <animation>
    <frame tileid="61" duration="70"/>
    <frame tileid="61" duration="70"/>
    <frame tileid="61" duration="70"/>
    <frame tileid="153" duration="70"/>
    <frame tileid="153" duration="70"/>
    <frame tileid="153" duration="70"/>
    <frame tileid="155" duration="70"/>
    <frame tileid="155" duration="70"/>
    <frame tileid="155" duration="70"/>
    <frame tileid="155" duration="70"/>
    <frame tileid="54" duration="70"/>
    <frame tileid="155" duration="70"/>
   </animation>
  </tile>
  <tile id="55">
   <animation>
    <frame tileid="62" duration="70"/>
    <frame tileid="62" duration="70"/>
    <frame tileid="62" duration="70"/>
    <frame tileid="154" duration="70"/>
    <frame tileid="154" duration="70"/>
    <frame tileid="154" duration="70"/>
    <frame tileid="156" duration="70"/>
    <frame tileid="156" duration="70"/>
    <frame tileid="156" duration="70"/>
    <frame tileid="156" duration="70"/>
    <frame tileid="55" duration="70"/>
    <frame tileid="156" duration="70"/>
   </animation>
  </tile>
  <tile id="92">
   <objectgroup draworder="index" id="2">
    <object id="1" x="0" y="0">
     <polygon points="0,0 16,0 16,16 0,16"/>
    </object>
   </objectgroup>
   <animation>
    <frame tileid="102" duration="70"/>
    <frame tileid="102" duration="70"/>
    <frame tileid="102" duration="70"/>
    <frame tileid="102" duration="70"/>
    <frame tileid="102" duration="70"/>
    <frame tileid="102" duration="70"/>
    <frame tileid="102" duration="70"/>
    <frame tileid="102" duration="70"/>
    <frame tileid="102" duration="70"/>
    <frame tileid="102" duration="70"/>
    <frame tileid="92" duration="70"/>
    <frame tileid="102" duration="70"/>
   </animation>
  </tile>
  <tile id="37">
   <objectgroup draworder="index" id="2">
    <object id="1" x="0" y="0">
     <polygon points="0,0 16,0 16,16 0,16"/>
    </object>
   </objectgroup>
  </tile>
  <tile id="36">
   <objectgroup draworder="index" id="2">
    <object id="1" x="0" y="0">
     <polygon points="0,0 16,0 16,16 0,16"/>
    </object>
   </objectgroup>
  </tile>
  <tile id="124">
   <objectgroup draworder="index" id="2">
    <object id="1" x="0" y="0">
     <polygon points="0,0 16,0 16,16 0,16"/>
    </object>
   </objectgroup>
   <animation>
    <frame tileid="183" duration="70"/>
    <frame tileid="183" duration="70"/>
    <frame tileid="183" duration="70"/>
    <frame tileid="183" duration="70"/>
    <frame tileid="183" duration="70"/>
    <frame tileid="183" duration="70"/>
    <frame tileid="183" duration="70"/>
    <frame tileid="183" duration="70"/>
    <frame tileid="183" duration="70"/>
    <frame tileid="183" duration="70"/>
    <frame tileid="124" duration="70"/>
    <frame tileid="183" duration="70"/>
   </animation>
  </tile>
  <tile id="69">
   <objectgroup draworder="index" id="2">
    <object id="1" x="0" y="0">
     <properties>
      <property name="type" type="int" value="4"/>
     </properties>
     <polygon points="0,0 16,0 16,16 0,16"/>
    </object>
   </objectgroup>
  </tile>
  <tile id="21">
   <objectgroup draworder="index" id="2">
    <object id="1" x="0" y="0">
     <polygon points="0,0 16,0 16,16 0,16"/>
    </object>
   </objectgroup>
   <animation>
    <frame tileid="30" duration="70"/>
    <frame tileid="30" duration="70"/>
    <frame tileid="30" duration="70"/>
    <frame tileid="30" duration="70"/>
    <frame tileid="30" duration="70"/>
    <frame tileid="30" duration="70"/>
    <frame tileid="30" duration="70"/>
    <frame tileid="30" duration="70"/>
    <frame tileid="30" duration="70"/>
    <frame tileid="30" duration="70"/>
    <frame tileid="21" duration="70"/>
    <frame tileid="30" duration="70"/>
   </animation>
  </tile>
  <tile id="43">
   <animation>
    <frame tileid="50" duration="70"/>
    <frame tileid="50" duration="70"/>
    <frame tileid="50" duration="70"/>
    <frame tileid="149" duration="70"/>
    <frame tileid="149" duration="70"/>
    <frame tileid="149" duration="70"/>
    <frame tileid="152" duration="70"/>
    <frame tileid="152" duration="70"/>
    <frame tileid="152" duration="70"/>
    <frame tileid="152" duration="70"/>
    <frame tileid="43" duration="70"/>
    <frame tileid="152" duration="70"/>
   </animation>
  </tile>
  <tile id="128">
   <animation>
    <frame tileid="135" duration="70"/>
    <frame tileid="135" duration="70"/>
    <frame tileid="135" duration="70"/>
    <frame tileid="176" duration="70"/>
    <frame tileid="176" duration="70"/>
    <frame tileid="176" duration="70"/>
    <frame tileid="180" duration="70"/>
    <frame tileid="180" duration="70"/>
    <frame tileid="180" duration="70"/>
    <frame tileid="180" duration="70"/>
    <frame tileid="128" duration="70"/>
    <frame tileid="180" duration="70"/>
   </animation>
  </tile>
  <tile id="214">
   <animation>
    <frame tileid="217" duration="70"/>
    <frame tileid="217" duration="70"/>
    <frame tileid="217" duration="70"/>
    <frame tileid="224" duration="70"/>
    <frame tileid="224" duration="70"/>
    <frame tileid="224" duration="70"/>
    <frame tileid="225" duration="70"/>
    <frame tileid="225" duration="70"/>
    <frame tileid="225" duration="70"/>
    <frame tileid="225" duration="70"/>
    <frame tileid="214" duration="70"/>
    <frame tileid="225" duration="70"/>
   </animation>
  </tile>
  <tile id="127">
   <animation>
    <frame tileid="134" duration="70"/>
    <frame tileid="134" duration="70"/>
    <frame tileid="134" duration="70"/>
    <frame tileid="175" duration="70"/>
    <frame tileid="175" duration="70"/>
    <frame tileid="175" duration="70"/>
    <frame tileid="179" duration="70"/>
    <frame tileid="179" duration="70"/>
    <frame tileid="179" duration="70"/>
    <frame tileid="179" duration="70"/>
    <frame tileid="127" duration="70"/>
    <frame tileid="179" duration="70"/>
   </animation>
  </tile>
  <tile id="33">
   <animation>
    <frame tileid="44" duration="70"/>
    <frame tileid="44" duration="70"/>
    <frame tileid="44" duration="70"/>
    <frame tileid="44" duration="70"/>
    <frame tileid="44" duration="70"/>
    <frame tileid="44" duration="70"/>
    <frame tileid="44" duration="70"/>
    <frame tileid="44" duration="70"/>
    <frame tileid="44" duration="70"/>
    <frame tileid="44" duration="70"/>
    <frame tileid="33" duration="70"/>
    <frame tileid="44" duration="70"/>
   </animation>
  </tile>
  <tile id="215">
   <animation>
    <frame tileid="218" duration="70"/>
    <frame tileid="218" duration="70"/>
    <frame tileid="218" duration="70"/>
    <frame tileid="218" duration="70"/>
    <frame tileid="218" duration="70"/>
    <frame tileid="218" duration="70"/>
    <frame tileid="218" duration="70"/>
    <frame tileid="218" duration="70"/>
    <frame tileid="218" duration="70"/>
    <frame tileid="218" duration="70"/>
    <frame tileid="215" duration="70"/>
    <frame tileid="218" duration="70"/>
   </animation>
  </tile>
  <tile id="216">
   <animation>
    <frame tileid="219" duration="70"/>
    <frame tileid="219" duration="70"/>
    <frame tileid="219" duration="70"/>
    <frame tileid="219" duration="70"/>
    <frame tileid="219" duration="70"/>
    <frame tileid="219" duration="70"/>
    <frame tileid="219" duration="70"/>
    <frame tileid="219" duration="70"/>
    <frame tileid="219" duration="70"/>
    <frame tileid="219" duration="70"/>
    <frame tileid="216" duration="70"/>
    <frame tileid="219" duration="70"/>
   </animation>
  </tile>
  <tile id="67">
   <objectgroup draworder="index" id="3">
    <object id="2" x="0" y="0">
     <polygon points="0,0 16,0 16,16 0,16"/>
    </object>
   </objectgroup>
  </tile>
  <tile id="132">
   <animation>
    <frame tileid="137" duration="70"/>
    <frame tileid="137" duration="70"/>
    <frame tileid="137" duration="70"/>
    <frame tileid="178" duration="70"/>
    <frame tileid="178" duration="70"/>
    <frame tileid="178" duration="70"/>
    <frame tileid="182" duration="70"/>
    <frame tileid="182" duration="70"/>
    <frame tileid="182" duration="70"/>
    <frame tileid="182" duration="70"/>
    <frame tileid="132" duration="70"/>
    <frame tileid="182" duration="70"/>
   </animation>
  </tile>
  <tile id="220">
   <animation>
    <frame tileid="223" duration="70"/>
    <frame tileid="223" duration="70"/>
    <frame tileid="223" duration="70"/>
    <frame tileid="226" duration="70"/>
    <frame tileid="226" duration="70"/>
    <frame tileid="226" duration="70"/>
    <frame tileid="227" duration="70"/>
    <frame tileid="227" duration="70"/>
    <frame tileid="227" duration="70"/>
    <frame tileid="227" duration="70"/>
    <frame tileid="220" duration="70"/>
    <frame tileid="227" duration="70"/>
   </animation>
  </tile>
  <tile id="131">
   <animation>
    <frame tileid="136" duration="70"/>
    <frame tileid="136" duration="70"/>
    <frame tileid="136" duration="70"/>
    <frame tileid="177" duration="70"/>
    <frame tileid="177" duration="70"/>
    <frame tileid="177" duration="70"/>
    <frame tileid="181" duration="70"/>
    <frame tileid="181" duration="70"/>
    <frame tileid="181" duration="70"/>
    <frame tileid="181" duration="70"/>
    <frame tileid="131" duration="70"/>
    <frame tileid="181" duration="70"/>
   </animation>
  </tile>
  <tile id="64">
   <animation>
    <frame tileid="75" duration="70"/>
    <frame tileid="75" duration="70"/>
    <frame tileid="75" duration="70"/>
    <frame tileid="157" duration="70"/>
    <frame tileid="157" duration="70"/>
    <frame tileid="157" duration="70"/>
    <frame tileid="158" duration="70"/>
    <frame tileid="158" duration="70"/>
    <frame tileid="158" duration="70"/>
    <frame tileid="158" duration="70"/>
    <frame tileid="64" duration="70"/>
    <frame tileid="158" duration="70"/>
   </animation>
  </tile>
  <tile id="112">
   <properties>
    <property name="spikes" type="int" value="2"/>
   </properties>
  </tile>
  <tile id="114">
   <properties>
    <property name="spikes" type="int" value="3"/>
   </properties>
  </tile>
  <tile id="139">
   <properties>
    <property name="spikes" type="int" value="0"/>
   </properties>
  </tile>
  <tile id="113">
   <objectgroup draworder="index" id="2">
    <object id="1" x="0" y="0">
     <polygon points="0,0 16,0 16,16 0,16"/>
    </object>
   </objectgroup>
   <animation>
    <frame tileid="113" duration="24"/>
    <frame tileid="140" duration="24"/>
    <frame tileid="141" duration="24"/>
    <frame tileid="142" duration="24"/>
    <frame tileid="143" duration="24"/>
    <frame tileid="144" duration="24"/>
    <frame tileid="145" duration="24"/>
    <frame tileid="146" duration="24"/>
   </animation>
  </tile>
  <tile id="140">
   <objectgroup draworder="index" id="2">
    <object id="1" x="0" y="0">
     <polygon points="0,0 16,0 16,16 0,16"/>
    </object>
   </objectgroup>
   <animation>
    <frame tileid="113" duration="24"/>
    <frame tileid="146" duration="24"/>
    <frame tileid="145" duration="24"/>
    <frame tileid="144" duration="24"/>
    <frame tileid="143" duration="24"/>
    <frame tileid="142" duration="24"/>
    <frame tileid="141" duration="24"/>
    <frame tileid="140" duration="24"/>
   </animation>
  </tile>
 </tileset>
 <layer id="1" name="layer" width="29" height="30">
  <data encoding="csv">
4,5,101,43,97,101,43,17,17,17,17,17,17,17,17,17,17,17,17,17,17,17,17,17,18,100,4,5,4,
2,3,101,43,102,101,43,1,188,1,188,1,188,1,188,1,23,24,188,1,188,1,188,1,25,100,2,3,2,
4,5,101,43,97,101,43,1,188,74,84,84,84,75,188,1,23,24,188,1,188,1,188,1,25,100,4,5,4,
2,3,101,43,6,7,53,1,74,9,102,97,102,10,75,1,23,24,188,67,69,1,74,84,7,10,6,6,6,
4,5,11,16,17,17,35,1,52,17,17,17,17,17,35,1,52,35,188,52,35,1,52,17,17,17,17,18,96,
6,6,7,24,188,1,188,1,188,39,40,1,188,36,36,1,188,1,188,1,188,1,188,207,208,73,188,25,100,
17,17,17,35,188,1,188,1,188,81,82,1,188,209,210,1,188,1,188,1,188,1,188,191,192,72,188,25,100,
188,1,188,1,188,1,188,1,188,81,82,1,188,209,210,1,188,1,188,1,188,1,188,193,194,72,188,25,100,
188,1,188,1,188,1,188,1,188,55,56,1,188,209,210,1,188,1,188,1,188,1,73,211,212,93,188,25,100,
84,84,84,84,84,84,84,84,75,1,1,74,38,37,38,37,84,84,84,84,84,75,93,74,84,75,188,25,100,
3,2,3,2,3,2,3,97,24,1,1,52,17,17,17,17,17,17,17,17,17,17,18,125,23,24,188,25,100,
5,4,5,4,5,4,5,102,24,1,1,1,188,1,188,1,188,1,188,1,188,73,25,43,23,24,188,25,100,
3,2,3,2,3,2,3,97,24,1,1,1,188,1,74,84,84,84,84,75,188,72,25,43,23,24,188,25,100,
5,4,5,4,5,4,5,102,24,70,70,74,84,75,9,102,97,102,97,24,188,93,52,35,23,24,188,25,100,
3,2,3,2,3,2,3,97,24,70,70,23,102,97,102,97,102,97,102,24,188,1,188,1,23,24,188,25,100,
5,4,5,4,5,4,5,102,24,70,70,23,97,102,97,102,97,102,97,24,73,74,75,1,23,24,188,25,100,
18,22,17,17,17,17,17,17,35,70,70,52,17,17,17,17,17,17,18,24,93,23,24,1,52,35,188,25,100,
101,43,1,44,1,44,1,44,1,1,1,1,44,1,44,1,44,1,25,24,188,23,24,1,188,1,188,25,100,
7,53,1,1,1,1,1,1,1,1,1,1,1,1,1,1,1,1,25,24,188,23,24,1,74,75,188,25,100,
17,35,1,1,1,213,214,1,1,1,1,1,1,213,214,1,1,1,25,24,188,23,24,1,23,24,188,25,100,
54,54,1,39,129,215,215,128,40,207,208,39,129,215,215,128,40,1,52,35,188,52,35,1,23,24,73,25,100,
54,54,1,81,34,216,217,34,82,97,97,81,34,216,217,34,82,1,1,1,188,1,188,1,23,24,72,25,100,
68,69,1,55,133,221,221,132,56,211,212,55,133,221,221,132,56,1,67,68,68,68,68,69,23,24,72,25,100,
23,24,1,1,1,222,223,1,1,1,1,1,1,222,223,1,1,1,23,24,2,3,2,3,23,24,72,25,100,
23,24,1,1,1,1,1,1,1,1,1,1,1,1,1,1,1,1,23,24,4,5,4,5,23,24,72,25,100,
23,24,1,65,1,65,1,65,113,74,75,115,65,1,65,1,65,1,23,24,2,3,2,3,23,24,72,25,100,
23,24,140,140,141,141,141,141,141,37,38,114,114,114,114,114,140,140,23,24,4,5,4,5,23,24,72,25,100,
23,24,6,6,6,6,6,6,6,6,6,6,6,6,6,6,6,6,23,24,2,3,2,3,23,24,72,25,100,
23,24,2,3,2,3,2,3,2,3,2,3,2,3,2,3,2,3,23,24,4,5,4,5,23,24,72,25,100,
23,24,4,5,4,5,4,5,4,5,4,5,4,5,4,5,4,5,23,24,2,3,2,3,23,24,72,25,100
</data>
 </layer>
</map>
