<?xml version="1.0" encoding="UTF-8"?>
<map version="1.10" tiledversion="1.11.2" orientation="orthogonal" renderorder="right-down" width="28" height="125" tilewidth="16" tileheight="16" infinite="0" nextlayerid="2" nextobjectid="1">
 <tileset firstgid="1" name="tiles" tilewidth="16" tileheight="16" tilecount="192" columns="14">
  <image source="pm.png" width="224" height="224"/>
  <tile id="2">
   <objectgroup draworder="index" id="2">
    <object id="1" x="0" y="0">
     <polygon points="0,0 16,0 16,16 0,16"/>
    </object>
   </objectgroup>
  </tile>
  <tile id="3">
   <objectgroup draworder="index" id="2">
    <object id="1" x="0" y="0">
     <polygon points="0,0 16,0 16,16 0,16"/>
    </object>
   </objectgroup>
  </tile>
  <tile id="4">
   <objectgroup draworder="index" id="2">
    <object id="1" x="0" y="0">
     <polygon points="0,0 16,0 16,16 0,16"/>
    </object>
   </objectgroup>
  </tile>
  <tile id="5">
   <objectgroup draworder="index" id="2">
    <object id="1" x="0" y="0">
     <polygon points="0,0 16,0 16,16 0,16"/>
    </object>
   </objectgroup>
  </tile>
  <tile id="7">
   <objectgroup draworder="index" id="2">
    <object id="1" x="0" y="0">
     <polygon points="0,0 16,0 16,16 0,16"/>
    </object>
   </objectgroup>
  </tile>
  <tile id="8">
   <objectgroup draworder="index" id="2">
    <object id="1" x="0" y="0">
     <polygon points="0,0 16,0 16,16 0,16"/>
    </object>
   </objectgroup>
  </tile>
  <tile id="9">
   <objectgroup draworder="index" id="2">
    <object id="1" x="0" y="0">
     <polygon points="0,0 16,0 16,16 0,16"/>
    </object>
   </objectgroup>
  </tile>
  <tile id="10">
   <objectgroup draworder="index" id="2">
    <object id="1" x="0" y="0">
     <polygon points="0,0 16,0 16,16 0,16"/>
    </object>
   </objectgroup>
  </tile>
  <tile id="11">
   <properties>
    <property name="spikes" type="int" value="1"/>
   </properties>
  </tile>
  <tile id="13">
   <objectgroup draworder="index" id="2">
    <object id="1" x="0" y="0">
     <polygon points="0,0 16,0 16,16 0,16"/>
    </object>
   </objectgroup>
  </tile>
  <tile id="14">
   <objectgroup draworder="index" id="2">
    <object id="1" x="0" y="0">
     <polygon points="0,0 16,0 16,16 0,16"/>
    </object>
   </objectgroup>
  </tile>
  <tile id="16">
   <objectgroup draworder="index" id="2">
    <object id="1" x="0" y="0">
     <polygon points="0,0 16,0 16,16 0,16"/>
    </object>
   </objectgroup>
  </tile>
  <tile id="17">
   <objectgroup draworder="index" id="2">
    <object id="1" x="0" y="0">
     <polygon points="0,0 16,0 16,16 0,16"/>
    </object>
   </objectgroup>
  </tile>
  <tile id="18">
   <objectgroup draworder="index" id="2">
    <object id="1" x="0" y="0">
     <polygon points="0,0 16,0 16,16 0,16"/>
    </object>
   </objectgroup>
  </tile>
  <tile id="19">
   <objectgroup draworder="index" id="2">
    <object id="1" x="0" y="0">
     <polygon points="0,0 16,0 16,16 0,16"/>
    </object>
   </objectgroup>
  </tile>
  <tile id="20">
   <objectgroup draworder="index" id="2">
    <object id="1" x="0" y="0">
     <polygon points="0,0 16,0 16,16 0,16"/>
    </object>
   </objectgroup>
  </tile>
  <tile id="21">
   <objectgroup draworder="index" id="2">
    <object id="1" x="0" y="0">
     <polygon points="0,0 16,0 16,16 0,16"/>
    </object>
   </objectgroup>
  </tile>
  <tile id="22">
   <objectgroup draworder="index" id="2">
    <object id="1" x="0" y="0">
     <polygon points="0,0 16,0 16,16 0,16"/>
    </object>
   </objectgroup>
  </tile>
  <tile id="23">
   <objectgroup draworder="index" id="2">
    <object id="1" x="0" y="0">
     <polygon points="0,0 16,0 16,16 0,16"/>
    </object>
   </objectgroup>
  </tile>
  <tile id="25">
   <objectgroup draworder="index" id="2">
    <object id="1" x="0" y="0">
     <polygon points="0,0 16,0 16,16 0,16"/>
    </object>
   </objectgroup>
  </tile>
  <tile id="26">
   <properties>
    <property name="spikes" type="int" value="3"/>
   </properties>
  </tile>
  <tile id="27">
   <properties>
    <property name="spikes" type="int" value="2"/>
   </properties>
  </tile>
  <tile id="28">
   <objectgroup draworder="index" id="2">
    <object id="1" x="0" y="0">
     <polygon points="0,0 16,0 16,16 0,16"/>
    </object>
   </objectgroup>
  </tile>
  <tile id="29">
   <objectgroup draworder="index" id="2">
    <object id="1" x="0" y="0">
     <polygon points="0,0 16,0 16,16 0,16"/>
    </object>
   </objectgroup>
  </tile>
  <tile id="30">
   <objectgroup draworder="index" id="2">
    <object id="1" x="0" y="0">
     <polygon points="0,0 16,0 16,16 0,16"/>
    </object>
   </objectgroup>
  </tile>
  <tile id="31">
   <objectgroup draworder="index" id="2">
    <object id="1" x="0" y="0">
     <polygon points="0,0 16,0 16,16 0,16"/>
    </object>
   </objectgroup>
  </tile>
  <tile id="32">
   <objectgroup draworder="index" id="2">
    <object id="1" x="0" y="0">
     <polygon points="0,0 16,0 16,16 0,16"/>
    </object>
   </objectgroup>
  </tile>
  <tile id="33">
   <objectgroup draworder="index" id="2">
    <object id="1" x="0" y="0">
     <polygon points="0,0 16,0 16,16 0,16"/>
    </object>
   </objectgroup>
  </tile>
  <tile id="34">
   <objectgroup draworder="index" id="2">
    <object id="1" x="0" y="0">
     <polygon points="0,0 16,0 16,16 0,16"/>
    </object>
   </objectgroup>
  </tile>
  <tile id="35">
   <objectgroup draworder="index" id="2">
    <object id="1" x="0" y="0">
     <polygon points="0,0 16,0 16,16 0,16"/>
    </object>
   </objectgroup>
  </tile>
  <tile id="36">
   <objectgroup draworder="index" id="2">
    <object id="1" x="0" y="0">
     <polygon points="0,0 16,0 16,16 0,16"/>
    </object>
   </objectgroup>
  </tile>
  <tile id="37">
   <objectgroup draworder="index" id="2">
    <object id="1" x="0" y="0">
     <polygon points="0,0 16,0 16,16 0,16"/>
    </object>
   </objectgroup>
  </tile>
  <tile id="38">
   <objectgroup draworder="index" id="2">
    <object id="1" x="0" y="0">
     <polygon points="0,0 16,0 16,16 0,16"/>
    </object>
   </objectgroup>
  </tile>
  <tile id="39">
   <objectgroup draworder="index" id="2">
    <object id="1" x="0" y="0">
     <polygon points="0,0 16,0 16,16 0,16"/>
    </object>
   </objectgroup>
  </tile>
  <tile id="42">
   <objectgroup draworder="index" id="2">
    <object id="1" x="0" y="0">
     <polygon points="0,0 16,0 16,16 0,16"/>
    </object>
   </objectgroup>
  </tile>
  <tile id="43">
   <properties>
    <property name="spikes" type="int" value="0"/>
   </properties>
  </tile>
  <tile id="44">
   <objectgroup draworder="index" id="2">
    <object id="1" x="0" y="0">
     <polygon points="0,0 16,0 16,16 0,16"/>
    </object>
   </objectgroup>
  </tile>
  <tile id="46">
   <objectgroup draworder="index" id="2">
    <object id="1" x="0" y="0">
     <polygon points="0,0 16,0 16,16 0,16"/>
    </object>
   </objectgroup>
  </tile>
  <tile id="47">
   <objectgroup draworder="index" id="2">
    <object id="1" x="0" y="0">
     <polygon points="0,0 16,0 16,16 0,16"/>
    </object>
   </objectgroup>
  </tile>
  <tile id="48">
   <objectgroup draworder="index" id="2">
    <object id="1" x="0" y="0">
     <polygon points="0,0 16,0 16,16 0,16"/>
    </object>
   </objectgroup>
  </tile>
  <tile id="49">
   <objectgroup draworder="index" id="2">
    <object id="1" x="0" y="0">
     <polygon points="0,0 16,0 16,16 0,16"/>
    </object>
   </objectgroup>
  </tile>
  <tile id="55">
   <objectgroup draworder="index" id="2">
    <object id="1" x="0" y="0">
     <polygon points="0,0 16,0 16,16 0,16"/>
    </object>
   </objectgroup>
  </tile>
  <tile id="59">
   <objectgroup draworder="index" id="2">
    <object id="1" x="0" y="0">
     <polygon points="0,0 16,0 16,16 0,16"/>
    </object>
   </objectgroup>
  </tile>
  <tile id="61">
   <objectgroup draworder="index" id="3">
    <object id="2" x="0" y="0">
     <polygon points="0,0 16,0 16,16 0,16"/>
    </object>
   </objectgroup>
  </tile>
  <tile id="62">
   <properties>
    <property name="spikes" type="int" value="1"/>
   </properties>
  </tile>
  <tile id="64">
   <objectgroup draworder="index" id="2">
    <object id="1" x="0" y="0">
     <polygon points="0,0 16,0 16,16 0,16"/>
    </object>
   </objectgroup>
  </tile>
  <tile id="65">
   <properties>
    <property name="spikes" type="int" value="0"/>
   </properties>
  </tile>
  <tile id="68">
   <objectgroup draworder="index" id="2">
    <object id="1" x="0" y="0">
     <polygon points="0,0 16,0 16,16 0,16"/>
    </object>
   </objectgroup>
  </tile>
  <tile id="69">
   <objectgroup draworder="index" id="2">
    <object id="1" x="0" y="0">
     <polygon points="0,0 16,0 16,16 0,16"/>
    </object>
   </objectgroup>
  </tile>
  <tile id="71">
   <objectgroup draworder="index" id="2">
    <object id="1" x="0" y="0">
     <polygon points="0,0 16,0 16,16 0,16"/>
    </object>
   </objectgroup>
  </tile>
  <tile id="72">
   <objectgroup draworder="index" id="2">
    <object id="1" x="0" y="0">
     <polygon points="0,0 16,0 16,16 0,16"/>
    </object>
   </objectgroup>
  </tile>
  <tile id="73">
   <objectgroup draworder="index" id="2">
    <object id="1" x="0" y="0">
     <polygon points="0,0 16,0 16,16 0,16"/>
    </object>
   </objectgroup>
  </tile>
  <tile id="79">
   <objectgroup draworder="index" id="2">
    <object id="1" x="0" y="0">
     <polygon points="0,0 16,0 16,16 0,16"/>
    </object>
   </objectgroup>
  </tile>
  <tile id="80">
   <objectgroup draworder="index" id="2">
    <object id="1" x="0" y="0">
     <polygon points="0,0 16,0 16,16 0,16"/>
    </object>
   </objectgroup>
  </tile>
  <tile id="81">
   <objectgroup draworder="index" id="2">
    <object id="1" x="0" y="0">
     <polygon points="0,0 16,0 16,16 0,16"/>
    </object>
   </objectgroup>
  </tile>
  <tile id="82">
   <objectgroup draworder="index" id="2">
    <object id="1" x="0" y="0">
     <polygon points="0,0 16,0 16,16 0,16"/>
    </object>
   </objectgroup>
  </tile>
  <tile id="84">
   <objectgroup draworder="index" id="2">
    <object id="1" x="0" y="0">
     <polygon points="0,0 16,0 16,16 0,16"/>
    </object>
   </objectgroup>
  </tile>
  <tile id="87">
   <objectgroup draworder="index" id="2">
    <object id="1" x="0" y="0">
     <polygon points="0,0 16,0 16,16 0,16"/>
    </object>
   </objectgroup>
  </tile>
  <tile id="88">
   <objectgroup draworder="index" id="2">
    <object id="1" x="0" y="0">
     <polygon points="0,0 16,0 16,16 0,16"/>
    </object>
   </objectgroup>
  </tile>
  <tile id="90">
   <objectgroup draworder="index" id="2">
    <object id="1" x="0" y="0">
     <polygon points="0,0 16,0 16,16 0,16"/>
    </object>
   </objectgroup>
  </tile>
  <tile id="92">
   <objectgroup draworder="index" id="2">
    <object id="1" x="0" y="0">
     <polygon points="0,0 16,0 16,16 0,16"/>
    </object>
   </objectgroup>
  </tile>
  <tile id="93">
   <objectgroup draworder="index" id="2">
    <object id="1" x="0" y="0">
     <polygon points="0,0 16,0 16,16 0,16"/>
    </object>
   </objectgroup>
  </tile>
  <tile id="95">
   <objectgroup draworder="index" id="2">
    <object id="1" x="0" y="0">
     <polygon points="0,0 16,0 16,16 0,16"/>
    </object>
   </objectgroup>
  </tile>
  <tile id="96">
   <objectgroup draworder="index" id="2">
    <object id="1" x="0" y="0">
     <polygon points="0,0 16,0 16,16 0,16"/>
    </object>
   </objectgroup>
  </tile>
  <tile id="98">
   <objectgroup draworder="index" id="2">
    <object id="1" x="0" y="0">
     <polygon points="0,0 16,0 16,16 0,16"/>
    </object>
   </objectgroup>
  </tile>
 </tileset>
 <layer id="1" name="layer" width="28" height="125">
  <data encoding="csv">
2,2,2,2,2,2,2,2,2,2,2,2,2,2,2,2,2,3,16,26,1,1,1,1,1,1,1,1,
2,2,2,2,2,2,2,2,2,2,2,2,2,2,2,3,3,4,5,6,7,7,7,7,7,7,7,7,
2,2,2,2,2,2,2,2,2,2,2,2,2,2,2,4,8,9,9,6,7,7,7,7,7,7,7,7,
2,2,2,2,2,10,2,2,2,2,2,2,3,2,2,11,6,12,12,12,7,7,7,7,7,7,13,13,
2,2,2,14,14,4,3,15,4,3,14,15,4,3,2,16,17,7,7,7,7,7,7,7,7,18,19,70,
2,2,2,11,8,20,20,20,20,20,20,20,20,21,22,15,6,7,7,7,7,7,7,7,23,21,24,33,
2,10,25,5,26,27,7,7,7,7,7,7,28,29,30,8,31,7,7,7,7,7,7,23,32,30,33,22,
14,4,3,8,34,27,7,7,7,7,7,7,28,35,20,31,7,7,7,7,36,7,7,37,4,15,22,2,
8,20,20,31,7,7,7,7,7,7,7,7,7,7,7,7,7,7,7,7,38,7,7,39,40,41,2,2,
6,7,7,7,7,7,7,7,7,7,7,7,7,7,7,7,7,7,7,7,7,7,7,39,16,42,2,2,
6,7,7,7,7,7,7,7,7,7,23,43,7,7,7,7,36,7,7,7,7,7,7,39,15,41,2,2,
17,7,7,7,36,7,7,7,7,7,39,17,44,44,44,44,45,44,44,44,44,44,44,37,4,22,2,2,
6,7,7,7,38,7,7,46,7,7,47,48,49,50,49,50,32,49,49,49,49,49,49,32,22,2,2,2,
26,51,7,7,7,46,52,53,54,55,55,52,56,30,57,4,22,15,57,4,22,15,58,4,59,2,2,2,
21,60,13,61,52,53,2,2,25,2,41,41,35,9,9,9,9,9,9,21,22,4,3,15,4,22,2,2,
15,21,19,62,2,2,2,2,50,50,2,2,63,63,63,63,63,63,63,35,9,9,9,9,9,21,4,2,
2,64,33,21,62,2,2,2,2,2,2,2,2,2,2,2,2,2,2,2,2,2,2,2,2,29,30,41,
2,2,64,4,26,62,2,2,2,2,2,2,2,2,2,2,2,2,2,2,2,2,2,2,2,29,22,2,
2,2,2,11,65,2,2,2,2,2,2,2,2,2,2,2,2,2,2,2,2,2,2,2,2,29,15,41,
2,2,2,16,65,2,2,2,2,2,2,2,66,66,66,66,66,66,66,2,2,2,67,68,69,70,5,41,
2,2,2,15,65,2,2,2,2,2,2,2,69,19,70,19,70,49,49,62,67,71,7,7,37,24,72,41,
2,2,25,5,65,66,66,69,49,62,66,66,56,24,33,24,33,33,50,31,7,7,7,18,32,33,41,2,
2,2,2,64,48,49,49,49,49,49,49,49,32,33,15,33,30,8,31,7,7,7,7,39,40,41,2,2,
2,3,2,2,22,15,57,4,22,15,15,15,57,4,2,2,14,6,7,7,7,7,7,37,22,2,2,2,
3,5,3,15,4,15,15,3,15,4,3,15,22,2,2,25,8,31,7,7,7,7,7,37,42,2,2,2,
8,9,9,9,9,9,9,9,9,9,9,21,15,15,3,4,6,7,7,7,7,7,23,32,30,41,2,2,
65,2,2,2,103,103,2,2,2,2,2,35,9,9,9,21,6,7,7,7,7,7,39,73,41,2,2,2,
65,2,2,2,103,103,2,2,2,2,2,103,103,2,2,29,17,7,7,7,7,18,32,74,42,2,2,2,
65,2,2,49,50,49,62,2,2,2,2,103,103,2,2,29,6,7,7,7,7,47,21,22,2,2,2,2,
65,2,2,35,9,9,9,67,67,50,50,49,62,2,2,29,6,7,7,7,7,7,39,5,41,2,2,2,
65,2,75,12,12,12,12,7,7,39,30,4,65,2,2,29,19,60,7,7,7,7,39,59,2,2,2,2,
48,62,75,7,7,7,7,7,46,56,73,15,65,2,2,29,33,17,7,7,7,7,37,15,2,2,2,2,
11,65,75,7,7,7,7,61,53,56,74,64,65,2,2,35,21,6,7,7,7,18,32,58,41,2,2,2,
25,48,43,7,7,7,7,23,50,32,4,64,65,2,2,2,29,31,7,7,7,39,73,22,2,2,2,2,
25,4,6,7,7,7,7,12,12,39,15,2,8,62,2,2,75,7,7,7,7,39,74,42,2,2,2,2,
64,11,17,7,7,7,7,7,7,39,21,42,15,8,62,2,75,7,7,7,18,32,15,2,2,2,2,2,
2,16,26,76,77,7,7,7,7,12,39,21,4,64,8,50,49,50,70,19,32,22,2,2,2,2,2,2,
2,15,48,62,78,51,7,7,7,7,12,39,21,42,15,57,4,79,24,33,22,41,2,2,2,2,2,2,
2,2,58,48,50,43,7,7,7,7,7,12,39,4,58,41,41,25,33,41,2,2,2,2,2,2,2,2,
2,2,2,64,73,48,43,7,7,7,7,7,39,11,41,2,2,2,2,2,2,2,2,2,2,2,2,2,
2,2,2,2,74,58,48,60,7,7,7,7,39,58,4,41,2,2,2,2,2,2,2,2,2,2,2,2,
2,2,2,2,64,15,58,6,7,7,7,7,39,15,15,41,2,2,2,2,2,2,2,2,2,2,2,2,
2,2,2,2,2,64,8,48,43,7,7,18,32,32,4,22,41,2,2,2,2,2,2,2,2,2,2,2,
2,2,2,2,2,11,6,12,12,7,7,12,12,39,4,41,2,2,2,2,2,2,2,2,2,2,2,2,
2,2,2,2,2,16,6,7,7,7,7,7,7,37,16,41,2,2,2,2,2,2,2,2,2,2,2,2,
2,2,2,2,2,15,17,7,7,7,7,7,7,39,40,22,2,2,2,2,2,2,2,2,2,2,2,2,
2,2,2,2,64,80,17,7,7,7,7,7,7,47,20,58,10,3,2,2,2,2,2,2,2,2,2,2,
2,2,2,2,2,81,6,7,7,7,7,7,7,7,7,47,21,30,41,2,2,2,2,2,2,2,2,2,
2,2,2,2,25,16,6,7,7,7,7,7,7,7,7,7,47,21,22,2,2,2,2,2,2,2,2,2,
2,2,2,2,2,15,6,7,23,43,7,7,7,7,7,7,7,47,21,15,3,2,2,2,2,2,2,2,
2,2,2,2,64,30,48,70,32,6,7,7,7,7,7,7,7,7,47,21,5,3,2,2,2,2,2,2,
2,2,2,2,2,25,40,24,72,17,7,18,60,7,7,7,7,7,7,47,20,21,40,3,2,2,2,2,
2,2,2,2,2,2,25,33,57,48,49,32,6,7,7,7,7,7,7,7,7,47,20,21,15,2,2,2,
2,2,2,2,2,2,2,2,64,80,82,58,6,7,18,43,7,7,7,7,7,7,7,47,20,21,3,2,
2,2,2,2,2,2,2,2,2,81,83,64,48,19,32,6,7,7,7,7,7,7,7,7,7,39,4,22,
2,2,2,2,2,2,2,2,2,2,2,25,79,24,72,48,43,7,7,7,7,7,7,7,7,39,9,21,
2,2,2,2,2,2,2,2,2,2,2,2,25,33,30,58,17,13,13,13,7,7,7,7,13,84,2,29,
2,2,2,2,2,2,2,2,2,2,2,2,2,25,64,5,19,19,49,60,7,7,7,18,70,62,2,29,
2,2,2,2,2,2,2,2,2,2,2,2,10,2,25,64,33,33,73,6,7,7,7,39,33,34,2,29,
2,2,2,2,2,2,2,2,2,11,80,82,3,10,2,15,80,82,74,6,7,7,7,39,8,34,2,29,
2,2,2,2,2,2,2,2,2,16,81,83,73,15,15,16,81,83,4,17,7,7,23,32,65,2,2,29,
2,2,2,2,2,2,2,2,2,2,64,64,74,4,40,8,20,20,20,31,7,7,47,70,65,2,2,29,
2,2,2,2,2,2,2,2,2,64,4,5,8,20,20,31,7,7,7,7,7,7,7,39,65,2,69,32,
2,2,2,2,2,2,2,2,2,3,8,20,31,7,7,7,7,7,7,7,7,7,7,37,65,2,29,73,
2,2,2,2,2,2,2,2,80,82,85,86,86,87,87,87,86,86,86,87,87,86,86,88,34,2,29,74,
2,2,2,2,2,2,2,73,81,83,89,90,90,90,90,90,90,90,90,90,90,90,90,42,2,2,29,30,
2,2,2,2,2,2,2,74,16,15,91,92,92,92,92,92,92,92,92,92,92,93,50,49,50,49,32,40,
2,2,2,2,2,14,3,64,5,58,94,95,95,95,95,95,95,95,95,96,49,32,8,9,9,9,9,9,
2,2,2,2,2,8,9,9,9,9,97,98,98,98,98,98,98,98,99,32,9,9,34,2,2,2,2,2,
2,2,2,2,2,65,2,2,2,16,100,100,100,100,100,100,100,99,32,65,2,2,2,2,2,2,2,2,
2,2,2,2,58,65,2,2,101,16,102,102,102,102,102,102,99,32,65,34,2,2,2,2,2,101,101,101,
2,2,2,2,4,65,2,2,69,49,19,70,19,62,103,103,29,15,65,2,2,2,101,101,69,19,70,49,
2,2,2,16,73,65,2,2,29,79,24,33,33,65,2,2,35,9,34,2,2,2,70,19,70,72,33,22,
2,2,2,64,74,65,2,2,29,22,33,4,5,65,2,2,2,2,2,2,2,101,29,24,33,73,40,2,
2,2,2,2,64,65,2,2,29,30,41,25,4,65,2,2,2,2,2,2,2,69,32,33,41,74,2,2,
2,2,2,2,16,65,2,2,29,42,2,2,16,65,101,101,101,101,101,101,69,49,73,30,41,41,2,2,
2,2,2,25,4,65,2,2,29,22,2,2,25,48,49,19,70,19,70,50,32,42,74,2,2,2,2,2,
2,2,2,2,64,65,2,2,29,4,41,2,2,64,79,24,33,33,24,72,22,2,2,2,2,2,2,2,
2,2,2,2,16,65,2,2,29,22,3,15,64,30,40,42,4,15,3,3,2,2,2,2,2,2,2,2,
2,2,2,25,64,65,2,2,35,9,9,9,9,9,9,9,9,9,9,3,2,2,2,2,2,2,2,2,
2,2,2,2,16,65,2,2,2,2,2,2,2,2,2,2,2,63,63,29,42,3,2,2,2,2,2,2,
2,2,2,2,4,65,2,2,2,2,2,2,2,2,2,2,2,2,2,9,9,21,2,2,2,2,2,2,
2,2,2,25,64,65,2,2,2,2,2,2,2,2,2,2,2,2,2,63,63,29,42,3,2,2,2,2,
2,2,2,2,16,65,2,2,69,50,49,50,49,2,2,2,2,2,2,2,2,9,9,21,15,41,2,2,
2,2,2,2,64,65,2,2,29,4,22,4,48,50,49,2,2,2,2,2,2,63,63,29,22,2,2,2,
2,2,2,2,16,65,2,2,29,22,2,2,64,4,48,50,49,2,2,2,2,2,2,29,15,3,3,15,
2,2,2,25,4,65,2,2,29,4,41,2,2,2,64,4,48,50,49,2,2,2,2,35,9,9,9,21,
2,2,2,2,64,65,2,2,29,22,2,2,2,2,2,3,15,4,48,50,62,2,2,2,2,2,2,29,
2,2,2,2,16,65,2,2,29,42,2,2,10,2,3,8,9,9,9,9,34,2,2,2,2,2,2,29,
2,2,2,2,16,65,66,66,29,4,41,64,8,35,35,34,2,2,2,2,2,2,2,69,50,49,49,62,
2,2,2,25,64,48,50,50,32,15,4,8,34,2,2,2,2,2,2,2,2,2,2,29,4,57,22,4,
2,2,2,2,25,4,57,4,22,8,35,34,2,2,2,2,2,2,2,2,2,2,2,29,22,41,2,2,
2,2,2,2,2,2,64,8,35,34,2,2,2,2,2,2,2,2,2,69,62,2,2,29,42,2,2,2,
2,2,2,2,16,4,8,34,2,2,2,2,2,2,2,2,2,2,69,32,65,2,2,29,15,2,2,2,
2,2,2,64,8,35,34,2,2,2,2,2,2,2,2,2,2,2,29,4,65,2,2,29,22,41,2,2,
2,2,14,15,65,2,2,2,2,2,2,2,2,2,2,2,2,69,32,15,48,50,49,32,41,2,2,2,
2,2,2,16,65,2,2,2,2,2,2,2,2,2,2,2,2,29,4,41,22,57,4,41,2,2,2,2,
2,2,2,4,65,2,2,2,2,2,2,2,2,2,2,2,2,29,42,2,2,2,41,2,2,2,2,2,
2,2,64,8,34,2,2,2,2,2,2,2,2,2,2,69,50,32,22,2,2,2,2,2,2,2,2,2,
2,16,8,34,2,2,2,2,2,2,2,2,2,2,2,35,34,21,42,2,2,2,2,2,2,2,2,2,
2,64,65,103,2,2,2,2,2,2,2,69,62,2,2,2,2,29,15,41,2,2,2,2,2,2,2,2,
14,4,65,103,2,2,2,2,2,2,2,2,2,2,2,2,2,29,4,10,2,2,2,2,14,4,3,15,
2,16,65,103,2,2,2,69,62,2,2,2,2,2,2,2,2,29,42,2,14,2,2,14,8,9,9,21,
25,64,48,62,2,2,2,2,2,2,2,2,2,2,2,2,2,35,21,3,4,15,3,4,65,63,63,29,
2,2,64,65,2,2,2,2,2,2,2,2,2,2,2,2,2,2,35,34,35,34,35,35,34,2,2,29,
2,25,4,65,2,2,2,2,2,2,2,2,2,2,2,2,2,2,2,2,2,2,2,2,2,2,2,29,
2,2,64,48,62,2,2,69,62,2,2,2,2,2,2,2,2,2,2,2,2,2,2,2,2,2,2,29,
2,2,2,64,65,66,66,56,26,2,2,2,2,2,2,2,2,2,2,2,2,2,2,2,2,2,2,29,
2,2,25,4,48,50,49,32,26,66,2,2,2,2,2,2,2,2,2,2,2,2,2,2,2,2,2,29,
2,2,2,2,15,4,57,64,48,62,2,69,62,2,2,2,69,62,2,2,2,69,50,49,62,2,2,29,
2,2,2,2,2,2,2,25,15,65,2,29,65,66,2,2,29,65,2,66,66,29,15,64,65,2,2,29,
2,2,2,2,2,2,2,25,4,65,66,29,48,62,66,66,29,65,66,69,49,32,22,15,65,2,2,29,
2,2,2,2,2,2,2,2,64,48,49,32,4,48,50,49,32,48,49,32,22,41,2,64,65,2,2,29,
2,2,2,2,2,2,2,2,10,64,4,15,57,22,15,57,22,4,4,4,15,10,2,15,65,2,2,29,
2,2,2,2,2,2,2,16,8,35,34,21,3,2,2,25,4,8,35,34,21,3,2,64,65,2,2,29,
10,2,2,10,2,10,16,8,26,2,2,35,21,3,4,3,8,34,2,2,35,21,4,3,65,2,2,29,
4,3,15,4,3,8,9,9,34,2,2,2,35,34,34,35,34,2,2,2,2,35,34,35,34,2,2,29,
34,9,34,9,34,34,2,2,2,2,2,2,2,2,2,2,2,2,2,2,2,2,2,2,2,2,2,29,
2,2,2,2,2,2,2,2,2,2,2,2,2,2,2,2,2,2,2,2,2,2,2,2,2,2,2,29,
2,2,2,2,2,2,2,2,2,2,2,2,2,2,2,2,2,2,2,2,2,2,2,2,2,2,2,29,
2,2,2,2,2,69,50,49,50,49,50,49,50,49,50,49,50,49,50,49,50,49,50,49,62,2,2,29,
2,2,69,50,49,32,22,15,57,15,64,57,15,64,57,15,64,57,15,64,57,15,64,4,65,2,2,29,
49,50,32,57,15,64,41,25,2,2,25,2,2,25,2,2,25,2,2,25,2,2,25,16,65,2,2,29,
57,15,64,2,2,25,2,2,2,2,2,2,2,2,2,2,2,2,2,2,2,2,2,64,65,2,2,29,
2,2,25,2,2,2,2,2,2,2,2,2,2,2,2,2,2,2,2,2,2,2,2,25,48,50,49,32
</data>
 </layer>
</map>
