<?xml version="1.0" encoding="UTF-8"?>
<map version="1.10" tiledversion="git" orientation="orthogonal" renderorder="right-down" width="44" height="30" tilewidth="16" tileheight="16" infinite="0" nextlayerid="2" nextobjectid="1">
 <tileset firstgid="1" name="tiles" tilewidth="16" tileheight="16" tilecount="192" columns="14">
  <image source="pm.png" width="224" height="224"/>
  <tile id="55">
   <objectgroup draworder="index" id="2">
    <object id="1" x="0" y="0">
     <polygon points="0,0 16,0 16,16 0,16"/>
    </object>
   </objectgroup>
  </tile>
  <tile id="29">
   <objectgroup draworder="index" id="2">
    <object id="1" x="0" y="0">
     <polygon points="0,0 16,0 16,16 0,16"/>
    </object>
   </objectgroup>
  </tile>
  <tile id="14">
   <objectgroup draworder="index" id="2">
    <object id="1" x="0" y="0">
     <polygon points="0,0 16,0 16,16 0,16"/>
    </object>
   </objectgroup>
  </tile>
  <tile id="4">
   <objectgroup draworder="index" id="2">
    <object id="1" x="0" y="0">
     <polygon points="0,0 16,0 16,16 0,16"/>
    </object>
   </objectgroup>
  </tile>
  <tile id="25">
   <objectgroup draworder="index" id="2">
    <object id="1" x="0" y="0">
     <polygon points="0,0 16,0 16,16 0,16"/>
    </object>
   </objectgroup>
  </tile>
  <tile id="38">
   <objectgroup draworder="index" id="2">
    <object id="1" x="0" y="0">
     <polygon points="0,0 16,0 16,16 0,16"/>
    </object>
   </objectgroup>
  </tile>
  <tile id="8">
   <objectgroup draworder="index" id="2">
    <object id="1" x="0" y="0">
     <polygon points="0,0 16,0 16,16 0,16"/>
    </object>
   </objectgroup>
  </tile>
  <tile id="33">
   <objectgroup draworder="index" id="2">
    <object id="1" x="0" y="0">
     <polygon points="0,0 16,0 16,16 0,16"/>
    </object>
   </objectgroup>
  </tile>
  <tile id="34">
   <objectgroup draworder="index" id="2">
    <object id="1" x="0" y="0">
     <polygon points="0,0 16,0 16,16 0,16"/>
    </object>
   </objectgroup>
  </tile>
  <tile id="5">
   <objectgroup draworder="index" id="2">
    <object id="1" x="0" y="0">
     <polygon points="0,0 16,0 16,16 0,16"/>
    </object>
   </objectgroup>
  </tile>
  <tile id="17">
   <objectgroup draworder="index" id="2">
    <object id="1" x="0" y="0">
     <polygon points="0,0 16,0 16,16 0,16"/>
    </object>
   </objectgroup>
  </tile>
  <tile id="42">
   <objectgroup draworder="index" id="2">
    <object id="1" x="0" y="0">
     <polygon points="0,0 16,0 16,16 0,16"/>
    </object>
   </objectgroup>
  </tile>
  <tile id="69">
   <objectgroup draworder="index" id="2">
    <object id="1" x="0" y="0">
     <polygon points="0,0 16,0 16,16 0,16"/>
    </object>
   </objectgroup>
  </tile>
  <tile id="49">
   <objectgroup draworder="index" id="2">
    <object id="1" x="0" y="0">
     <polygon points="0,0 16,0 16,16 0,16"/>
    </object>
   </objectgroup>
  </tile>
  <tile id="48">
   <objectgroup draworder="index" id="2">
    <object id="1" x="0" y="0">
     <polygon points="0,0 16,0 16,16 0,16"/>
    </object>
   </objectgroup>
  </tile>
  <tile id="46">
   <objectgroup draworder="index" id="2">
    <object id="1" x="0" y="0">
     <polygon points="0,0 16,0 16,16 0,16"/>
    </object>
   </objectgroup>
  </tile>
  <tile id="30">
   <objectgroup draworder="index" id="2">
    <object id="1" x="0" y="0">
     <polygon points="0,0 16,0 16,16 0,16"/>
    </object>
   </objectgroup>
  </tile>
  <tile id="31">
   <objectgroup draworder="index" id="2">
    <object id="1" x="0" y="0">
     <polygon points="0,0 16,0 16,16 0,16"/>
    </object>
   </objectgroup>
  </tile>
  <tile id="61">
   <objectgroup draworder="index" id="2">
    <object id="1" x="0" y="0">
     <polygon points="0,0 16,0 16,16 0,16"/>
    </object>
   </objectgroup>
  </tile>
  <tile id="32">
   <objectgroup draworder="index" id="2">
    <object id="1" x="0" y="0">
     <polygon points="0,0 16,0 16,16 0,16"/>
    </object>
   </objectgroup>
  </tile>
  <tile id="7">
   <objectgroup draworder="index" id="2">
    <object id="1" x="0" y="0">
     <polygon points="0,0 16,0 16,16 0,16"/>
    </object>
   </objectgroup>
  </tile>
  <tile id="19">
   <objectgroup draworder="index" id="2">
    <object id="1" x="0" y="0">
     <polygon points="0,0 16,0 16,16 0,16"/>
    </object>
   </objectgroup>
  </tile>
  <tile id="20">
   <objectgroup draworder="index" id="2">
    <object id="1" x="0" y="0">
     <polygon points="0,0 16,0 16,16 0,16"/>
    </object>
   </objectgroup>
  </tile>
  <tile id="72">
   <objectgroup draworder="index" id="2">
    <object id="1" x="0" y="0">
     <polygon points="0,0 16,0 16,16 0,16"/>
    </object>
   </objectgroup>
  </tile>
  <tile id="73">
   <objectgroup draworder="index" id="2">
    <object id="1" x="0" y="0">
     <polygon points="0,0 16,0 16,16 0,16"/>
    </object>
   </objectgroup>
  </tile>
  <tile id="57">
   <objectgroup draworder="index" id="2">
    <object id="1" x="0" y="0">
     <polygon points="0,0 16,0 16,16 0,16"/>
    </object>
   </objectgroup>
  </tile>
  <tile id="47">
   <objectgroup draworder="index" id="2">
    <object id="1" x="0" y="0">
     <polygon points="0,0 16,0 16,16 0,16"/>
    </object>
   </objectgroup>
  </tile>
  <tile id="18">
   <objectgroup draworder="index" id="2">
    <object id="1" x="0" y="0">
     <polygon points="0,0 16,0 16,16 0,16"/>
    </object>
   </objectgroup>
  </tile>
  <tile id="39">
   <objectgroup draworder="index" id="2">
    <object id="1" x="0" y="0">
     <polygon points="0,0 16,0 16,16 0,16"/>
    </object>
   </objectgroup>
  </tile>
  <tile id="68">
   <objectgroup draworder="index" id="2">
    <object id="1" x="0" y="0">
     <polygon points="0,0 16,0 16,16 0,16"/>
    </object>
   </objectgroup>
  </tile>
  <tile id="21">
   <objectgroup draworder="index" id="2">
    <object id="1" x="0" y="0">
     <polygon points="0,0 16,0 16,16 0,16"/>
    </object>
   </objectgroup>
  </tile>
  <tile id="64">
   <objectgroup draworder="index" id="2">
    <object id="1" x="0" y="0">
     <polygon points="0,0 16,0 16,16 0,16"/>
    </object>
   </objectgroup>
  </tile>
  <tile id="2">
   <objectgroup draworder="index" id="2">
    <object id="1" x="0" y="0">
     <polygon points="0,0 16,0 16,16 0,16"/>
    </object>
   </objectgroup>
  </tile>
  <tile id="28">
   <objectgroup draworder="index" id="2">
    <object id="1" x="0" y="0">
     <polygon points="0,0 16,0 16,16 0,16"/>
    </object>
   </objectgroup>
  </tile>
  <tile id="43">
   <properties>
    <property name="spikes" type="int" value="0"/>
   </properties>
  </tile>
  <tile id="106">
   <objectgroup draworder="index" id="2">
    <object id="1" x="0" y="0">
     <properties>
      <property name="type" type="int" value="1"/>
     </properties>
     <polygon points="0,0 16,0 16,16 0,16"/>
    </object>
   </objectgroup>
  </tile>
 </tileset>
 <layer id="1" name="layer" width="44" height="30">
  <data encoding="csv">
104,104,104,104,104,104,104,104,104,104,104,104,104,104,104,104,104,104,104,104,104,104,104,104,104,56,15,74,15,74,26,104,104,104,104,104,104,104,104,56,15,26,104,104,
1,1,1,1,1,1,1,1,1,1,1,1,1,1,1,1,1,1,1,1,1,1,1,1,1,56,30,15,5,15,26,1,1,1,1,1,1,1,1,56,30,26,1,1,
7,7,7,7,7,7,7,7,7,7,7,7,7,7,7,7,7,7,7,7,7,7,7,7,7,39,9,9,9,9,34,7,7,7,7,7,7,7,7,35,35,6,7,7,
7,7,7,7,7,7,7,7,13,13,7,7,7,7,7,7,7,7,7,7,7,7,7,7,7,39,2,2,2,2,103,7,7,7,7,7,7,7,7,103,103,103,7,7,
7,7,7,7,7,7,7,7,18,43,7,7,7,13,13,7,7,7,7,7,7,7,7,7,13,39,101,101,101,2,103,7,7,7,7,7,7,7,7,103,103,103,7,7,
70,50,49,50,43,7,7,7,47,31,7,7,7,18,43,7,7,7,13,13,7,7,7,7,18,32,70,49,70,49,49,49,43,7,7,7,7,7,7,18,49,62,7,7,
33,30,8,20,31,7,7,7,7,7,7,7,7,47,31,7,7,7,18,43,7,7,7,7,47,21,33,73,33,73,8,20,31,7,7,7,7,7,7,39,73,6,7,7,
73,8,31,7,7,7,7,7,7,7,7,7,7,7,7,7,7,7,47,31,7,7,7,7,7,39,73,74,73,74,6,7,7,7,7,7,7,7,7,39,74,6,7,7,
74,6,7,7,7,7,7,7,7,7,7,7,7,7,7,7,7,7,7,7,7,7,7,7,7,39,74,15,74,73,6,7,7,7,7,7,7,18,50,32,58,6,7,7,
15,6,7,7,7,7,7,7,7,7,7,7,7,7,7,7,7,7,7,7,7,7,7,7,61,56,15,73,15,74,6,7,7,7,7,7,7,47,20,21,30,6,7,7,
8,31,7,7,7,7,7,7,7,7,7,7,7,7,7,7,7,7,7,7,7,7,46,52,41,56,73,74,73,73,6,7,7,7,7,7,7,7,7,39,73,6,7,7,
6,7,7,7,7,7,7,7,7,7,7,7,7,7,7,7,7,7,7,7,61,52,53,41,2,56,74,15,74,74,48,50,43,7,7,7,7,7,7,39,74,6,7,7,
6,7,7,7,7,7,7,7,7,7,18,49,43,7,7,7,7,7,7,18,49,19,49,70,49,32,15,30,15,5,5,58,6,7,7,7,7,7,7,39,40,6,7,7,
6,7,7,7,7,7,7,7,18,49,8,9,34,103,103,103,103,69,49,32,73,33,73,33,73,22,15,22,73,22,15,30,6,7,7,7,7,7,7,39,5,6,7,7,
6,7,7,13,13,7,7,7,39,8,34,2,105,103,103,69,19,32,30,40,74,30,74,30,74,30,73,30,74,30,73,58,6,7,7,7,7,7,7,39,73,6,7,7,
48,49,49,107,107,49,49,19,21,65,2,2,105,103,69,32,33,40,8,20,20,20,20,20,20,21,74,3,3,3,74,30,48,49,19,70,43,7,7,39,74,6,7,7,
30,73,65,106,106,29,73,33,73,65,2,2,69,49,32,40,30,8,31,7,7,7,7,7,7,47,20,20,20,20,20,20,20,21,33,33,6,7,7,39,58,6,7,7,
73,74,65,68,67,29,74,73,74,65,2,2,35,9,9,9,9,31,7,7,7,7,7,7,7,7,7,7,7,7,7,7,7,39,58,73,6,7,7,39,30,6,7,7,
74,8,31,7,7,47,21,74,15,65,2,2,2,2,2,2,75,7,7,7,7,7,7,7,7,7,7,7,7,7,7,7,7,39,73,74,6,7,7,39,73,6,7,7,
8,31,7,7,7,7,47,21,73,65,2,101,101,101,101,101,75,7,7,7,7,7,7,7,7,7,7,7,7,7,7,7,7,39,74,15,6,7,7,39,74,6,7,7,
6,7,7,7,7,7,7,39,74,48,70,49,19,49,70,49,19,49,49,62,7,7,7,7,7,69,43,7,7,18,32,7,7,56,15,30,6,7,7,39,40,6,7,7,
6,7,7,7,7,7,7,39,15,73,33,73,33,73,33,73,33,8,20,31,7,7,7,7,7,39,6,7,7,39,6,7,7,39,40,26,31,7,7,39,5,6,7,7,
6,7,7,7,7,7,7,47,21,74,73,74,73,74,73,74,73,6,7,7,7,7,7,7,7,39,48,7,7,32,6,7,7,47,20,31,7,7,7,39,73,6,7,7,
26,55,7,7,7,7,7,46,56,15,74,15,74,15,74,15,74,6,7,7,7,7,7,7,7,39,6,7,7,39,6,7,7,7,7,7,7,7,7,39,74,6,7,7,
26,25,76,77,55,61,52,53,35,9,9,9,9,9,9,9,9,31,7,7,7,7,7,7,7,39,6,7,7,39,6,7,7,7,7,7,7,7,7,39,58,6,7,7,
26,2,2,41,25,25,2,2,2,2,2,2,2,2,2,2,75,7,7,7,7,7,7,7,7,39,6,77,55,39,48,50,49,50,49,50,43,77,55,39,30,6,77,55,
26,2,2,2,2,101,101,2,2,101,101,101,101,101,101,2,75,7,7,7,7,7,7,7,7,39,65,41,25,56,9,9,9,9,9,9,21,41,25,8,73,65,41,25,
48,49,49,49,49,49,49,49,49,49,49,49,49,49,49,49,49,43,44,44,44,44,44,44,44,39,65,2,2,8,21,2,2,2,2,8,21,2,2,8,74,65,2,2,
9,9,9,9,9,9,9,9,9,9,9,9,9,9,9,9,9,9,49,49,49,49,49,49,49,21,65,2,2,8,21,2,2,2,2,8,21,2,2,8,21,65,2,2,
2,2,2,2,2,2,2,2,2,2,2,2,2,2,2,2,2,2,2,2,2,2,2,2,2,8,65,2,2,8,21,2,2,2,2,8,21,2,2,8,21,65,2,2
</data>
 </layer>
</map>
