<?xml version="1.0" encoding="UTF-8"?>
<map version="1.10" tiledversion="git" orientation="orthogonal" renderorder="right-down" width="124" height="29" tilewidth="16" tileheight="16" infinite="0" nextlayerid="2" nextobjectid="1">
 <tileset firstgid="1" name="tiles" tilewidth="16" tileheight="16" tilecount="192" columns="14">
  <image source="pm.png" width="224" height="224"/>
  <tile id="7">
   <objectgroup draworder="index" id="2">
    <object id="1" x="0" y="0">
     <polygon points="0,0 16,0 16,16 0,16"/>
    </object>
   </objectgroup>
  </tile>
  <tile id="30">
   <objectgroup draworder="index" id="2">
    <object id="1" x="0" y="0">
     <polygon points="0,0 16,0 16,16 0,16"/>
    </object>
   </objectgroup>
  </tile>
  <tile id="38">
   <objectgroup draworder="index" id="2">
    <object id="1" x="0" y="0">
     <polygon points="0,0 16,0 16,16 0,16"/>
    </object>
   </objectgroup>
  </tile>
  <tile id="58">
   <objectgroup draworder="index" id="2">
    <object id="1" x="0" y="0">
     <polygon points="0,0 16,0 16,16 0,16"/>
    </object>
   </objectgroup>
  </tile>
  <tile id="2">
   <objectgroup draworder="index" id="2">
    <object id="1" x="0" y="0">
     <polygon points="0,0 16,0 16,16 0,16"/>
    </object>
   </objectgroup>
  </tile>
  <tile id="3">
   <objectgroup draworder="index" id="2">
    <object id="1" x="0" y="0">
     <polygon points="0,0 16,0 16,16 0,16"/>
    </object>
   </objectgroup>
  </tile>
  <tile id="64">
   <objectgroup draworder="index" id="2">
    <object id="1" x="0" y="0">
     <polygon points="0,0 16,0 16,16 0,16"/>
    </object>
   </objectgroup>
  </tile>
  <tile id="57">
   <objectgroup draworder="index" id="2">
    <object id="1" x="0" y="0">
     <polygon points="0,0 16,0 16,16 0,16"/>
    </object>
   </objectgroup>
  </tile>
  <tile id="63">
   <objectgroup draworder="index" id="2">
    <object id="1" x="0" y="0">
     <polygon points="0,0 16,0 16,16 0,16"/>
    </object>
   </objectgroup>
  </tile>
  <tile id="5">
   <objectgroup draworder="index" id="2">
    <object id="1" x="0" y="0">
     <polygon points="0,0 16,0 16,16 0,16"/>
    </object>
   </objectgroup>
  </tile>
  <tile id="14">
   <objectgroup draworder="index" id="2">
    <object id="1" x="0" y="0">
     <polygon points="0,0 16,0 16,16 0,16"/>
    </object>
   </objectgroup>
  </tile>
  <tile id="29">
   <objectgroup draworder="index" id="2">
    <object id="1" x="0" y="0">
     <polygon points="0,0 16,0 16,16 0,16"/>
    </object>
   </objectgroup>
  </tile>
  <tile id="72">
   <objectgroup draworder="index" id="2">
    <object id="1" x="0" y="0">
     <polygon points="0,0 16,0 16,16 0,16"/>
    </object>
   </objectgroup>
  </tile>
  <tile id="41">
   <objectgroup draworder="index" id="2">
    <object id="1" x="0" y="0">
     <polygon points="0,0 16,0 16,16 0,16"/>
    </object>
   </objectgroup>
  </tile>
  <tile id="55">
   <objectgroup draworder="index" id="2">
    <object id="1" x="0" y="0">
     <polygon points="0,0 16,0 16,16 0,16"/>
    </object>
   </objectgroup>
  </tile>
  <tile id="25">
   <objectgroup draworder="index" id="2">
    <object id="1" x="0" y="0">
     <polygon points="0,0 16,0 16,16 0,16"/>
    </object>
   </objectgroup>
  </tile>
  <tile id="32">
   <objectgroup draworder="index" id="2">
    <object id="1" x="0" y="0">
     <polygon points="0,0 16,0 16,16 0,16"/>
    </object>
   </objectgroup>
  </tile>
  <tile id="73">
   <objectgroup draworder="index" id="2">
    <object id="1" x="0" y="0">
     <polygon points="0,0 16,0 16,16 0,16"/>
    </object>
   </objectgroup>
  </tile>
  <tile id="39">
   <objectgroup draworder="index" id="2">
    <object id="1" x="0" y="0">
     <polygon points="0,0 16,0 16,16 0,16"/>
    </object>
   </objectgroup>
  </tile>
  <tile id="17">
   <objectgroup draworder="index" id="2">
    <object id="1" x="0" y="0">
     <polygon points="0,0 16,0 16,16 0,16"/>
    </object>
   </objectgroup>
  </tile>
  <tile id="18">
   <objectgroup draworder="index" id="2">
    <object id="1" x="0" y="0">
     <polygon points="0,0 16,0 16,16 0,16"/>
    </object>
   </objectgroup>
  </tile>
  <tile id="69">
   <objectgroup draworder="index" id="2">
    <object id="1" x="0" y="0">
     <polygon points="0,0 16,0 16,16 0,16"/>
    </object>
   </objectgroup>
  </tile>
  <tile id="49">
   <objectgroup draworder="index" id="2">
    <object id="1" x="0" y="0">
     <polygon points="0,0 16,0 16,16 0,16"/>
    </object>
   </objectgroup>
  </tile>
  <tile id="48">
   <objectgroup draworder="index" id="2">
    <object id="1" x="0" y="0">
     <polygon points="0,0 16,0 16,16 0,16"/>
    </object>
   </objectgroup>
  </tile>
  <tile id="34">
   <objectgroup draworder="index" id="2">
    <object id="1" x="0" y="0">
     <polygon points="0,0 16,0 16,16 0,16"/>
    </object>
   </objectgroup>
  </tile>
  <tile id="33">
   <objectgroup draworder="index" id="2">
    <object id="1" x="0" y="0">
     <polygon points="0,0 16,0 16,16 0,16"/>
    </object>
   </objectgroup>
  </tile>
  <tile id="20">
   <objectgroup draworder="index" id="2">
    <object id="1" x="0" y="0">
     <polygon points="0,0 16,0 16,16 0,16"/>
    </object>
   </objectgroup>
  </tile>
  <tile id="68">
   <objectgroup draworder="index" id="2">
    <object id="1" x="0" y="0">
     <polygon points="0,0 16,0 16,16 0,16"/>
    </object>
   </objectgroup>
  </tile>
  <tile id="42">
   <objectgroup draworder="index" id="2">
    <object id="1" x="0" y="0">
     <polygon points="0,0 16,0 16,16 0,16"/>
    </object>
   </objectgroup>
  </tile>
  <tile id="35">
   <objectgroup draworder="index" id="2">
    <object id="1" x="0" y="0">
     <polygon points="0,0 16,0 16,16 0,16"/>
    </object>
   </objectgroup>
  </tile>
  <tile id="31">
   <objectgroup draworder="index" id="2">
    <object id="1" x="0" y="0">
     <polygon points="0,0 16,0 16,16 0,16"/>
    </object>
   </objectgroup>
  </tile>
  <tile id="71">
   <objectgroup draworder="index" id="2">
    <object id="1" x="0" y="0">
     <polygon points="0,0 16,0 16,16 0,16"/>
    </object>
   </objectgroup>
  </tile>
  <tile id="47">
   <objectgroup draworder="index" id="2">
    <object id="1" x="0" y="0">
     <polygon points="0,0 16,0 16,16 0,16"/>
    </object>
   </objectgroup>
  </tile>
  <tile id="59">
   <objectgroup draworder="index" id="2">
    <object id="1" x="0" y="0">
     <polygon points="0,0 16,0 16,16 0,16"/>
    </object>
   </objectgroup>
  </tile>
  <tile id="23">
   <objectgroup draworder="index" id="2">
    <object id="1" x="0" y="0">
     <polygon points="0,0 16,0 16,16 0,16"/>
    </object>
   </objectgroup>
  </tile>
  <tile id="21">
   <objectgroup draworder="index" id="2">
    <object id="1" x="0" y="0">
     <polygon points="0,0 16,0 16,16 0,16"/>
    </object>
   </objectgroup>
  </tile>
  <tile id="79">
   <objectgroup draworder="index" id="2">
    <object id="1" x="0" y="0">
     <polygon points="0,0 16,0 16,16 0,16"/>
    </object>
   </objectgroup>
  </tile>
  <tile id="81">
   <objectgroup draworder="index" id="2">
    <object id="1" x="0" y="0">
     <polygon points="0,0 16,0 16,16 0,16"/>
    </object>
   </objectgroup>
  </tile>
  <tile id="22">
   <objectgroup draworder="index" id="2">
    <object id="1" x="0" y="0">
     <polygon points="0,0 16,0 16,16 0,16"/>
    </object>
   </objectgroup>
  </tile>
  <tile id="61">
   <objectgroup draworder="index" id="2">
    <object id="1" x="0" y="0">
     <polygon points="0,0 16,0 16,16 0,16"/>
    </object>
   </objectgroup>
  </tile>
  <tile id="28">
   <objectgroup draworder="index" id="2">
    <object id="1" x="0" y="0">
     <polygon points="0,0 16,0 16,16 0,16"/>
    </object>
   </objectgroup>
  </tile>
  <tile id="56">
   <objectgroup draworder="index" id="2">
    <object id="1" x="0" y="0">
     <polygon points="0,0 16,0 16,16 0,16"/>
    </object>
   </objectgroup>
  </tile>
  <tile id="37">
   <objectgroup draworder="index" id="2">
    <object id="1" x="0" y="0">
     <polygon points="0,0 16,0 16,16 0,16"/>
    </object>
   </objectgroup>
  </tile>
  <tile id="46">
   <objectgroup draworder="index" id="2">
    <object id="1" x="0" y="0">
     <polygon points="0,0 16,0 16,16 0,16"/>
    </object>
   </objectgroup>
  </tile>
  <tile id="19">
   <objectgroup draworder="index" id="2">
    <object id="1" x="0" y="0">
     <polygon points="0,0 16,0 16,16 0,16"/>
    </object>
   </objectgroup>
  </tile>
  <tile id="80">
   <objectgroup draworder="index" id="2">
    <object id="1" x="0" y="0">
     <polygon points="0,0 16,0 16,16 0,16"/>
    </object>
   </objectgroup>
  </tile>
  <tile id="82">
   <objectgroup draworder="index" id="2">
    <object id="1" x="0" y="0">
     <polygon points="0,0 16,0 16,16 0,16"/>
    </object>
   </objectgroup>
  </tile>
  <tile id="36">
   <objectgroup draworder="index" id="2">
    <object id="1" x="0" y="0">
     <polygon points="0,0 16,0 16,16 0,16"/>
    </object>
   </objectgroup>
  </tile>
  <tile id="16">
   <objectgroup draworder="index" id="2">
    <object id="1" x="0" y="0">
     <polygon points="0,0 16,0 16,16 0,16"/>
    </object>
   </objectgroup>
  </tile>
  <tile id="65">
   <properties>
    <property name="spikes" type="int" value="0"/>
   </properties>
  </tile>
  <tile id="4">
   <objectgroup draworder="index" id="2">
    <object id="1" x="0" y="0">
     <polygon points="0,0 16,0 16,16 0,16"/>
    </object>
   </objectgroup>
  </tile>
  <tile id="44">
   <objectgroup draworder="index" id="2">
    <object id="1" x="0" y="0">
     <polygon points="0,0 16,0 16,16 0,16"/>
    </object>
   </objectgroup>
  </tile>
  <tile id="8">
   <objectgroup draworder="index" id="2">
    <object id="1" x="0" y="0">
     <polygon points="0,0 16,0 16,16 0,16"/>
    </object>
   </objectgroup>
  </tile>
  <tile id="15">
   <objectgroup draworder="index" id="2">
    <object id="1" x="0" y="0">
     <polygon points="0,0 16,0 16,16 0,16"/>
    </object>
   </objectgroup>
  </tile>
  <tile id="13">
   <objectgroup draworder="index" id="2">
    <object id="1" x="0" y="0">
     <polygon points="0,0 16,0 16,16 0,16"/>
    </object>
   </objectgroup>
  </tile>
  <tile id="27">
   <properties>
    <property name="spikes" type="int" value="2"/>
   </properties>
  </tile>
  <tile id="10">
   <objectgroup draworder="index" id="2">
    <object id="1" x="0" y="0">
     <polygon points="0,0 16,0 16,16 0,16"/>
    </object>
   </objectgroup>
  </tile>
  <tile id="78">
   <objectgroup draworder="index" id="2">
    <object id="1" x="0" y="0">
     <polygon points="0,0 16,0 16,16 0,16"/>
    </object>
   </objectgroup>
  </tile>
  <tile id="109">
   <objectgroup draworder="index" id="2">
    <object id="1" x="0" y="16">
     <polygon points="0,0 0,-8 16,-8 16,0"/>
    </object>
   </objectgroup>
  </tile>
  <tile id="110">
   <objectgroup draworder="index" id="2">
    <object id="1" x="0" y="0">
     <polygon points="0,0 16,0 16,16 0,16"/>
    </object>
   </objectgroup>
  </tile>
  <tile id="84">
   <objectgroup draworder="index" id="2">
    <object id="1" x="0" y="0">
     <polygon points="0,0 16,0 16,16 0,16"/>
    </object>
   </objectgroup>
  </tile>
  <tile id="87">
   <objectgroup draworder="index" id="2">
    <object id="2" x="0" y="0">
     <polygon points="0,0 16,0 16,16 0,16"/>
    </object>
   </objectgroup>
  </tile>
  <tile id="88">
   <objectgroup draworder="index" id="2">
    <object id="1" x="0" y="0">
     <polygon points="0,0 16,0 16,16 0,16"/>
    </object>
   </objectgroup>
  </tile>
  <tile id="111">
   <objectgroup draworder="index" id="2">
    <object id="1" x="0" y="0">
     <polygon points="0,0 16,0 16,16 0,16"/>
    </object>
   </objectgroup>
  </tile>
  <tile id="90">
   <objectgroup draworder="index" id="2">
    <object id="1" x="0" y="0">
     <polygon points="0,0 16,0 16,16 0,16"/>
    </object>
   </objectgroup>
  </tile>
  <tile id="92">
   <objectgroup draworder="index" id="2">
    <object id="1" x="0" y="0">
     <polygon points="0,0 16,0 16,16 0,16"/>
    </object>
   </objectgroup>
  </tile>
  <tile id="62">
   <properties>
    <property name="spikes" type="int" value="1"/>
   </properties>
  </tile>
  <tile id="93">
   <objectgroup draworder="index" id="2">
    <object id="1" x="0" y="0">
     <polygon points="0,0 16,0 16,16 0,16"/>
    </object>
   </objectgroup>
  </tile>
  <tile id="95">
   <objectgroup draworder="index" id="2">
    <object id="1" x="0" y="0">
     <polygon points="0,0 16,0 16,16 0,16"/>
    </object>
   </objectgroup>
  </tile>
  <tile id="113">
   <objectgroup draworder="index" id="2">
    <object id="1" x="0" y="0">
     <polygon points="0,0 16,0 16,16 0,16"/>
    </object>
   </objectgroup>
  </tile>
  <tile id="114">
   <objectgroup draworder="index" id="2">
    <object id="1" x="0" y="0">
     <polygon points="0,0 16,0 16,16 0,16"/>
    </object>
   </objectgroup>
  </tile>
  <tile id="98">
   <objectgroup draworder="index" id="2">
    <object id="1" x="0" y="0">
     <polygon points="0,0 16,0 16,16 0,16"/>
    </object>
   </objectgroup>
  </tile>
  <tile id="96">
   <objectgroup draworder="index" id="2">
    <object id="1" x="0" y="0">
     <polygon points="0,0 16,0 16,16 0,16"/>
    </object>
   </objectgroup>
  </tile>
  <tile id="115">
   <objectgroup draworder="index" id="2">
    <object id="1" x="0" y="0">
     <polygon points="0,0 16,0 16,16 0,16"/>
    </object>
   </objectgroup>
  </tile>
  <tile id="116">
   <objectgroup draworder="index" id="2">
    <object id="1" x="0" y="0">
     <polygon points="0,0 16,0 16,16 0,16"/>
    </object>
   </objectgroup>
  </tile>
  <tile id="117">
   <objectgroup draworder="index" id="2">
    <object id="1" x="0" y="0">
     <polygon points="0,0 16,0 16,16 0,16"/>
    </object>
   </objectgroup>
  </tile>
 </tileset>
 <layer id="1" name="layer" width="124" height="29">
  <data encoding="csv">
2,2,2,2,2,2,2,2,79,6,7,7,7,7,7,7,7,7,7,7,7,7,7,7,7,7,7,7,7,7,7,7,7,7,7,7,7,7,7,7,7,7,7,7,7,7,7,7,7,7,7,7,7,7,7,7,39,15,2,2,2,2,2,2,64,8,34,35,34,35,34,31,7,7,7,7,7,7,7,7,7,7,7,7,7,7,7,7,7,7,7,7,7,7,7,7,7,7,47,21,10,2,2,2,25,5,6,7,7,7,7,7,7,7,7,7,7,7,7,7,7,7,7,7,
2,2,2,2,2,2,2,2,8,31,7,7,7,7,7,7,7,7,7,7,7,7,7,7,7,7,7,7,7,7,7,7,7,7,7,7,7,7,7,7,7,7,7,7,7,7,7,7,7,7,7,7,7,7,7,7,39,59,2,2,2,3,2,2,4,65,2,2,2,2,75,7,7,7,7,7,7,7,7,7,7,7,7,7,7,7,7,7,7,7,7,7,7,7,7,7,7,7,7,39,58,2,2,2,2,64,6,7,7,7,7,7,7,7,7,7,7,7,7,7,7,7,7,7,
2,2,2,2,2,2,2,15,6,7,7,7,7,7,7,7,7,7,7,7,7,7,7,7,7,7,7,7,7,7,7,7,7,7,7,7,7,7,7,7,7,7,7,7,7,7,7,7,7,46,7,7,7,7,7,7,39,30,41,2,15,73,42,2,64,65,2,2,2,2,75,7,7,7,7,7,7,7,7,7,7,7,7,7,7,7,7,7,7,7,7,7,7,7,7,7,7,7,7,56,59,59,2,2,25,15,26,55,7,7,7,7,7,7,7,7,7,7,13,13,13,13,13,13,
2,2,2,2,2,2,15,33,6,7,7,7,7,7,7,7,7,7,7,7,7,7,7,7,7,7,7,7,7,7,7,7,7,7,7,7,7,7,7,7,7,7,7,7,7,7,7,7,108,53,109,55,46,55,46,55,39,15,10,15,64,74,3,4,15,65,2,2,101,101,75,13,13,13,7,7,7,7,7,7,7,7,7,7,7,7,7,7,7,7,7,7,7,7,7,7,7,7,7,39,40,41,2,2,2,64,26,78,51,7,7,7,7,7,7,7,7,18,19,19,70,50,49,70,
2,2,2,2,2,25,15,8,31,7,7,7,7,7,7,7,7,7,7,7,7,7,7,7,7,7,7,7,7,7,7,7,7,7,7,7,7,7,7,7,7,7,7,7,7,7,7,108,41,101,101,2,53,2,53,25,56,8,35,35,35,34,21,8,35,34,2,2,69,50,50,49,50,50,43,7,7,36,7,7,36,7,7,7,7,7,36,7,7,7,7,36,7,7,7,7,7,7,18,32,72,2,2,2,2,25,48,50,60,7,7,7,7,7,7,7,7,39,30,24,72,15,22,72,
2,2,80,82,15,58,8,31,7,7,7,7,7,7,7,7,7,23,49,50,43,55,7,7,7,7,7,7,7,7,7,7,7,7,7,7,7,7,7,7,7,7,7,7,7,7,7,23,50,50,50,50,62,103,103,103,35,34,2,2,2,2,35,34,2,2,2,2,29,22,57,22,64,8,31,7,7,38,7,7,38,7,7,7,7,7,38,7,7,36,7,38,7,7,18,43,7,7,47,20,32,59,2,2,2,2,64,48,50,43,7,7,7,7,7,7,23,21,22,33,15,41,25,15,
2,25,81,83,8,20,31,7,7,7,7,7,7,7,7,7,18,32,15,8,26,2,76,77,61,76,51,7,7,7,7,7,7,7,7,7,7,7,7,7,7,7,7,23,60,7,7,39,40,22,30,8,65,2,2,2,2,2,2,2,2,2,2,2,2,2,2,101,29,30,41,25,58,6,7,7,7,7,7,7,7,7,7,7,7,7,7,7,7,38,7,7,7,7,37,6,7,7,7,7,47,21,2,2,2,2,64,30,64,17,7,7,7,7,7,7,39,22,2,2,2,41,2,2,
2,3,15,8,31,7,7,7,7,7,7,7,7,7,7,23,32,30,22,15,26,66,2,41,41,2,78,51,7,7,7,7,7,7,7,7,7,7,7,7,36,7,7,47,31,7,7,39,15,5,2,58,65,2,2,2,2,2,2,2,2,2,2,2,2,2,69,49,32,41,2,2,64,6,7,7,7,7,7,7,7,46,77,18,43,7,7,7,7,7,7,7,7,18,32,6,7,7,7,7,7,39,58,41,2,2,3,15,15,48,60,7,7,7,7,18,32,40,41,2,2,2,2,2,
15,8,20,31,7,7,7,7,7,7,7,7,7,7,7,39,22,57,2,58,48,62,66,2,101,101,101,78,51,7,7,7,36,7,7,7,7,7,7,7,45,7,7,7,7,7,7,37,59,64,25,30,65,2,2,2,2,2,2,2,2,2,2,2,2,2,29,30,22,2,2,25,4,6,7,7,7,7,7,46,52,53,78,56,48,43,46,7,7,7,7,46,55,56,58,48,43,7,7,7,7,37,59,2,2,64,8,9,9,9,6,7,7,7,7,47,21,15,5,2,2,2,2,2,
8,31,7,7,7,7,7,7,7,7,7,7,7,7,23,32,5,41,64,8,41,48,70,70,49,50,49,50,43,7,7,7,38,7,7,7,18,43,7,7,38,7,7,7,7,7,7,37,80,82,2,64,65,101,2,2,2,2,2,2,101,2,2,2,101,101,29,15,2,2,2,2,15,26,46,52,76,109,52,53,41,2,49,32,64,26,53,76,55,61,52,53,41,56,59,16,6,7,7,7,46,56,72,2,25,15,26,2,2,76,55,7,7,7,7,7,47,21,64,2,2,2,2,2,
6,7,7,7,7,7,7,7,7,7,7,18,49,50,32,4,3,64,40,14,14,15,33,33,72,15,5,22,48,43,7,7,7,7,7,7,47,31,7,7,7,7,7,7,7,7,7,39,81,83,25,5,48,49,62,66,66,66,66,69,62,66,66,66,69,70,19,42,2,2,2,25,5,26,53,2,2,2,2,2,2,2,56,15,64,26,41,2,2,2,41,2,101,56,72,16,6,7,7,7,18,32,59,2,2,64,26,101,101,25,78,51,7,7,7,7,7,39,15,41,2,2,2,2,
6,7,7,7,7,7,7,7,7,7,28,9,9,35,34,35,34,35,35,35,35,9,9,9,9,9,21,4,16,48,43,7,7,7,7,7,7,7,7,7,7,7,7,7,7,7,7,39,15,64,2,15,58,11,19,49,19,70,49,32,48,50,49,19,32,33,24,72,2,2,2,2,64,26,66,66,66,66,66,66,66,66,56,15,16,48,62,66,66,66,66,66,69,32,59,8,31,7,7,7,39,40,41,2,2,15,48,49,49,49,49,49,60,7,7,7,46,56,41,2,2,2,2,2,
6,7,7,7,7,7,7,7,7,7,7,103,103,2,2,2,2,2,2,2,2,2,2,2,2,2,29,58,15,58,6,7,7,7,7,7,7,7,7,7,7,7,7,7,7,7,7,39,22,2,2,79,25,11,33,64,24,24,72,57,64,15,57,33,15,64,33,2,2,2,2,2,25,8,49,50,49,50,49,50,49,50,21,4,15,8,49,50,50,49,50,49,32,40,8,31,7,7,7,46,39,22,10,2,2,57,57,57,57,64,64,8,31,7,7,108,53,56,64,2,2,2,2,2,
6,7,7,7,7,7,7,7,7,7,7,103,103,101,101,101,101,101,101,101,2,2,2,2,2,2,29,64,3,5,6,7,7,7,7,7,7,7,7,7,7,7,7,7,7,7,7,39,15,2,2,2,2,41,2,79,33,33,41,2,2,41,2,2,2,2,41,2,2,2,2,2,2,25,41,57,73,41,57,41,57,22,40,2,2,30,64,15,64,4,64,25,22,64,6,7,7,7,108,53,56,42,2,2,2,2,2,2,2,14,8,31,7,7,7,18,50,32,40,41,2,2,2,2,
48,43,51,7,7,7,7,7,7,7,28,69,50,50,50,49,50,49,49,62,2,2,2,2,2,2,29,5,80,82,6,7,7,7,7,7,7,7,7,7,7,7,7,7,7,7,7,39,30,41,2,2,2,2,2,2,2,41,2,2,2,2,2,2,2,2,2,2,2,2,2,2,2,2,2,57,74,10,15,3,4,15,10,15,3,4,15,10,15,5,10,58,8,20,31,7,7,7,23,50,32,15,2,2,2,2,2,2,2,79,6,7,7,7,7,37,21,73,22,2,2,2,2,2,
82,26,78,51,7,7,7,7,7,7,7,39,22,64,15,57,25,64,58,65,2,2,2,2,2,2,29,15,81,83,6,7,7,7,7,7,7,7,7,7,7,7,7,7,7,7,7,39,22,2,2,2,2,2,2,2,2,2,2,2,2,2,2,2,2,3,2,2,2,2,2,2,2,2,2,3,8,20,20,20,20,20,20,20,20,20,20,20,20,20,20,20,31,7,7,7,7,7,39,15,57,57,2,2,2,2,2,2,64,8,31,7,7,7,23,21,15,74,2,2,2,2,2,2,
83,48,70,43,7,7,7,7,7,7,7,39,5,2,41,2,2,15,64,65,2,2,101,101,101,101,29,22,57,16,6,7,7,7,7,7,7,7,7,7,7,7,7,7,7,7,7,39,15,2,2,2,2,2,2,2,2,2,2,2,2,2,2,2,15,73,42,2,2,2,3,2,2,2,25,5,6,7,7,7,7,7,7,7,7,7,7,7,7,7,7,7,7,7,7,7,7,7,47,21,3,10,2,2,2,2,2,15,8,31,7,7,7,110,111,41,2,2,2,2,2,2,2,2,
25,79,24,85,86,87,87,86,86,86,86,88,64,2,2,2,2,3,5,65,2,2,69,50,49,49,32,15,80,82,85,86,87,87,86,86,87,86,86,86,86,86,86,86,86,87,86,88,22,2,2,2,2,2,2,2,2,2,2,2,40,3,10,15,64,74,3,10,15,16,5,3,10,14,2,64,85,86,86,86,87,87,86,86,86,86,86,86,86,87,86,86,87,87,87,87,86,86,86,88,9,21,22,10,2,10,64,30,85,86,86,86,86,88,21,15,2,2,2,2,2,2,2,2,
2,16,33,89,90,90,90,90,90,90,90,112,73,41,2,2,16,80,82,65,2,2,29,15,57,4,3,40,81,83,89,90,90,90,90,90,90,90,90,90,90,90,90,90,90,90,90,112,80,82,2,2,2,2,2,10,15,3,10,15,8,9,9,9,9,9,9,9,9,9,9,9,21,15,2,3,89,90,90,90,90,90,90,90,90,90,90,90,90,90,90,90,90,90,90,90,90,90,90,90,90,112,9,72,15,73,3,8,89,90,90,90,90,112,22,80,82,2,2,2,2,2,2,2,
25,79,70,19,91,92,92,92,92,92,92,93,74,58,22,2,2,81,83,65,2,2,35,9,9,9,9,9,9,9,91,92,92,92,92,92,92,92,92,92,92,92,92,92,92,92,92,93,81,83,2,2,2,2,64,8,9,9,9,9,34,2,63,63,63,2,63,63,63,2,63,2,29,40,3,5,91,92,92,92,92,92,92,92,92,92,92,92,92,92,92,92,92,92,92,92,92,92,92,92,92,92,92,9,21,74,8,91,92,92,92,92,93,32,15,81,83,2,2,2,2,2,2,2,
64,4,33,24,94,95,95,95,95,95,95,96,64,22,2,2,2,57,14,65,2,2,2,2,2,2,2,2,2,103,105,95,95,95,95,95,95,95,95,95,95,95,95,95,95,95,95,96,15,2,2,2,2,2,15,65,2,2,2,2,2,2,2,2,2,2,2,2,2,2,2,2,35,9,9,9,94,95,95,95,95,95,95,95,95,95,95,95,95,95,95,95,95,95,95,95,95,95,95,95,95,95,95,95,96,9,94,95,95,95,95,95,96,32,2,15,59,2,2,2,2,2,2,2,
16,73,64,79,48,94,113,113,113,113,113,96,40,3,2,2,2,64,30,65,101,101,101,101,101,101,101,101,101,103,105,113,113,113,113,113,113,113,113,96,94,113,113,113,113,113,113,96,73,22,2,2,2,2,16,65,2,2,2,2,2,2,2,101,101,101,101,101,2,2,2,2,2,2,2,2,103,113,113,113,113,113,113,113,113,113,113,113,96,70,19,70,49,94,113,113,113,113,113,113,113,113,113,113,113,113,113,113,113,113,113,113,56,22,2,2,2,2,2,2,2,2,2,2,
16,74,79,24,21,26,98,98,98,98,98,114,22,80,82,2,2,2,16,65,49,19,70,50,49,70,50,49,19,49,49,98,98,98,98,98,98,98,98,114,115,98,98,98,98,98,98,114,74,22,2,2,2,2,2,65,2,2,2,2,2,2,2,69,49,70,49,62,2,2,2,2,2,2,2,2,103,98,98,98,98,98,98,98,98,98,98,98,99,33,24,33,64,48,97,98,98,98,98,98,98,98,98,98,98,98,98,98,98,98,98,96,32,22,2,2,2,2,2,2,2,2,2,2,
2,41,5,33,26,105,100,100,100,100,100,99,32,81,83,2,2,2,2,64,64,33,24,72,64,24,72,64,33,15,97,100,100,99,49,97,100,100,99,32,48,97,100,100,99,49,49,32,15,2,2,2,2,2,64,65,101,101,101,101,101,101,101,29,72,24,22,65,101,101,101,101,101,101,101,101,103,100,100,100,100,100,100,100,100,100,100,100,114,72,33,41,2,16,21,100,100,100,99,49,97,100,100,100,100,100,100,100,100,100,99,50,73,15,2,2,2,2,2,2,2,2,2,2,
2,2,64,40,26,105,102,102,102,102,102,114,33,57,2,2,2,2,2,2,79,64,33,41,25,33,41,25,25,79,97,102,102,56,30,26,102,102,56,80,82,26,102,102,56,80,82,22,2,2,2,2,2,2,25,48,50,50,70,19,49,49,49,32,22,33,15,48,49,50,19,70,49,19,49,50,97,102,102,102,102,102,102,102,102,102,102,102,114,58,2,2,2,64,70,19,19,70,32,15,70,19,70,97,102,102,102,102,99,49,32,22,74,2,2,2,2,2,2,2,2,2,2,2,
2,2,15,11,48,19,70,19,19,70,19,32,41,2,2,2,2,2,2,2,2,2,2,2,2,2,2,2,2,2,48,70,50,32,58,48,50,62,32,81,83,48,49,50,32,81,83,2,2,2,2,2,2,2,2,15,41,79,24,33,22,58,15,41,2,25,2,57,72,64,24,24,72,33,15,64,26,102,102,102,102,102,102,102,102,102,102,102,99,22,2,2,2,79,24,33,33,24,72,15,33,24,33,48,70,19,70,19,32,15,15,2,2,2,2,2,2,2,2,2,2,2,2,2,
2,16,80,82,79,33,33,24,24,24,33,15,41,2,2,2,2,2,2,2,2,2,2,2,2,2,2,2,2,2,16,24,72,73,22,2,72,22,73,22,2,22,30,80,82,57,2,2,2,2,2,2,2,2,2,2,2,2,33,15,41,2,2,2,2,2,2,2,2,2,57,33,22,25,2,16,115,102,102,102,102,102,102,102,102,102,102,102,99,4,41,2,2,25,33,41,57,33,41,2,2,33,41,64,33,24,24,33,57,80,82,2,2,2,2,2,2,2,2,2,2,2,2,2,
2,16,81,83,2,25,15,33,33,33,41,2,2,2,2,2,2,2,2,2,2,2,2,2,2,2,2,2,2,2,16,33,41,74,2,2,41,15,74,2,2,15,64,81,83,2,2,2,2,2,2,2,2,2,2,2,2,2,2,2,2,2,2,2,2,2,2,2,2,2,2,2,2,2,2,15,26,102,102,102,102,102,102,102,102,102,102,102,114,80,41,2,2,2,2,2,2,2,2,2,2,2,2,2,57,57,57,57,57,81,83,2,2,2,2,2,2,2,2,2,2,2,2,2,
2,2,116,117,2,2,2,2,2,2,2,2,2,2,2,2,2,2,2,2,2,2,2,2,2,2,2,2,2,2,2,2,2,116,2,2,2,2,116,2,2,2,2,2,2,2,2,2,2,2,2,2,2,2,2,2,2,2,2,2,2,2,2,2,2,2,2,2,2,2,2,2,2,2,2,118,115,102,102,102,102,102,102,102,102,102,102,102,99,81,41,2,2,2,2,2,2,2,2,2,2,2,2,2,2,2,2,2,2,2,2,2,2,2,2,2,2,2,2,2,2,2,2,2
</data>
 </layer>
</map>
