<?xml version="1.0" encoding="UTF-8"?>
<map version="1.10" tiledversion="1.11.0" orientation="orthogonal" renderorder="right-down" width="32" height="256" tilewidth="16" tileheight="16" infinite="0" nextlayerid="2" nextobjectid="1">
 <tileset firstgid="1" name="tiles" tilewidth="16" tileheight="16" tilecount="192" columns="14">
  <image source="pm.png" width="224" height="224"/>
  <tile id="118">
   <objectgroup draworder="index" id="2">
    <object id="1" x="0" y="0">
     <polygon points="0,0 16,0 16,16 0,16"/>
    </object>
   </objectgroup>
  </tile>
  <tile id="124">
   <objectgroup draworder="index" id="2">
    <object id="1" x="0" y="0">
     <properties>
      <property name="type" type="int" value="1"/>
     </properties>
     <polygon points="0,0 16,0 16,16 0,16"/>
    </object>
   </objectgroup>
  </tile>
  <tile id="125">
   <objectgroup draworder="index" id="2">
    <object id="1" x="0" y="0">
     <polygon points="0,0 16,0 16,16 0,16"/>
    </object>
   </objectgroup>
  </tile>
  <tile id="126">
   <objectgroup draworder="index" id="2">
    <object id="1" x="0" y="0">
     <properties>
      <property name="type" type="int" value="1"/>
     </properties>
     <polygon points="0,0 16,0 16,16 0,16"/>
    </object>
   </objectgroup>
  </tile>
  <tile id="127">
   <objectgroup draworder="index" id="2">
    <object id="1" x="0" y="0">
     <polygon points="0,0 16,0 16,16 0,16"/>
    </object>
   </objectgroup>
  </tile>
  <tile id="129">
   <objectgroup draworder="index" id="2">
    <object id="1" x="0" y="0">
     <polygon points="0,0 16,0 16,16 0,16"/>
    </object>
   </objectgroup>
  </tile>
  <tile id="130">
   <objectgroup draworder="index" id="2">
    <object id="1" x="0" y="0">
     <polygon points="0,0 16,0 16,16 0,16"/>
    </object>
   </objectgroup>
  </tile>
  <tile id="132">
   <objectgroup draworder="index" id="2">
    <object id="1" x="0" y="0">
     <polygon points="0,0 16,0 16,16 0,16"/>
    </object>
   </objectgroup>
  </tile>
  <tile id="133">
   <objectgroup draworder="index" id="2">
    <object id="1" x="0" y="0">
     <polygon points="0,0 16,0 16,16 0,16"/>
    </object>
   </objectgroup>
  </tile>
  <tile id="134">
   <objectgroup draworder="index" id="2">
    <object id="1" x="0" y="0">
     <polygon points="0,0 16,0 16,16 0,16"/>
    </object>
   </objectgroup>
  </tile>
  <tile id="135">
   <objectgroup draworder="index" id="2">
    <object id="1" x="0" y="0">
     <polygon points="0,0 16,0 16,16 0,16"/>
    </object>
   </objectgroup>
  </tile>
  <tile id="138">
   <objectgroup draworder="index" id="2">
    <object id="1" x="0" y="0">
     <polygon points="0,0 16,0 16,16 0,16"/>
    </object>
   </objectgroup>
  </tile>
  <tile id="139">
   <objectgroup draworder="index" id="2">
    <object id="1" x="0" y="0">
     <polygon points="0,0 16,0 16,16 0,16"/>
    </object>
   </objectgroup>
  </tile>
  <tile id="140">
   <objectgroup draworder="index" id="2">
    <object id="1" x="0" y="0">
     <polygon points="0,0 16,0 16,16 0,16"/>
    </object>
   </objectgroup>
  </tile>
  <tile id="141">
   <objectgroup draworder="index" id="2">
    <object id="1" x="0" y="0">
     <polygon points="0,0 16,0 16,16 0,16"/>
    </object>
   </objectgroup>
  </tile>
  <tile id="142">
   <objectgroup draworder="index" id="2">
    <object id="1" x="0" y="0">
     <polygon points="0,0 16,0 16,16 0,16"/>
    </object>
   </objectgroup>
  </tile>
  <tile id="143">
   <objectgroup draworder="index" id="2">
    <object id="1" x="0" y="0">
     <polygon points="0,0 16,0 16,16 0,16"/>
    </object>
   </objectgroup>
  </tile>
  <tile id="144">
   <objectgroup draworder="index" id="2">
    <object id="1" x="0" y="0">
     <polygon points="0,0 16,0 16,16 0,16"/>
    </object>
   </objectgroup>
  </tile>
  <tile id="145">
   <objectgroup draworder="index" id="2">
    <object id="1" x="0" y="0">
     <polygon points="0,0 16,0 16,16 0,16"/>
    </object>
   </objectgroup>
  </tile>
  <tile id="148">
   <objectgroup draworder="index" id="2">
    <object id="1" x="0" y="0">
     <polygon points="0,0 16,0 16,16 0,16"/>
    </object>
   </objectgroup>
  </tile>
  <tile id="149">
   <objectgroup draworder="index" id="2">
    <object id="1" x="0" y="0">
     <polygon points="0,0 16,0 16,16 0,16"/>
    </object>
   </objectgroup>
  </tile>
  <tile id="150">
   <objectgroup draworder="index" id="2">
    <object id="1" x="0" y="0">
     <polygon points="0,0 16,0 16,16 0,16"/>
    </object>
   </objectgroup>
  </tile>
  <tile id="151">
   <objectgroup draworder="index" id="2">
    <object id="1" x="0" y="0">
     <polygon points="0,0 16,0 16,16 0,16"/>
    </object>
   </objectgroup>
  </tile>
  <tile id="152">
   <objectgroup draworder="index" id="2">
    <object id="1" x="0" y="0">
     <polygon points="0,0 16,0 16,16 0,16"/>
    </object>
   </objectgroup>
  </tile>
  <tile id="153">
   <objectgroup draworder="index" id="2">
    <object id="1" x="0" y="0">
     <polygon points="0,0 16,0 16,16 0,16"/>
    </object>
   </objectgroup>
  </tile>
  <tile id="154">
   <objectgroup draworder="index" id="2">
    <object id="1" x="0" y="0">
     <polygon points="0,0 16,0 16,16 0,16"/>
    </object>
   </objectgroup>
  </tile>
  <tile id="155">
   <objectgroup draworder="index" id="2">
    <object id="1" x="0" y="0">
     <polygon points="0,0 16,0 16,16 0,16"/>
    </object>
   </objectgroup>
  </tile>
  <tile id="156">
   <objectgroup draworder="index" id="2">
    <object id="1" x="0" y="0">
     <polygon points="0,0 16,0 16,16 0,16"/>
    </object>
   </objectgroup>
  </tile>
  <tile id="157">
   <objectgroup draworder="index" id="2">
    <object id="1" x="0" y="0">
     <polygon points="0,0 16,0 16,16 0,16"/>
    </object>
   </objectgroup>
  </tile>
  <tile id="158">
   <objectgroup draworder="index" id="2">
    <object id="1" x="0" y="0">
     <polygon points="0,0 16,0 16,16 0,16"/>
    </object>
   </objectgroup>
  </tile>
  <tile id="159">
   <objectgroup draworder="index" id="2">
    <object id="1" x="0" y="0">
     <polygon points="0,0 16,0 16,16 0,16"/>
    </object>
   </objectgroup>
  </tile>
  <tile id="160">
   <objectgroup draworder="index" id="2">
    <object id="2" x="0" y="0">
     <polygon points="0,0 16,0 16,16 0,16"/>
    </object>
   </objectgroup>
  </tile>
  <tile id="161">
   <objectgroup draworder="index" id="2">
    <object id="1" x="0" y="0">
     <polygon points="0,0 16,0 16,16 0,16"/>
    </object>
   </objectgroup>
  </tile>
  <tile id="162">
   <objectgroup draworder="index" id="2">
    <object id="1" x="0" y="0">
     <polygon points="0,0 16,0 16,16 0,16"/>
    </object>
   </objectgroup>
  </tile>
  <tile id="163">
   <objectgroup draworder="index" id="2">
    <object id="1" x="0" y="0">
     <polygon points="0,0 16,0 16,16 0,16"/>
    </object>
   </objectgroup>
  </tile>
  <tile id="164">
   <objectgroup draworder="index" id="2">
    <object id="1" x="0" y="0">
     <polygon points="0,0 16,0 16,16 0,16"/>
    </object>
   </objectgroup>
  </tile>
  <tile id="165">
   <objectgroup draworder="index" id="2">
    <object id="1" x="0" y="0">
     <polygon points="0,0 16,0 16,16 0,16"/>
    </object>
   </objectgroup>
  </tile>
  <tile id="166">
   <objectgroup draworder="index" id="2">
    <object id="2" x="0" y="0">
     <polygon points="0,0 16,0 16,16 0,16"/>
    </object>
   </objectgroup>
  </tile>
  <tile id="167">
   <objectgroup draworder="index" id="2">
    <object id="1" x="0" y="0">
     <polygon points="0,0 16,0 16,16 0,16"/>
    </object>
   </objectgroup>
  </tile>
  <tile id="168">
   <properties>
    <property name="spikes" type="int" value="1"/>
   </properties>
  </tile>
  <tile id="169">
   <objectgroup draworder="index" id="2">
    <object id="1" x="0" y="0">
     <polygon points="0,0 16,0 16,16 0,16"/>
    </object>
   </objectgroup>
  </tile>
  <tile id="170">
   <objectgroup draworder="index" id="2">
    <object id="1" x="0" y="0">
     <polygon points="0,0 16,0 16,16 0,16"/>
    </object>
   </objectgroup>
  </tile>
  <tile id="171">
   <objectgroup draworder="index" id="2">
    <object id="1" x="0" y="0">
     <polygon points="0,0 16,0 16,16 0,16"/>
    </object>
   </objectgroup>
  </tile>
  <tile id="172">
   <objectgroup draworder="index" id="2">
    <object id="1" x="0" y="0">
     <polygon points="0,0 16,0 16,16 0,16"/>
    </object>
   </objectgroup>
  </tile>
  <tile id="173">
   <objectgroup draworder="index" id="2">
    <object id="1" x="0" y="0">
     <polygon points="0,0 16,0 16,16 0,16"/>
    </object>
   </objectgroup>
  </tile>
  <tile id="174">
   <objectgroup draworder="index" id="2">
    <object id="1" x="0" y="0">
     <polygon points="0,0 16,0 16,16 0,16"/>
    </object>
   </objectgroup>
  </tile>
  <tile id="175">
   <objectgroup draworder="index" id="2">
    <object id="1" x="0" y="0">
     <polygon points="0,0 16,0 16,16 0,16"/>
    </object>
   </objectgroup>
  </tile>
  <tile id="176">
   <objectgroup draworder="index" id="2">
    <object id="1" x="0" y="0">
     <polygon points="0,0 16,0 16,16 0,16"/>
    </object>
   </objectgroup>
  </tile>
  <tile id="177">
   <objectgroup draworder="index" id="2">
    <object id="1" x="0" y="0">
     <polygon points="0,0 16,0 16,16 0,16"/>
    </object>
   </objectgroup>
  </tile>
  <tile id="182">
   <objectgroup draworder="index" id="2">
    <object id="1" x="0" y="0">
     <polygon points="0,0 16,0 16,16 0,16"/>
    </object>
   </objectgroup>
  </tile>
  <tile id="183">
   <objectgroup draworder="index" id="2">
    <object id="1" x="0" y="0">
     <polygon points="0,0 16,0 16,16 0,16"/>
    </object>
   </objectgroup>
  </tile>
  <tile id="185">
   <objectgroup draworder="index" id="2">
    <object id="1" x="0" y="0">
     <polygon points="0,0 16,0 16,16 0,16"/>
    </object>
   </objectgroup>
  </tile>
  <tile id="186">
   <objectgroup draworder="index" id="2">
    <object id="1" x="0" y="0">
     <polygon points="0,0 16,0 16,16 0,16"/>
    </object>
   </objectgroup>
  </tile>
  <tile id="188">
   <objectgroup draworder="index" id="2">
    <object id="1" x="0" y="0">
     <polygon points="0,0 16,0 16,16 0,16"/>
    </object>
   </objectgroup>
  </tile>
  <tile id="189">
   <objectgroup draworder="index" id="2">
    <object id="1" x="0" y="0">
     <polygon points="0,0 16,0 16,16 0,16"/>
    </object>
   </objectgroup>
  </tile>
  <tile id="190">
   <objectgroup draworder="index" id="2">
    <object id="1" x="0" y="0">
     <polygon points="0,0 16,0 16,16 0,16"/>
    </object>
   </objectgroup>
  </tile>
  <tile id="191">
   <objectgroup draworder="index" id="2">
    <object id="1" x="0" y="0">
     <polygon points="0,0 16,0 16,16 0,16"/>
    </object>
   </objectgroup>
  </tile>
 </tileset>
 <layer id="1" name="layer" width="32" height="256">
  <data encoding="csv">
119,119,119,119,119,119,119,119,119,119,119,119,119,119,119,119,119,119,119,119,119,119,119,119,119,119,119,119,119,119,119,119,
120,120,120,120,120,120,120,120,120,120,120,120,120,120,120,120,120,120,120,120,120,120,120,120,120,120,120,120,120,120,120,120,
120,120,120,120,120,120,120,120,120,120,120,120,120,120,120,120,120,120,120,120,120,120,120,120,120,120,120,120,120,120,120,120,
120,120,120,120,120,120,120,120,120,120,120,120,120,120,120,120,120,120,120,120,120,120,120,120,120,120,120,120,120,120,120,120,
120,120,120,120,120,120,120,120,120,120,120,120,120,120,120,120,120,120,120,120,120,120,120,120,120,120,120,120,120,120,120,120,
120,120,120,120,120,120,120,120,120,120,120,120,120,120,120,120,120,120,120,120,120,120,120,120,120,120,120,120,120,120,120,120,
121,121,121,121,121,121,121,121,121,121,121,121,121,121,121,121,121,121,121,121,121,121,121,121,121,121,121,121,121,121,121,121,
122,122,122,122,122,122,122,122,122,122,122,122,122,122,122,122,122,122,122,122,122,122,122,122,122,122,122,122,122,122,122,122,
123,123,123,123,123,123,123,123,123,123,123,123,123,123,123,123,123,123,123,123,123,123,123,123,123,123,123,123,123,123,123,123,
123,123,123,123,123,123,123,123,123,123,123,123,123,123,123,123,123,123,123,123,123,123,123,123,123,123,123,123,123,123,123,123,
123,123,123,123,123,123,123,123,123,123,123,123,123,123,123,123,123,123,123,123,123,123,123,123,123,123,123,123,123,123,123,123,
123,123,123,123,123,123,123,123,123,123,123,123,123,123,123,123,123,123,123,123,123,123,123,123,123,123,123,123,123,123,123,123,
123,123,123,123,123,123,123,123,123,123,123,123,123,123,123,123,123,123,123,123,123,123,123,123,123,123,123,123,123,123,123,123,
123,123,123,123,123,123,123,123,123,123,123,123,123,123,123,123,123,123,123,123,123,123,123,123,123,123,123,123,123,123,123,123,
124,124,124,124,124,124,124,124,124,124,124,124,124,124,124,124,124,124,124,124,124,124,124,124,124,124,124,124,124,124,124,124,
125,125,125,125,125,125,125,125,125,125,125,126,125,127,125,127,125,127,125,127,128,125,125,125,125,125,125,125,125,125,125,125,
129,129,129,129,129,129,129,129,129,129,130,131,132,132,132,132,132,132,132,132,133,134,129,129,129,129,129,129,129,129,129,129,
129,129,129,129,129,129,129,129,129,135,136,131,137,138,137,138,137,138,138,137,133,136,139,129,129,129,129,129,129,129,129,129,
129,129,129,129,129,129,129,129,129,135,132,140,123,123,123,123,123,123,123,123,141,132,142,129,129,129,129,129,129,129,129,129,
129,129,129,129,129,129,129,129,129,129,130,143,123,123,123,123,123,123,123,123,141,134,129,129,129,129,129,129,129,129,129,129,
129,129,129,129,129,129,129,129,129,135,136,140,123,123,123,123,123,123,123,123,144,136,139,129,129,129,129,129,129,129,129,129,
129,129,129,129,129,129,129,129,129,135,132,143,123,123,123,123,123,123,123,123,144,132,142,129,129,129,129,129,129,129,129,129,
129,129,129,129,129,129,129,129,129,129,130,140,123,123,123,123,123,123,123,123,141,134,129,129,129,129,129,129,129,129,129,129,
129,129,129,129,129,129,129,129,129,135,136,140,123,123,123,123,123,123,123,123,144,136,139,129,129,129,129,129,129,129,129,129,
129,129,129,129,129,129,129,129,129,135,132,140,123,123,145,146,123,123,123,123,144,132,142,129,129,129,129,129,129,129,129,129,
129,129,129,129,129,129,129,129,129,129,130,140,123,123,147,148,123,123,123,123,144,134,129,129,129,129,129,129,129,129,129,129,
129,129,129,129,129,129,129,129,129,135,136,143,123,123,123,123,123,145,146,123,144,136,139,129,129,129,129,129,129,129,129,129,
129,129,129,129,129,129,129,129,129,135,132,143,123,123,123,123,123,147,148,123,144,132,142,129,129,129,129,129,129,129,129,129,
129,129,129,129,129,129,129,129,129,129,130,140,123,123,123,123,123,123,123,123,141,134,129,129,129,129,129,129,129,129,129,129,
129,129,129,129,129,129,129,129,129,129,136,140,123,123,145,146,123,123,123,123,144,136,129,129,129,129,129,129,129,129,129,129,
129,129,129,129,129,129,129,129,129,149,132,140,123,123,147,148,123,123,123,123,144,132,142,129,129,129,129,129,129,129,129,129,
129,129,129,129,129,129,129,129,129,129,130,140,123,123,123,123,123,123,123,123,144,134,129,129,129,129,129,129,129,129,129,129,
129,129,129,129,129,129,129,129,129,129,136,140,123,123,123,123,123,145,146,123,141,136,129,129,129,129,129,129,129,129,129,129,
129,129,129,129,129,129,129,129,129,149,132,143,123,123,123,123,123,147,148,123,141,132,142,129,129,129,129,129,129,129,129,129,
129,129,129,129,129,129,129,129,129,129,130,140,123,145,146,123,123,123,123,123,144,134,129,129,129,129,129,129,129,129,129,129,
129,129,129,129,129,129,129,129,129,129,136,140,123,147,148,123,123,123,123,123,144,136,129,129,129,129,129,129,129,129,129,129,
129,129,129,129,129,129,129,129,129,149,132,143,123,123,123,123,123,123,123,123,144,132,142,129,129,129,129,129,129,129,129,129,
129,129,129,129,129,129,129,129,129,129,130,140,123,123,123,123,123,145,146,123,144,134,129,129,129,129,129,129,129,129,129,129,
129,129,129,129,129,129,129,129,129,129,136,143,123,145,146,123,123,147,148,123,144,136,129,129,129,129,129,129,129,129,129,129,
129,129,129,129,129,129,129,129,129,149,132,143,123,147,148,123,123,123,123,123,141,132,142,129,129,129,129,129,129,129,129,129,
129,129,129,129,129,129,129,129,129,129,130,143,123,123,123,123,123,123,123,123,141,134,129,129,129,129,129,129,129,129,129,129,
129,129,129,129,129,129,129,129,129,129,136,140,123,123,123,123,123,145,146,123,144,136,129,129,129,129,129,129,129,129,129,129,
129,129,129,129,129,129,129,129,129,149,132,140,123,123,123,123,123,147,148,123,144,132,142,129,129,129,129,129,129,129,129,129,
129,129,129,129,129,129,129,129,129,129,130,140,123,145,146,123,123,123,123,123,144,134,129,129,129,129,129,129,129,129,129,129,
129,129,129,129,129,129,129,129,129,129,136,140,123,147,148,123,123,123,123,123,144,136,129,129,129,129,129,129,129,129,129,129,
129,129,129,129,129,129,129,129,129,149,132,140,123,123,123,123,123,123,123,123,141,132,142,129,129,129,129,129,129,129,129,129,
129,129,129,129,129,129,129,129,129,129,130,140,123,123,123,123,123,145,146,123,141,134,129,129,129,129,129,129,129,129,129,129,
129,129,129,129,129,129,129,129,129,129,136,140,123,123,123,123,123,147,148,123,144,136,129,129,129,129,129,129,129,129,129,129,
129,129,129,129,129,129,129,129,129,149,132,143,123,123,123,123,123,123,123,123,144,132,142,129,129,129,129,129,129,129,129,129,
129,129,129,129,129,129,129,129,129,129,130,140,123,145,146,123,123,123,123,123,144,134,129,129,129,129,129,129,129,129,129,129,
129,129,129,129,129,129,129,129,129,129,136,143,123,147,148,123,123,123,123,123,144,136,129,129,129,129,129,129,129,129,129,129,
129,129,129,129,129,129,129,129,129,149,132,140,123,123,123,123,123,123,123,123,141,132,142,129,129,129,129,129,129,129,129,129,
129,129,129,129,129,129,129,129,129,129,130,140,123,123,123,123,123,145,146,123,144,134,129,129,129,129,129,129,129,129,129,129,
129,129,129,129,129,129,129,129,129,129,136,140,123,123,123,123,123,147,148,123,144,136,129,129,129,129,129,129,129,129,129,129,
129,129,129,129,129,129,129,129,129,149,132,140,123,123,123,123,123,123,123,123,144,132,142,129,129,129,129,129,129,129,129,129,
129,129,129,129,129,129,129,129,129,129,130,140,123,123,145,146,123,123,123,123,141,134,129,129,129,129,129,129,129,129,129,129,
129,129,129,129,129,129,129,129,129,129,136,150,125,127,125,127,125,127,125,127,151,136,129,129,129,129,129,129,129,129,129,129,
129,129,129,129,129,129,129,129,129,149,132,152,132,132,132,132,132,132,132,132,153,132,142,129,129,129,129,129,129,129,129,129,
129,129,129,129,129,129,129,129,129,129,130,131,129,129,129,129,129,129,129,129,133,134,129,129,129,129,129,129,129,129,129,129,
129,129,129,129,129,129,129,129,129,129,136,131,129,129,129,129,129,129,129,129,133,136,129,129,129,129,129,129,129,129,129,129,
129,129,129,129,129,129,129,129,129,149,132,131,129,129,129,129,129,128,125,127,151,132,142,129,129,129,129,129,129,129,129,129,
129,129,129,129,129,129,129,129,129,129,130,131,129,129,129,129,129,133,134,154,136,129,129,129,129,129,129,129,129,129,129,129,
129,129,129,129,129,129,129,129,129,129,136,150,126,129,129,129,129,133,132,142,129,129,129,129,129,129,129,129,129,129,129,129,
129,129,129,129,129,129,129,129,129,129,129,130,131,129,129,129,129,155,153,134,129,129,129,129,129,129,129,129,129,129,129,129,
129,129,129,129,129,129,129,129,129,129,129,156,150,126,129,129,129,129,133,132,142,129,129,129,129,129,129,129,129,129,129,129,
129,129,129,129,129,129,129,129,129,129,129,129,156,150,126,129,129,129,133,134,129,129,129,129,129,129,129,129,129,129,129,129,
129,129,129,129,129,129,129,129,129,129,129,129,129,156,157,129,129,129,155,119,153,142,129,129,129,129,129,129,129,129,129,129,
129,129,129,129,129,129,129,129,129,129,129,129,129,132,157,129,129,129,129,129,158,134,129,129,129,129,129,129,129,129,129,129,
129,129,129,129,129,129,129,129,129,129,129,129,129,130,157,137,138,138,137,138,158,136,129,129,129,129,129,129,129,129,129,129,
129,129,129,129,129,129,129,129,129,129,129,129,129,136,140,123,123,123,123,123,144,132,129,129,129,129,129,129,129,129,129,129,
129,129,129,129,129,129,129,129,129,129,129,129,129,132,140,123,123,145,125,127,151,159,129,129,129,129,129,129,129,129,129,129,
129,129,129,129,129,129,129,129,129,129,129,129,129,130,143,123,123,141,132,154,159,129,129,129,129,129,129,129,129,129,129,129,
129,129,129,129,129,129,129,129,129,129,129,129,129,136,140,123,123,141,134,129,129,129,129,129,129,129,129,129,129,129,129,129,
129,129,129,129,129,129,129,129,129,129,129,129,129,132,140,123,123,144,136,129,129,129,129,129,129,129,129,129,129,129,129,129,
129,129,129,129,129,129,129,129,129,129,129,136,160,130,143,123,123,144,160,132,129,129,129,129,129,129,129,129,129,129,129,129,
129,129,129,129,129,129,129,129,129,129,129,152,161,161,162,123,123,163,161,161,153,129,129,129,129,129,129,129,129,129,129,129,
129,129,129,129,129,129,129,129,129,135,164,140,123,123,123,123,123,123,123,123,141,134,129,129,129,129,129,129,129,129,129,129,
129,129,129,129,129,129,129,129,129,129,130,140,123,123,123,123,123,123,123,123,144,165,129,129,129,129,129,129,129,129,129,129,
129,129,129,129,129,129,129,129,129,129,166,143,123,123,123,123,123,123,123,123,144,132,134,129,129,129,129,129,129,129,129,129,
129,129,129,129,129,129,129,129,129,129,132,140,123,123,123,123,123,123,123,123,144,167,129,129,129,129,129,129,129,129,129,129,
129,129,129,129,129,129,129,129,129,135,164,140,123,123,123,123,123,123,123,123,141,134,129,129,129,129,129,129,129,129,129,129,
129,129,129,129,129,129,129,129,129,129,130,140,123,123,123,123,123,123,123,123,141,165,129,129,129,129,129,129,129,129,129,129,
129,129,129,129,129,129,129,129,129,129,166,140,123,123,123,123,123,123,123,123,144,132,134,129,129,129,129,129,129,129,129,129,
129,129,129,129,129,129,129,129,129,129,132,143,123,123,123,123,123,123,123,123,144,167,129,129,129,129,129,129,129,129,129,129,
129,129,129,129,129,129,129,129,129,135,164,143,123,123,123,123,123,123,123,123,144,134,129,129,129,129,129,129,129,129,129,129,
129,129,129,129,129,129,129,129,129,129,130,140,123,123,123,123,123,123,123,123,141,165,129,129,129,129,129,129,129,129,129,129,
129,129,129,129,129,129,129,129,129,129,166,140,123,123,123,123,123,123,123,123,144,132,134,129,129,129,129,129,129,129,129,129,
129,129,129,129,129,129,129,129,129,129,132,140,123,123,123,123,123,123,123,123,144,167,129,129,129,129,129,129,129,129,129,129,
129,129,129,129,129,129,129,129,129,135,164,140,123,123,123,123,123,123,123,123,144,134,129,129,129,129,129,129,129,129,129,129,
129,129,129,129,129,129,129,129,129,129,130,143,123,123,123,123,123,123,123,123,141,165,129,129,129,129,129,129,129,129,129,129,
129,129,129,129,129,129,129,129,129,129,166,143,123,123,123,123,123,123,123,123,144,132,134,129,129,129,129,129,129,129,129,129,
129,129,129,129,129,129,129,129,129,129,132,140,123,123,123,123,123,123,123,123,144,167,129,129,129,129,129,129,129,129,129,129,
129,129,129,129,129,129,129,129,129,135,164,140,123,123,123,123,123,123,123,123,144,134,129,129,129,129,129,129,129,129,129,129,
129,129,129,129,129,129,129,129,129,129,130,140,123,123,123,123,123,123,123,123,144,165,129,129,129,129,129,129,129,129,129,129,
129,129,129,129,129,129,129,129,129,129,166,140,123,123,123,123,123,123,123,123,141,132,134,129,129,129,129,129,129,129,129,129,
129,129,129,129,129,129,129,129,129,129,132,143,123,123,123,123,123,123,123,123,141,167,129,129,129,129,129,129,129,129,129,129,
129,129,129,129,129,129,129,129,129,135,164,143,123,123,123,123,123,123,123,123,144,134,129,129,129,129,129,129,129,129,129,129,
129,129,129,129,129,129,129,129,129,129,130,143,123,123,123,123,123,123,123,123,144,165,129,129,129,129,129,129,129,129,129,129,
129,129,129,129,129,129,129,129,129,129,166,140,123,123,123,123,123,123,123,123,144,132,134,129,129,129,129,129,129,129,129,129,
129,129,129,129,129,129,129,129,129,129,132,140,123,123,123,123,123,123,123,123,144,167,129,129,129,129,129,129,129,129,129,129,
129,129,129,129,129,129,129,129,129,135,164,140,123,123,123,123,123,123,123,123,141,134,129,129,129,129,129,129,129,129,129,129,
129,129,129,129,129,129,129,129,129,129,130,140,123,123,123,123,123,123,123,123,144,165,129,129,129,129,129,129,129,129,129,129,
129,129,129,129,129,129,129,129,129,129,166,140,123,123,123,123,123,123,123,123,141,132,134,129,129,129,129,129,129,129,129,129,
129,129,129,129,129,129,129,129,129,129,132,140,123,123,123,123,123,123,123,123,144,167,129,129,129,129,129,129,129,129,129,129,
129,129,129,129,129,129,129,129,129,135,164,143,123,123,123,123,123,123,123,123,144,134,129,129,129,129,129,129,129,129,129,129,
129,129,129,129,129,129,129,129,129,129,130,140,123,123,123,123,123,123,123,123,144,165,129,129,129,129,129,129,129,129,129,129,
129,129,129,129,129,129,129,129,129,129,166,140,123,123,123,123,123,123,123,123,141,132,134,129,129,129,129,129,129,129,129,129,
129,129,129,129,129,129,129,129,129,129,132,140,123,123,123,123,123,123,123,123,144,167,129,129,129,129,129,129,129,129,129,129,
129,129,129,129,129,129,129,129,129,135,164,143,123,123,123,123,123,123,123,123,144,134,129,129,129,129,129,129,129,129,129,129,
129,129,129,129,129,129,129,129,129,129,130,143,123,123,123,123,123,123,123,123,144,165,129,129,129,129,129,129,129,129,129,129,
129,129,129,129,129,129,129,129,129,129,166,143,123,123,123,123,123,123,123,123,141,132,134,129,129,129,129,129,129,129,129,129,
129,129,129,129,129,129,129,129,129,129,132,140,123,123,123,123,123,123,123,123,141,167,129,129,129,129,129,129,129,129,129,129,
129,129,129,129,129,129,129,129,129,135,164,140,123,123,123,123,123,123,123,123,144,134,129,129,129,129,129,129,129,129,129,129,
129,129,129,129,129,129,129,129,129,129,130,140,123,123,123,123,123,123,123,123,144,165,129,129,129,129,129,129,129,129,129,129,
129,129,129,129,129,129,129,129,129,129,166,143,123,123,123,123,123,123,123,123,144,132,134,129,129,129,129,129,129,129,129,129,
129,129,129,129,129,129,129,129,129,129,132,150,127,146,123,123,123,123,168,127,151,167,129,129,129,129,129,129,129,129,129,129,
129,129,129,129,129,129,129,129,129,135,164,140,169,169,123,123,123,123,169,169,144,134,129,129,129,129,129,129,129,129,129,129,
129,129,129,129,129,129,129,129,129,129,130,140,123,123,123,123,123,123,123,123,144,165,129,129,129,129,129,129,129,129,129,129,
129,129,129,129,129,129,129,129,129,129,166,140,123,123,123,123,123,123,123,123,141,132,134,129,129,129,129,129,129,129,129,129,
129,129,129,129,129,129,129,129,129,129,132,143,123,123,123,123,123,123,123,123,144,167,129,129,129,129,129,129,129,129,129,129,
129,129,129,129,129,129,129,129,129,129,164,143,123,123,123,123,123,123,123,123,144,134,129,129,129,129,129,129,129,129,129,129,
129,129,129,129,129,129,129,129,129,129,130,140,123,123,123,123,123,123,123,123,144,165,129,129,129,129,129,129,129,129,129,129,
129,129,129,129,129,129,129,129,129,129,166,140,123,123,123,145,146,123,123,123,144,132,134,129,129,129,129,129,129,129,129,129,
129,129,129,129,129,129,129,129,129,129,132,140,123,123,123,169,169,123,123,123,141,167,129,129,129,129,129,129,129,129,129,129,
129,129,129,129,129,129,129,129,129,129,164,140,123,123,123,123,123,123,123,123,141,134,129,129,129,129,129,129,129,129,129,129,
129,129,129,129,129,129,129,129,129,129,130,143,123,123,123,123,123,123,123,123,144,165,129,129,129,129,129,129,129,129,129,129,
129,129,129,129,129,129,129,129,129,129,166,140,123,123,123,123,123,123,123,123,144,132,134,129,129,129,129,129,129,129,129,129,
129,129,129,129,129,129,129,129,129,129,132,140,123,123,123,123,123,123,123,123,144,167,129,129,129,129,129,129,129,129,129,129,
129,129,129,129,129,129,129,129,129,129,164,140,123,123,123,123,123,123,123,123,144,134,129,129,129,129,129,129,129,129,129,129,
129,129,129,129,129,129,129,129,129,129,130,140,123,123,123,123,123,123,123,123,141,165,129,129,129,129,129,129,129,129,129,129,
129,129,129,129,129,129,129,129,129,129,166,140,123,123,123,123,123,123,123,123,144,132,134,129,129,129,129,129,129,129,129,129,
129,129,129,129,129,129,129,129,129,129,132,143,123,123,123,123,123,123,123,123,144,167,129,129,129,129,129,129,129,129,129,129,
129,129,129,129,129,129,129,129,129,129,164,143,123,123,123,123,123,123,123,123,144,134,129,129,129,129,129,129,129,129,129,129,
129,129,129,129,129,129,129,129,129,129,130,143,123,123,123,123,123,123,123,123,144,165,129,129,129,129,129,129,129,129,129,129,
129,129,129,129,129,129,129,129,129,129,166,140,123,123,123,123,123,123,123,123,144,132,134,129,129,129,129,129,129,129,129,129,
129,129,129,129,129,129,129,129,129,129,132,143,123,123,123,123,123,123,123,123,144,167,129,129,129,129,129,129,129,129,129,129,
129,129,129,129,129,129,129,129,129,156,164,150,125,127,146,123,123,123,168,125,151,134,129,129,129,129,129,129,129,129,129,129,
129,129,129,129,129,129,129,129,129,129,129,136,154,166,140,123,123,123,144,165,134,129,129,129,129,129,129,129,129,129,129,129,
129,129,129,129,129,129,129,129,129,129,129,164,156,167,143,123,123,123,144,167,129,129,129,129,129,129,129,129,129,129,129,129,
129,129,129,129,129,129,129,129,129,129,129,130,152,119,140,123,123,123,141,119,153,129,129,129,129,129,129,129,129,129,129,129,
129,129,129,129,129,129,129,129,129,129,129,166,140,169,169,123,123,123,169,169,144,164,134,129,129,129,129,129,129,129,129,129,
129,129,129,129,129,129,129,129,129,129,156,132,140,123,123,123,123,123,123,123,144,159,129,129,129,129,129,129,129,129,129,129,
129,129,129,129,129,129,129,129,129,129,129,152,140,123,123,123,123,123,123,123,144,119,153,129,129,129,129,129,129,129,129,129,
129,129,129,129,129,129,129,129,129,160,130,140,169,123,123,123,123,123,123,123,169,169,126,134,129,129,129,129,129,129,129,129,
129,129,129,129,129,129,129,129,164,152,119,140,123,123,123,123,123,123,123,123,123,123,144,165,129,129,129,129,129,129,129,129,
129,129,129,129,129,129,129,129,130,140,169,169,123,123,123,123,123,123,123,123,123,123,144,132,129,129,129,129,129,129,129,129,
129,129,129,129,129,129,129,129,166,140,123,123,123,123,123,123,123,123,123,123,123,123,141,167,129,129,129,129,129,129,129,129,
129,129,129,129,129,129,129,129,132,140,123,123,123,123,123,123,123,123,123,123,123,123,141,134,129,129,129,129,129,129,129,129,
129,129,129,129,129,129,129,129,164,143,123,123,123,123,123,123,123,123,123,123,123,123,144,165,129,129,129,129,129,129,129,129,
129,129,129,129,129,129,129,129,130,143,123,123,123,123,123,123,123,123,123,123,123,123,144,132,129,129,129,129,129,129,129,129,
129,129,129,129,129,129,129,129,166,140,123,123,123,123,123,123,123,123,123,123,123,123,141,167,129,129,129,129,129,129,129,129,
129,129,129,129,129,129,129,129,132,140,123,123,123,123,123,123,123,123,123,123,123,123,141,134,129,129,129,129,129,129,129,129,
129,129,129,129,129,129,129,129,164,140,123,123,123,123,123,123,123,123,123,123,123,123,144,165,129,129,129,129,129,129,129,129,
129,129,129,129,129,129,129,129,130,143,123,123,123,123,123,123,123,123,123,123,123,123,144,132,129,129,129,129,129,129,129,129,
129,129,129,129,129,129,129,129,166,140,123,123,123,123,123,123,123,123,123,123,123,123,144,167,129,129,129,129,129,129,129,129,
129,129,129,129,129,129,129,129,132,140,123,123,123,123,123,123,123,123,123,123,123,123,144,134,129,129,129,129,129,129,129,129,
129,129,129,129,129,129,129,129,164,140,123,123,123,123,123,123,123,123,123,123,123,145,126,165,129,129,129,129,129,129,129,129,
129,129,129,129,129,129,129,129,130,140,123,123,123,123,123,123,123,123,123,123,145,126,167,132,129,129,129,129,129,129,129,129,
129,129,129,129,129,129,129,129,166,143,123,123,123,123,123,123,123,123,123,123,144,134,129,167,129,129,129,129,129,129,129,129,
129,129,129,129,129,129,129,129,132,143,123,123,123,123,123,123,123,123,123,123,141,165,129,129,129,129,129,129,129,129,129,129,
129,129,129,129,129,129,129,129,164,140,123,123,123,123,123,123,123,123,123,123,141,132,134,129,129,129,129,129,129,129,129,129,
129,129,129,129,129,129,129,129,130,140,123,123,123,123,123,123,123,123,123,123,141,167,129,129,129,129,129,129,129,129,129,129,
129,129,129,129,129,129,129,129,166,140,123,123,123,123,123,123,123,123,123,123,144,165,134,129,129,129,129,129,129,129,129,129,
129,129,129,129,129,129,129,129,132,143,123,123,123,123,123,123,123,123,123,123,144,132,134,129,129,129,129,129,129,129,129,129,
129,129,129,129,129,129,129,129,164,143,123,123,123,123,123,123,123,123,123,168,126,167,129,129,129,129,129,129,129,129,129,129,
129,129,129,129,129,129,129,129,130,143,123,123,123,123,123,123,123,123,123,144,134,129,129,129,129,129,129,129,129,129,129,129,
129,129,129,129,129,129,129,129,166,143,123,123,123,123,123,123,123,123,123,144,165,129,129,129,129,129,129,129,129,129,129,129,
129,129,129,129,129,129,129,129,132,140,123,123,123,123,123,123,123,123,123,141,132,134,129,129,129,129,129,129,129,129,129,129,
129,129,129,129,129,129,129,129,164,140,123,123,123,145,146,123,123,123,123,141,167,129,129,129,129,129,129,129,129,129,129,129,
129,129,129,129,129,129,129,129,130,140,123,123,123,147,148,123,123,123,123,144,126,134,129,129,129,129,129,129,129,129,129,129,
129,129,129,129,129,129,129,129,166,143,123,123,123,123,123,123,123,123,168,151,165,129,129,129,129,129,129,129,129,129,129,129,
129,129,129,129,129,129,129,129,132,140,123,123,123,123,123,123,123,123,144,167,134,129,129,129,129,129,129,129,129,129,129,129,
129,129,129,129,129,129,129,129,129,150,170,171,170,127,146,123,123,123,163,128,164,160,134,129,129,129,129,129,129,129,129,129,
129,129,129,129,129,129,129,129,129,129,172,172,172,173,162,123,123,123,123,144,119,153,165,129,129,129,129,129,129,129,129,129,
129,129,129,129,129,129,129,129,129,129,129,156,164,140,123,123,123,123,123,169,169,144,132,134,129,129,129,129,129,129,129,129,
129,129,129,129,129,129,129,129,129,129,129,129,130,143,123,123,123,123,123,123,123,144,167,129,129,129,129,129,129,129,129,129,
129,129,129,129,129,129,129,129,129,129,129,129,166,143,123,123,123,123,123,123,123,144,134,129,129,129,129,129,129,129,129,129,
129,129,129,129,129,129,129,129,129,129,129,156,132,140,123,123,145,146,123,123,123,141,165,129,129,129,129,129,129,129,129,129,
129,129,129,129,129,129,129,129,129,129,129,167,119,162,123,123,147,148,123,123,123,141,132,134,129,129,129,129,129,129,129,129,
129,129,129,129,129,129,129,129,129,129,167,119,162,123,123,123,123,123,123,123,123,144,167,129,129,129,129,129,129,129,129,129,
129,129,129,129,129,129,129,129,129,130,174,140,123,123,123,123,123,123,123,123,168,151,159,129,129,129,129,129,129,129,129,129,
129,129,129,129,129,129,129,129,129,130,175,143,123,123,123,123,123,123,123,123,144,166,134,129,129,129,129,129,129,129,129,129,
129,129,129,129,129,129,129,129,129,129,136,140,123,123,123,123,123,123,123,123,144,167,129,129,129,129,129,129,129,129,129,129,
129,129,129,129,129,129,129,129,129,130,174,140,123,123,123,123,145,146,123,123,144,174,134,129,129,129,129,129,129,129,129,129,
129,129,129,129,129,129,129,129,129,130,175,143,123,123,123,123,147,148,123,123,144,175,134,129,129,129,129,129,129,129,129,129,
129,129,129,129,129,129,129,129,129,129,136,143,123,123,123,123,123,123,123,123,141,136,129,129,129,129,129,129,129,129,129,129,
129,129,129,129,129,129,129,129,129,130,174,150,127,176,123,123,123,123,123,123,144,174,134,129,129,129,129,129,129,129,129,129,
129,129,129,129,129,129,129,129,129,130,175,152,161,162,123,123,123,123,123,123,144,175,134,129,129,129,129,129,129,129,129,129,
129,129,129,129,129,129,129,129,129,129,136,140,123,123,123,123,123,123,123,123,141,136,129,129,129,129,129,129,129,129,129,129,
129,129,129,129,129,129,129,129,129,130,174,140,123,123,123,123,145,146,123,123,141,174,134,129,129,129,129,129,129,129,129,129,
129,129,129,129,129,129,129,129,129,130,175,140,123,123,123,123,147,148,123,123,144,175,134,129,129,129,129,129,129,129,129,129,
129,129,129,129,129,129,129,129,129,129,136,143,123,123,123,123,123,123,123,123,144,136,129,129,129,129,129,129,129,129,129,129,
129,129,129,129,129,129,129,129,129,130,174,143,123,123,123,123,123,123,123,145,151,174,134,129,129,129,129,129,129,129,129,129,
129,129,129,129,129,129,129,129,129,130,175,140,123,123,123,123,123,123,123,163,153,175,134,129,129,129,129,129,129,129,129,129,
129,129,129,129,129,129,129,129,129,129,136,140,123,123,123,123,123,123,123,123,144,136,129,129,129,129,129,129,129,129,129,129,
129,129,129,129,129,129,129,129,129,130,174,140,123,123,123,123,145,146,123,123,141,174,134,129,129,129,129,129,129,129,129,129,
129,129,129,129,129,129,129,129,129,130,175,140,123,123,123,123,147,148,123,123,144,175,134,129,129,129,129,129,129,129,129,129,
129,129,129,129,129,129,129,129,129,129,136,143,123,123,123,123,123,123,123,123,144,136,129,129,129,129,129,129,129,129,129,129,
129,129,129,129,129,129,129,129,129,130,174,150,125,176,123,123,123,123,123,123,144,174,134,129,129,129,129,129,129,129,129,129,
129,129,129,129,129,129,129,129,129,130,175,152,161,162,123,123,123,123,123,123,144,175,134,129,129,129,129,129,129,129,129,129,
129,129,129,129,129,129,129,129,129,129,136,140,123,123,123,123,123,123,123,123,141,136,129,129,129,129,129,129,129,129,129,129,
129,129,129,129,129,129,129,129,129,130,174,140,123,123,123,123,145,146,123,123,141,174,134,129,129,129,129,129,129,129,129,129,
129,129,129,129,129,129,129,129,129,130,175,143,123,123,123,123,147,148,123,123,144,175,134,129,129,129,129,129,129,129,129,129,
129,129,129,129,129,129,129,129,129,129,136,143,123,123,123,123,123,123,123,123,144,136,129,129,129,129,129,129,129,129,129,129,
129,129,129,129,129,129,129,129,129,130,174,143,123,123,177,123,123,123,123,123,144,174,134,129,129,129,129,129,129,129,129,129,
129,129,129,129,129,129,129,129,129,130,175,140,123,123,178,123,123,123,123,123,141,175,134,129,129,129,129,129,129,129,129,129,
129,129,129,129,129,129,129,129,129,129,136,140,123,123,123,123,123,123,123,123,144,136,167,129,129,129,129,129,129,129,129,129,
129,129,129,129,129,129,129,129,129,130,174,140,123,123,123,123,145,146,123,123,163,161,153,134,129,129,129,129,129,129,129,129,
129,129,129,129,129,129,129,129,129,130,175,150,146,123,123,123,147,148,123,123,123,123,144,174,129,129,129,129,129,129,129,129,
129,129,129,129,129,129,129,129,129,129,136,174,143,123,123,123,123,123,123,123,123,123,144,175,129,129,129,129,129,129,129,129,
129,129,129,129,129,129,129,129,129,129,129,175,150,176,123,123,123,123,123,123,123,123,141,136,129,129,129,129,129,129,129,129,
129,129,129,129,129,129,129,129,129,129,129,136,174,140,123,123,123,123,123,123,123,123,144,174,129,129,129,129,129,129,129,129,
129,129,129,129,129,129,129,129,129,129,129,129,175,143,123,123,123,123,123,123,123,123,144,175,129,129,129,129,129,129,129,129,
129,129,129,129,129,129,129,129,129,129,129,129,136,150,146,123,123,123,123,123,123,123,141,136,129,129,129,129,129,129,129,129,
129,129,129,129,129,129,129,129,129,129,129,129,129,174,140,123,123,123,123,123,123,123,144,174,129,129,129,129,129,129,129,129,
129,129,129,129,129,129,129,129,129,129,129,129,129,175,150,127,127,176,123,123,123,123,144,175,129,129,129,129,129,129,129,129,
129,129,129,129,129,129,129,129,129,129,129,129,129,136,174,156,153,162,123,123,123,123,141,136,129,129,129,129,129,129,129,129,
129,129,129,129,129,129,129,129,129,129,129,129,129,129,175,164,143,123,123,123,123,123,141,174,129,129,129,129,129,129,129,129,
129,129,129,129,129,129,129,129,129,129,129,129,129,129,136,152,162,123,123,123,145,127,151,175,129,129,129,129,129,129,129,129,
129,129,129,129,129,129,129,129,129,129,129,152,161,161,161,162,123,123,123,145,151,174,134,136,129,129,129,129,129,129,129,129,
129,129,129,129,129,129,129,129,129,130,174,140,123,123,123,123,123,123,123,141,167,175,134,129,129,129,129,129,129,129,129,129,
129,129,129,129,129,129,129,129,129,130,175,150,146,123,123,123,123,123,123,144,174,136,129,129,129,129,129,129,129,129,129,129,
129,129,129,129,129,129,129,129,129,129,136,174,140,123,123,123,123,123,168,151,175,174,134,129,129,129,129,129,129,129,129,129,
129,129,129,129,129,129,129,129,129,130,174,175,150,146,123,123,123,123,144,167,136,175,134,129,129,129,129,129,129,129,129,129,
129,129,129,129,129,129,129,129,129,130,175,136,152,162,123,123,123,145,151,165,167,136,174,134,129,129,129,129,129,129,129,129,
129,129,129,129,129,129,129,129,129,129,136,152,162,123,123,123,123,163,161,161,153,174,175,134,129,129,129,129,129,129,129,129,
129,129,129,129,129,129,129,129,129,130,174,140,123,123,123,123,123,123,123,123,144,175,136,129,129,129,129,129,129,129,129,129,
129,129,129,129,129,129,129,129,129,130,175,143,123,123,123,123,123,123,123,123,144,136,174,134,129,129,129,129,129,129,129,129,
129,129,129,129,129,129,129,129,129,129,136,140,123,123,123,123,145,146,123,123,141,174,175,134,129,129,129,129,129,129,129,129,
129,129,129,129,129,129,129,129,129,130,174,140,123,123,123,123,147,148,123,123,144,175,136,129,129,129,129,129,129,129,129,129,
129,129,129,129,129,129,129,129,129,130,175,140,123,123,123,123,123,123,123,123,141,136,174,134,129,129,129,129,129,129,129,129,
129,129,129,129,129,129,129,129,129,129,136,140,123,123,145,146,123,123,123,123,144,167,175,134,129,129,129,129,129,129,129,129,
129,129,129,129,129,129,129,129,129,130,174,143,123,123,147,148,123,123,123,123,144,166,136,129,129,129,129,129,129,129,129,129,
129,129,129,129,129,129,129,129,129,130,175,143,123,123,123,123,123,123,123,123,163,153,174,134,129,129,129,129,129,129,129,129,
129,129,129,129,129,129,129,129,129,129,136,150,176,123,123,123,123,123,123,123,123,141,175,134,129,129,129,129,129,129,129,129,
129,129,129,129,129,129,129,129,129,130,174,166,140,123,123,123,123,123,123,123,123,141,136,129,129,129,129,129,129,129,129,129,
129,129,129,129,129,129,129,129,129,130,175,174,150,170,170,146,123,123,123,123,123,144,174,134,129,129,129,129,129,129,129,129,
129,129,129,129,129,129,129,129,129,156,136,175,164,172,172,143,123,123,123,123,123,144,175,134,129,129,129,129,129,129,129,129,
129,129,129,129,129,129,129,129,129,130,164,136,152,161,161,162,123,123,123,123,123,144,136,129,129,129,129,129,129,129,129,129,
129,129,129,129,129,129,129,129,129,167,152,161,162,123,123,123,123,123,123,168,127,151,174,134,129,129,129,129,129,129,129,129,
129,129,129,129,129,129,129,129,129,150,162,123,123,123,123,123,123,123,123,163,161,158,175,134,129,129,129,129,129,129,129,129,
129,129,129,129,129,129,129,129,129,140,123,123,123,123,123,123,123,123,123,123,123,144,136,164,129,129,129,129,129,129,129,129,
161,161,161,161,161,161,161,161,161,162,123,123,123,123,123,123,123,177,123,123,123,163,161,161,161,161,161,161,161,161,161,161,
123,123,123,123,123,123,123,123,123,123,123,123,123,123,123,123,123,178,123,123,123,123,123,123,123,123,123,123,123,123,123,123,
123,123,123,123,123,123,123,123,123,123,123,123,123,145,146,123,123,123,123,123,123,123,123,123,123,123,123,123,123,123,123,123,
123,123,123,123,123,123,123,123,123,123,123,123,123,147,148,123,123,123,123,123,123,123,123,123,123,123,123,123,123,123,123,123,
180,180,180,180,180,180,180,180,179,179,180,180,180,180,180,180,180,180,179,179,180,179,180,180,180,180,180,180,180,180,180,180,
181,181,181,181,181,181,181,181,181,181,181,181,181,181,181,181,181,181,181,181,181,181,181,181,181,181,181,181,181,181,181,181,
182,182,182,182,182,182,182,182,182,182,182,182,182,182,182,182,183,184,182,182,182,182,182,182,182,182,182,182,182,182,182,182,
185,185,185,185,185,185,185,185,185,185,185,185,185,185,185,185,186,150,187,185,185,185,185,185,185,185,185,185,185,185,185,185,
188,188,188,188,188,188,188,188,188,188,188,188,188,188,188,189,151,132,150,187,188,188,188,188,188,188,188,188,188,188,188,188,
125,125,170,171,170,171,125,125,125,170,171,170,171,127,125,127,170,171,170,171,127,125,127,170,171,170,171,171,171,127,127,127,
154,190,191,172,191,172,154,132,190,191,172,191,172,154,132,154,172,191,172,191,154,132,154,172,191,172,191,172,132,154,132,154,
129,129,172,192,172,129,129,129,129,172,192,172,129,129,129,129,129,172,192,172,129,129,129,129,172,192,172,129,129,129,129,129,
129,129,129,129,129,129,129,129,129,129,129,129,129,129,129,129,129,129,129,129,129,129,129,129,129,129,129,129,129,129,129,129,
129,129,129,129,129,129,129,129,129,129,129,129,129,129,129,129,129,129,129,129,129,129,129,129,129,129,129,129,129,129,129,129
</data>
 </layer>
</map>
