<?xml version="1.0" encoding="UTF-8"?>
<map version="1.10" tiledversion="1.11.2" orientation="orthogonal" renderorder="right-down" width="64" height="32" tilewidth="16" tileheight="16" infinite="0" nextlayerid="3" nextobjectid="1">
 <properties>
  <property name="priority" type="bool" value="true"/>
 </properties>
 <tileset firstgid="1" name="tiles" tilewidth="16" tileheight="16" tilecount="233" columns="16">
  <image source="lr.png" width="256" height="240"/>
  <tile id="1">
   <objectgroup draworder="index" id="2">
    <object id="1" x="0" y="0">
     <polygon points="0,0 16,0 16,16 0,16"/>
    </object>
   </objectgroup>
  </tile>
  <tile id="2">
   <objectgroup draworder="index" id="2">
    <object id="1" x="0" y="0">
     <polygon points="0,0 16,0 16,16 0,16"/>
    </object>
   </objectgroup>
  </tile>
  <tile id="3">
   <objectgroup draworder="index" id="2">
    <object id="1" x="0" y="0">
     <polygon points="0,0 16,0 16,16 0,16"/>
    </object>
   </objectgroup>
  </tile>
  <tile id="4">
   <objectgroup draworder="index" id="2">
    <object id="1" x="0" y="0">
     <polygon points="0,0 16,0 16,16 0,16"/>
    </object>
   </objectgroup>
  </tile>
  <tile id="5">
   <objectgroup draworder="index" id="2">
    <object id="1" x="0" y="0">
     <polygon points="0,0 16,0 16,16 0,16"/>
    </object>
   </objectgroup>
  </tile>
  <tile id="6">
   <objectgroup draworder="index" id="2">
    <object id="1" x="0" y="0">
     <polygon points="0,0 16,0 16,16 0,16"/>
    </object>
   </objectgroup>
  </tile>
  <tile id="7">
   <objectgroup draworder="index" id="2">
    <object id="1" x="0" y="0">
     <polygon points="0,0 16,0 16,16 0,16"/>
    </object>
   </objectgroup>
  </tile>
  <tile id="8">
   <objectgroup draworder="index" id="2">
    <object id="1" x="0" y="0">
     <polygon points="0,0 16,0 16,16 0,16"/>
    </object>
   </objectgroup>
  </tile>
  <tile id="9">
   <objectgroup draworder="index" id="2">
    <object id="1" x="0" y="0">
     <polygon points="0,0 16,0 16,16 0,16"/>
    </object>
   </objectgroup>
  </tile>
  <tile id="10">
   <objectgroup draworder="index" id="2">
    <object id="1" x="0" y="0">
     <polygon points="0,0 16,0 16,16 0,16"/>
    </object>
   </objectgroup>
  </tile>
  <tile id="12">
   <animation>
    <frame tileid="12" duration="100"/>
    <frame tileid="18" duration="100"/>
    <frame tileid="18" duration="100"/>
    <frame tileid="18" duration="100"/>
    <frame tileid="12" duration="100"/>
    <frame tileid="12" duration="100"/>
   </animation>
  </tile>
  <tile id="13">
   <objectgroup draworder="index" id="2">
    <object id="1" x="0" y="0">
     <polygon points="0,0 16,0 16,16 0,16"/>
    </object>
   </objectgroup>
  </tile>
  <tile id="14">
   <objectgroup draworder="index" id="2">
    <object id="1" x="0" y="0">
     <polygon points="0,0 16,0 16,16 0,16"/>
    </object>
   </objectgroup>
  </tile>
  <tile id="15">
   <objectgroup draworder="index" id="2">
    <object id="1" x="0" y="0">
     <polygon points="0,0 16,0 16,16 0,16"/>
    </object>
   </objectgroup>
   <animation>
    <frame tileid="15" duration="100"/>
    <frame tileid="19" duration="100"/>
    <frame tileid="22" duration="100"/>
    <frame tileid="91" duration="100"/>
    <frame tileid="94" duration="100"/>
    <frame tileid="97" duration="100"/>
   </animation>
  </tile>
  <tile id="16">
   <objectgroup draworder="index" id="2">
    <object id="1" x="0" y="0">
     <polygon points="0,0 16,0 16,16 0,16"/>
    </object>
   </objectgroup>
   <animation>
    <frame tileid="16" duration="100"/>
    <frame tileid="20" duration="100"/>
    <frame tileid="23" duration="100"/>
    <frame tileid="92" duration="100"/>
    <frame tileid="95" duration="100"/>
    <frame tileid="98" duration="100"/>
   </animation>
  </tile>
  <tile id="17">
   <objectgroup draworder="index" id="2">
    <object id="1" x="0" y="0">
     <polygon points="0,0 16,0 16,16 0,16"/>
    </object>
   </objectgroup>
   <animation>
    <frame tileid="17" duration="100"/>
    <frame tileid="21" duration="100"/>
    <frame tileid="24" duration="100"/>
    <frame tileid="93" duration="100"/>
    <frame tileid="96" duration="100"/>
    <frame tileid="99" duration="100"/>
   </animation>
  </tile>
  <tile id="25">
   <objectgroup draworder="index" id="2">
    <object id="1" x="0" y="0">
     <polygon points="0,0 16,0 16,16 0,16"/>
    </object>
   </objectgroup>
  </tile>
  <tile id="26">
   <objectgroup draworder="index" id="2">
    <object id="1" x="0" y="0">
     <polygon points="0,0 16,0 16,16 0,16"/>
    </object>
   </objectgroup>
  </tile>
  <tile id="31">
   <objectgroup draworder="index" id="2">
    <object id="1" x="0" y="0">
     <polygon points="0,0 16,0 16,16 0,16"/>
    </object>
   </objectgroup>
  </tile>
  <tile id="32">
   <objectgroup draworder="index" id="2">
    <object id="1" x="0" y="0">
     <polygon points="0,0 16,0 16,16 0,16"/>
    </object>
   </objectgroup>
   <animation>
    <frame tileid="32" duration="100"/>
    <frame tileid="34" duration="100"/>
    <frame tileid="36" duration="100"/>
    <frame tileid="100" duration="100"/>
    <frame tileid="102" duration="100"/>
    <frame tileid="104" duration="100"/>
   </animation>
  </tile>
  <tile id="33">
   <objectgroup draworder="index" id="2">
    <object id="1" x="0" y="0">
     <polygon points="0,0 16,0 16,16 0,16"/>
    </object>
   </objectgroup>
   <animation>
    <frame tileid="33" duration="100"/>
    <frame tileid="35" duration="100"/>
    <frame tileid="37" duration="100"/>
    <frame tileid="101" duration="100"/>
    <frame tileid="103" duration="100"/>
    <frame tileid="105" duration="100"/>
   </animation>
  </tile>
  <tile id="38">
   <objectgroup draworder="index" id="2">
    <object id="1" x="0" y="0">
     <polygon points="0,0 16,0 16,16 0,16"/>
    </object>
   </objectgroup>
   <animation>
    <frame tileid="38" duration="100"/>
    <frame tileid="47" duration="100"/>
    <frame tileid="48" duration="100"/>
    <frame tileid="106" duration="100"/>
    <frame tileid="109" duration="100"/>
    <frame tileid="110" duration="100"/>
   </animation>
  </tile>
  <tile id="39">
   <objectgroup draworder="index" id="2">
    <object id="1" x="0" y="0">
     <polygon points="0,0 16,0 16,16 0,16"/>
    </object>
   </objectgroup>
  </tile>
  <tile id="40">
   <objectgroup draworder="index" id="2">
    <object id="1" x="0" y="0">
     <polygon points="0,0 16,0 16,16 0,16"/>
    </object>
   </objectgroup>
  </tile>
  <tile id="41">
   <objectgroup draworder="index" id="2">
    <object id="1" x="0" y="0">
     <polygon points="0,0 16,0 16,16 0,16"/>
    </object>
   </objectgroup>
  </tile>
  <tile id="42">
   <animation>
    <frame tileid="42" duration="100"/>
    <frame tileid="42" duration="100"/>
    <frame tileid="42" duration="100"/>
    <frame tileid="107" duration="100"/>
    <frame tileid="107" duration="100"/>
    <frame tileid="107" duration="100"/>
   </animation>
  </tile>
  <tile id="43">
   <animation>
    <frame tileid="43" duration="100"/>
    <frame tileid="43" duration="100"/>
    <frame tileid="43" duration="100"/>
    <frame tileid="108" duration="100"/>
    <frame tileid="108" duration="100"/>
    <frame tileid="108" duration="100"/>
   </animation>
  </tile>
  <tile id="49">
   <animation>
    <frame tileid="49" duration="100"/>
    <frame tileid="58" duration="100"/>
    <frame tileid="58" duration="100"/>
    <frame tileid="58" duration="100"/>
    <frame tileid="49" duration="100"/>
    <frame tileid="49" duration="100"/>
   </animation>
  </tile>
  <tile id="51">
   <objectgroup draworder="index" id="2">
    <object id="1" x="0" y="0">
     <polygon points="0,0 16,0 16,16 0,16"/>
    </object>
   </objectgroup>
  </tile>
  <tile id="52">
   <objectgroup draworder="index" id="2">
    <object id="1" x="0" y="0">
     <polygon points="0,0 16,0 16,16 0,16"/>
    </object>
   </objectgroup>
  </tile>
  <tile id="55">
   <animation>
    <frame tileid="55" duration="100"/>
    <frame tileid="55" duration="100"/>
    <frame tileid="55" duration="100"/>
    <frame tileid="111" duration="100"/>
    <frame tileid="111" duration="100"/>
    <frame tileid="111" duration="100"/>
   </animation>
  </tile>
  <tile id="56">
   <animation>
    <frame tileid="56" duration="100"/>
    <frame tileid="56" duration="100"/>
    <frame tileid="56" duration="100"/>
    <frame tileid="112" duration="100"/>
    <frame tileid="112" duration="100"/>
    <frame tileid="112" duration="100"/>
   </animation>
  </tile>
  <tile id="57">
   <objectgroup draworder="index" id="2">
    <object id="1" x="0" y="0">
     <polygon points="0,0 16,0 16,16 0,16"/>
    </object>
   </objectgroup>
  </tile>
  <tile id="60">
   <objectgroup draworder="index" id="2">
    <object id="1" x="0" y="0">
     <polygon points="0,0 16,0 16,16 0,16"/>
    </object>
   </objectgroup>
  </tile>
  <tile id="61">
   <objectgroup draworder="index" id="2">
    <object id="1" x="0" y="0">
     <polygon points="0,0 16,0 16,16 0,16"/>
    </object>
   </objectgroup>
  </tile>
  <tile id="62">
   <objectgroup draworder="index" id="2">
    <object id="1" x="0" y="0">
     <polygon points="0,0 16,0 16,16 0,16"/>
    </object>
   </objectgroup>
   <animation>
    <frame tileid="62" duration="100"/>
    <frame tileid="67" duration="100"/>
    <frame tileid="69" duration="100"/>
    <frame tileid="113" duration="100"/>
    <frame tileid="115" duration="100"/>
    <frame tileid="117" duration="100"/>
   </animation>
  </tile>
  <tile id="63">
   <objectgroup draworder="index" id="2">
    <object id="1" x="0" y="0">
     <polygon points="0,0 16,0 16,16 0,16"/>
    </object>
   </objectgroup>
  </tile>
  <tile id="64">
   <objectgroup draworder="index" id="2">
    <object id="1" x="0" y="0">
     <polygon points="0,0 16,0 16,16 0,16"/>
    </object>
   </objectgroup>
  </tile>
  <tile id="65">
   <objectgroup draworder="index" id="2">
    <object id="1" x="0" y="0">
     <polygon points="0,0 16,0 16,16 0,16"/>
    </object>
   </objectgroup>
   <animation>
    <frame tileid="65" duration="100"/>
    <frame tileid="68" duration="100"/>
    <frame tileid="70" duration="100"/>
    <frame tileid="114" duration="100"/>
    <frame tileid="116" duration="100"/>
    <frame tileid="118" duration="100"/>
   </animation>
  </tile>
  <tile id="66">
   <objectgroup draworder="index" id="2">
    <object id="1" x="0" y="0">
     <polygon points="0,0 16,0 16,16 0,16"/>
    </object>
   </objectgroup>
  </tile>
  <tile id="72">
   <objectgroup draworder="index" id="2">
    <object id="1" x="0" y="0">
     <polygon points="0,0 16,0 16,16 0,16"/>
    </object>
   </objectgroup>
  </tile>
  <tile id="73">
   <objectgroup draworder="index" id="2">
    <object id="1" x="0" y="0">
     <polygon points="0,0 16,0 16,16 0,16"/>
    </object>
   </objectgroup>
  </tile>
  <tile id="74">
   <animation>
    <frame tileid="74" duration="100"/>
    <frame tileid="80" duration="100"/>
    <frame tileid="80" duration="100"/>
    <frame tileid="119" duration="100"/>
    <frame tileid="123" duration="100"/>
    <frame tileid="123" duration="100"/>
   </animation>
  </tile>
  <tile id="76">
   <animation>
    <frame tileid="76" duration="100"/>
    <frame tileid="76" duration="100"/>
    <frame tileid="76" duration="100"/>
    <frame tileid="120" duration="100"/>
    <frame tileid="120" duration="100"/>
    <frame tileid="120" duration="100"/>
   </animation>
  </tile>
  <tile id="78">
   <animation>
    <frame tileid="78" duration="100"/>
    <frame tileid="78" duration="100"/>
    <frame tileid="78" duration="100"/>
    <frame tileid="121" duration="100"/>
    <frame tileid="121" duration="100"/>
    <frame tileid="121" duration="100"/>
   </animation>
  </tile>
  <tile id="79">
   <animation>
    <frame tileid="79" duration="100"/>
    <frame tileid="79" duration="100"/>
    <frame tileid="79" duration="100"/>
    <frame tileid="122" duration="100"/>
    <frame tileid="122" duration="100"/>
    <frame tileid="122" duration="100"/>
   </animation>
  </tile>
  <tile id="82">
   <animation>
    <frame tileid="82" duration="100"/>
    <frame tileid="82" duration="100"/>
    <frame tileid="82" duration="100"/>
    <frame tileid="124" duration="100"/>
    <frame tileid="124" duration="100"/>
    <frame tileid="124" duration="100"/>
   </animation>
  </tile>
  <tile id="83">
   <animation>
    <frame tileid="83" duration="100"/>
    <frame tileid="89" duration="100"/>
    <frame tileid="90" duration="100"/>
    <frame tileid="89" duration="100"/>
    <frame tileid="83" duration="100"/>
    <frame tileid="125" duration="100"/>
   </animation>
  </tile>
  <tile id="84">
   <animation>
    <frame tileid="84" duration="500"/>
    <frame tileid="86" duration="500"/>
   </animation>
  </tile>
  <tile id="85">
   <animation>
    <frame tileid="85" duration="500"/>
    <frame tileid="87" duration="500"/>
   </animation>
  </tile>
  <tile id="86">
   <animation>
    <frame tileid="86" duration="500"/>
    <frame tileid="84" duration="500"/>
   </animation>
  </tile>
  <tile id="87">
   <animation>
    <frame tileid="87" duration="500"/>
    <frame tileid="85" duration="500"/>
   </animation>
  </tile>
 </tileset>
 <layer id="1" name="layer0" width="64" height="32">
  <data encoding="csv">
1,1,1,1,1,1,1,1,1,1,1,1,1,1,1,1,1,1,1,1,1,1,1,1,1,1,1,1,1,1,1,1,2,3,4,4,4,5,6,7,1,1,1,1,1,1,1,1,1,1,1,1,1,1,1,1,1,1,1,1,1,1,1,1,
1,1,1,1,1,1,1,1,1,1,1,1,1,1,1,1,1,1,1,1,1,1,1,1,1,1,1,1,1,1,1,1,2,8,4,4,4,9,10,7,1,1,1,1,1,1,1,1,1,1,1,1,1,1,1,1,1,1,1,1,1,1,1,1,
1,1,1,1,1,1,1,1,1,1,1,1,1,1,1,1,1,1,1,1,1,1,1,1,1,1,1,1,1,1,1,1,2,3,4,4,4,4,11,7,1,1,1,1,1,1,1,1,1,1,1,1,1,1,1,1,1,1,1,1,1,1,1,1,
1,1,1,1,1,1,1,1,1,1,1,1,1,1,1,1,1,1,1,1,1,1,1,1,1,1,1,1,1,1,1,1,2,8,4,4,4,5,10,7,1,1,1,1,1,1,1,1,1,1,1,1,1,1,1,1,1,1,1,1,1,1,1,1,
1,1,1,1,1,1,1,1,1,1,1,1,1,1,1,1,1,1,1,1,1,1,1,1,1,1,1,1,1,1,1,1,2,3,4,4,4,9,11,7,1,1,1,1,1,1,1,1,1,1,1,1,1,1,1,1,1,1,1,1,1,1,1,1,
89,89,89,89,89,89,89,89,89,89,89,89,89,89,89,89,89,89,89,89,89,89,89,89,89,89,89,89,89,89,89,89,2,8,4,4,4,5,10,7,89,89,89,89,89,89,89,89,89,89,89,89,89,89,89,89,89,89,89,89,89,89,89,89,
12,12,12,12,12,12,12,12,12,12,12,12,12,12,12,12,12,12,12,12,12,12,12,12,12,12,12,12,12,12,12,12,2,3,4,4,4,9,11,7,13,12,12,12,12,12,12,12,12,12,12,12,12,12,12,12,12,12,12,12,12,12,12,12,
12,12,12,12,12,12,12,12,12,12,12,12,12,12,12,12,12,12,12,12,12,12,12,12,12,12,12,12,12,12,12,12,14,8,4,4,4,15,16,17,18,26,26,26,26,26,26,26,27,12,12,12,12,12,12,12,28,29,29,29,30,31,12,12,
12,12,12,12,12,12,12,12,12,12,12,12,12,12,12,12,12,12,28,31,12,28,29,29,29,29,29,31,12,12,12,13,14,11,4,4,32,10,33,34,39,40,41,41,41,41,41,41,42,12,12,12,12,43,44,12,45,30,46,47,30,50,31,12,
12,12,12,12,12,12,12,12,12,12,12,12,12,28,29,29,29,29,30,30,29,30,30,30,30,30,30,51,12,12,52,26,53,6,4,4,4,5,10,6,40,42,54,54,54,54,54,54,55,43,44,12,12,56,57,58,45,51,12,52,26,26,26,26,
12,12,12,12,12,12,12,12,12,12,28,31,12,45,30,46,60,60,60,47,30,30,30,30,30,30,30,51,12,12,61,62,6,6,4,4,4,9,63,40,64,54,54,54,54,54,54,54,55,56,57,13,52,26,16,17,18,26,26,65,6,6,6,6,
12,12,12,12,12,12,12,12,28,29,30,30,29,30,51,12,12,12,12,12,45,30,30,46,47,30,30,51,12,12,12,2,6,66,4,4,4,4,32,10,64,54,54,54,54,54,54,54,52,26,26,26,53,6,33,34,39,6,6,6,10,32,10,32,
12,43,44,12,12,28,31,12,45,30,46,60,47,30,51,12,12,28,29,29,30,30,51,12,12,45,30,51,12,12,12,61,62,11,63,4,4,11,67,11,64,54,54,54,54,54,54,54,14,6,6,6,6,10,32,66,32,10,32,10,3,4,4,4,
12,56,57,12,12,45,30,29,30,51,12,12,12,45,51,12,12,45,30,30,30,30,51,12,12,45,30,51,12,12,12,72,73,62,34,63,11,40,41,41,74,54,54,54,54,54,54,54,14,10,6,10,32,4,67,4,4,4,4,4,8,4,4,4,
26,26,26,27,12,45,75,30,50,51,12,12,12,45,30,29,29,30,30,46,47,30,51,12,12,45,30,51,12,12,12,72,55,61,62,34,40,42,72,54,54,54,54,54,54,54,54,54,14,63,6,11,67,11,6,63,11,67,11,67,4,4,4,4,
6,6,6,15,26,18,17,16,26,27,12,43,44,45,30,30,30,30,51,12,12,45,51,12,12,45,30,51,12,12,12,72,55,72,73,41,74,55,72,76,54,54,54,54,54,54,54,54,14,34,40,41,41,41,62,34,6,6,6,6,67,11,4,4,
10,32,10,6,6,33,34,39,6,64,12,56,57,45,50,50,30,75,51,12,12,45,51,77,12,45,30,30,29,31,12,72,55,72,54,54,54,55,72,78,54,54,54,54,54,54,54,54,61,62,7,54,54,54,73,41,41,41,41,62,6,6,63,11,
4,4,5,10,32,10,66,10,32,15,26,26,26,26,18,17,16,26,26,27,12,45,51,79,12,45,30,30,30,51,12,72,55,72,76,54,76,55,72,78,54,54,54,76,54,54,54,54,54,73,74,54,76,54,54,54,80,54,55,14,41,62,34,6,
4,4,9,4,4,4,4,4,5,6,6,6,6,6,33,34,39,6,6,15,26,26,26,27,12,45,75,30,50,51,12,72,55,72,78,54,78,55,72,78,54,54,54,78,54,54,76,54,54,55,72,54,78,54,76,54,54,76,55,72,80,73,41,41,
4,4,4,4,4,4,4,4,9,10,32,10,32,10,10,66,10,10,32,6,6,6,6,15,26,18,17,16,26,27,13,72,55,72,82,54,82,55,72,82,54,54,54,78,54,54,78,54,54,55,72,54,78,54,78,54,54,78,55,72,76,55,72,54,
4,4,4,4,4,4,4,4,4,4,4,4,4,4,4,4,4,4,4,10,32,10,32,6,6,33,34,39,6,15,26,65,55,72,83,54,84,55,72,83,54,54,54,82,54,54,78,54,54,55,72,54,78,54,78,54,54,78,55,72,78,55,72,54,
4,4,4,4,4,4,4,4,4,4,4,4,4,4,4,4,4,4,4,4,4,4,4,10,32,10,66,10,32,6,6,15,26,26,18,17,17,16,26,26,26,27,54,54,54,54,82,54,54,55,72,54,78,54,78,54,54,78,55,72,78,55,72,54,
4,4,4,4,4,4,4,4,4,4,4,4,4,4,4,4,4,4,4,4,4,4,4,4,4,4,4,4,4,10,32,6,6,6,33,34,34,39,6,6,6,15,26,27,54,54,54,54,54,55,72,54,82,54,78,54,54,78,55,72,78,55,72,54,
4,4,4,4,4,4,4,4,4,4,4,4,4,4,4,4,4,4,4,4,4,4,4,4,4,4,4,4,4,4,4,10,32,10,10,66,66,10,32,10,10,15,18,17,16,26,26,26,26,27,72,54,54,54,82,54,54,78,55,72,78,55,72,54,
4,4,4,4,4,4,4,4,4,4,4,4,4,4,4,4,4,4,4,4,4,4,4,4,4,4,4,4,4,4,4,4,4,4,4,4,4,4,4,4,5,10,33,34,39,6,6,6,6,15,26,18,17,16,26,53,54,82,55,72,82,55,72,54,
4,4,4,4,4,4,4,4,4,4,4,4,4,4,4,4,4,4,4,4,4,4,4,4,4,4,4,4,4,4,4,4,4,4,4,4,4,4,4,4,9,4,10,66,10,32,10,32,10,6,6,33,34,39,6,6,54,83,55,72,84,55,72,83,
4,4,4,4,4,4,4,4,4,4,4,4,4,4,4,4,4,4,4,4,4,4,4,4,4,4,4,4,4,4,4,4,4,4,4,4,4,4,4,4,4,4,4,4,4,4,4,4,4,10,32,10,66,10,32,15,26,26,26,26,26,18,17,16,
4,4,4,4,4,4,4,4,4,4,4,4,4,4,4,4,4,4,4,4,4,4,4,4,4,4,4,4,4,4,4,4,4,4,4,4,4,4,4,4,4,4,4,4,4,4,4,4,4,4,4,4,4,4,5,6,6,6,6,6,6,33,34,6,
4,4,4,4,4,4,4,4,4,4,4,4,4,4,4,4,4,4,4,4,4,4,4,4,4,4,4,4,4,4,4,4,4,4,4,4,4,4,4,4,4,4,4,4,4,4,4,4,4,4,4,4,4,4,9,10,32,10,32,10,32,10,66,10,
4,4,4,4,4,4,4,4,4,4,4,4,4,4,4,4,4,4,4,4,4,4,4,4,4,4,4,4,4,4,4,4,4,4,4,4,4,4,4,4,4,4,4,4,4,4,4,4,4,4,4,4,4,4,4,4,4,4,4,4,4,4,4,4,
4,4,4,4,4,4,4,4,4,4,4,4,4,4,4,4,4,4,4,4,4,4,4,4,4,4,4,4,4,4,4,4,4,4,4,4,4,4,4,4,4,4,4,4,4,4,4,4,4,4,4,4,4,4,4,4,4,4,4,4,4,4,4,4,
4,4,4,4,4,4,4,4,4,4,4,4,4,4,4,4,4,4,4,4,4,4,4,4,4,4,4,4,4,4,4,4,4,4,4,4,4,4,4,4,4,4,4,4,4,4,4,4,4,4,4,4,4,4,4,4,4,4,4,4,4,4,4,4
</data>
 </layer>
 <layer id="2" name="layer1" width="64" height="32">
  <properties>
   <property name="priority" type="bool" value="true"/>
  </properties>
  <data encoding="csv">
0,0,0,0,0,0,0,0,0,0,0,0,0,0,0,0,0,0,0,0,0,0,0,0,0,0,0,0,0,0,0,0,0,0,0,0,0,0,0,0,0,0,0,0,0,0,0,0,0,0,0,0,0,0,0,0,0,0,0,0,0,0,0,0,
0,0,0,0,0,0,0,0,0,0,0,0,0,0,0,0,0,0,0,0,0,0,0,0,0,0,0,0,0,0,0,0,0,0,0,0,0,0,0,0,0,0,0,0,0,0,0,0,0,0,0,0,0,0,0,0,0,0,0,0,0,0,0,0,
0,0,0,0,0,0,0,0,0,0,0,0,0,0,0,0,0,0,0,0,0,0,0,0,0,0,0,0,0,0,0,0,0,0,0,0,0,0,0,0,0,0,0,0,0,0,0,0,0,0,0,0,0,0,0,0,0,0,0,0,0,0,0,0,
0,0,0,0,0,0,0,0,0,0,0,0,0,0,0,0,0,0,0,0,0,0,0,0,0,0,0,0,0,0,0,0,0,0,0,0,0,0,0,0,0,0,0,0,0,0,0,0,0,0,0,0,0,0,0,0,0,0,0,0,0,0,0,0,
0,0,0,0,0,0,0,0,0,0,0,0,0,0,0,0,0,0,0,0,0,0,0,0,0,0,0,0,0,0,0,0,0,0,0,0,0,0,0,0,0,0,0,0,0,0,0,0,0,0,0,0,0,0,0,0,0,0,0,0,0,0,0,0,
85,86,87,88,85,86,87,88,85,86,87,88,85,86,87,88,85,86,87,88,85,86,87,88,85,86,87,88,85,86,87,88,0,0,0,0,0,0,0,0,85,86,87,88,85,86,87,88,85,86,87,88,85,86,87,88,85,86,87,88,85,86,87,88,
0,0,0,0,0,0,0,0,0,0,0,0,0,0,0,0,0,0,0,0,0,0,0,0,0,0,0,0,0,0,0,0,0,0,0,0,0,0,0,0,0,0,0,0,0,0,0,0,0,0,0,0,0,0,0,0,0,0,0,0,0,0,0,0,
0,0,0,0,0,0,0,0,0,0,0,0,0,0,0,0,0,0,0,0,0,0,0,0,0,0,0,0,0,0,0,0,0,0,0,0,0,0,0,0,0,0,0,0,0,0,0,0,0,0,0,0,0,0,0,0,0,0,0,0,0,0,0,0,
0,0,0,0,0,0,0,0,0,0,0,0,0,0,0,0,0,0,0,0,0,0,0,0,0,0,0,0,0,0,0,0,0,0,0,0,0,0,0,0,0,0,0,0,0,0,0,0,0,0,0,0,0,0,0,0,0,0,0,0,0,0,0,0,
0,0,0,0,0,0,0,0,0,0,0,0,0,0,0,0,0,0,0,0,0,0,0,0,0,0,0,0,0,0,0,0,0,0,0,0,0,0,0,0,0,0,0,0,0,0,0,0,0,0,0,0,0,0,0,0,0,0,0,0,0,0,0,0,
0,0,0,0,0,0,0,0,0,0,0,0,0,0,0,0,0,0,0,0,0,0,0,0,0,0,0,0,0,0,0,0,0,0,0,0,0,0,0,0,0,0,0,0,0,0,0,0,0,0,0,0,0,0,0,0,0,0,0,0,0,0,0,0,
0,0,0,0,0,0,0,0,0,0,0,0,0,0,0,0,0,0,0,0,0,0,0,0,0,0,0,0,0,0,0,0,0,0,0,0,0,0,0,0,0,0,0,0,0,0,0,0,0,0,0,0,0,0,0,0,0,0,0,0,0,0,0,0,
0,0,0,0,0,0,0,0,0,0,0,0,0,0,0,0,0,0,0,0,0,0,0,0,0,0,0,0,0,0,0,0,0,0,0,0,0,0,0,0,0,0,0,0,0,0,0,0,0,0,0,0,0,0,0,0,0,0,0,0,0,0,0,0,
0,0,0,0,0,0,0,0,0,0,0,0,0,0,0,0,0,0,0,0,0,0,0,0,0,0,0,0,0,0,0,0,0,0,0,0,0,0,0,0,0,0,0,0,0,0,0,0,0,0,0,0,0,0,0,0,0,0,0,0,0,0,0,0,
0,0,0,0,0,0,0,0,0,0,0,0,0,0,0,0,0,0,0,0,0,0,0,0,0,0,0,0,0,0,0,0,0,0,0,0,0,0,0,0,0,0,0,0,0,0,0,0,0,0,0,0,0,0,0,0,0,0,0,0,0,0,0,0,
0,0,0,0,0,0,0,0,0,0,0,0,0,0,0,0,0,0,0,0,0,0,0,0,0,0,0,0,0,0,0,0,0,0,0,0,0,0,0,0,0,0,0,0,0,0,0,0,0,0,0,0,0,0,0,0,0,0,0,0,0,0,0,0,
0,0,0,0,0,0,0,0,0,0,0,0,0,0,0,0,0,0,0,0,0,0,0,0,0,0,0,0,0,0,0,0,0,0,0,0,0,0,0,0,0,0,0,0,0,0,0,0,0,0,0,0,0,0,0,0,0,0,0,0,0,0,0,0,
0,0,0,0,0,0,0,0,0,0,0,0,0,0,0,0,0,0,0,0,0,0,0,0,0,0,0,0,0,0,0,0,0,0,0,0,0,0,0,0,0,0,0,0,0,0,0,0,0,0,0,0,0,0,0,0,0,0,0,0,0,0,0,0,
0,0,0,0,0,0,0,0,0,0,0,0,0,0,0,0,0,0,0,0,0,0,0,0,0,0,0,0,0,0,0,0,0,0,0,0,0,0,0,0,0,0,0,0,0,0,0,0,0,0,0,0,0,0,0,0,0,0,0,0,0,0,0,0,
0,0,0,0,0,0,0,0,0,0,0,0,0,0,0,0,0,0,0,0,0,0,0,0,0,0,0,0,0,0,0,0,0,0,0,0,0,0,0,0,0,0,0,0,0,0,0,0,0,0,0,0,0,0,0,0,0,0,0,0,0,0,0,0,
0,0,0,0,0,0,0,0,0,0,0,0,0,0,0,0,0,0,0,0,0,0,0,0,0,0,0,0,0,0,0,0,0,0,0,0,0,0,0,0,0,0,0,0,0,0,0,0,0,0,0,0,0,0,0,0,0,0,0,0,0,0,0,0,
0,0,0,0,0,0,0,0,0,0,0,0,0,0,0,0,0,0,0,0,0,0,0,0,0,0,0,0,0,0,0,0,0,0,0,0,0,0,0,0,0,0,0,0,0,0,0,0,0,0,0,0,0,0,0,0,0,0,0,0,0,0,0,0,
0,0,0,0,0,0,0,0,0,0,0,0,0,0,0,0,0,0,0,0,0,0,0,0,0,0,0,0,0,0,0,0,0,0,0,0,0,0,0,0,0,0,0,0,0,0,0,0,0,0,0,0,0,0,0,0,0,0,0,0,0,0,0,0,
0,0,0,0,0,0,0,0,0,0,0,0,0,0,0,0,0,0,0,0,0,0,0,0,0,0,0,0,0,0,0,0,0,0,0,0,0,0,0,0,0,0,0,0,0,0,0,0,0,0,0,0,0,0,0,0,0,0,0,0,0,0,0,0,
0,0,0,0,0,0,0,0,0,0,0,0,0,0,0,0,0,0,0,0,0,0,0,0,0,0,0,0,0,0,0,0,0,0,0,0,0,0,0,0,0,0,0,0,0,0,0,0,0,0,0,0,0,0,0,0,0,0,0,0,0,0,0,0,
0,0,0,0,0,0,0,0,0,0,0,0,0,0,0,0,0,0,0,0,0,0,0,0,0,0,0,0,0,0,0,0,0,0,0,0,0,0,0,0,0,0,0,0,0,0,0,0,0,0,0,0,0,0,0,0,0,0,0,0,0,0,0,0,
0,0,0,0,0,0,0,0,0,0,0,0,0,0,0,0,0,0,0,0,0,0,0,0,0,0,0,0,0,0,0,0,0,0,0,0,0,0,0,0,0,0,0,0,0,0,0,0,0,0,0,0,0,0,0,0,0,0,0,0,0,0,0,0,
0,0,0,0,0,0,0,0,0,0,0,0,0,0,0,0,0,0,0,0,0,0,0,0,0,0,0,0,0,0,0,0,0,0,0,0,0,0,0,0,0,0,0,0,0,0,0,0,0,0,0,0,0,0,0,0,0,0,0,0,0,0,0,0,
0,0,0,0,0,0,0,0,0,0,0,0,0,0,0,0,0,0,0,0,0,0,0,0,0,0,0,0,0,0,0,0,0,0,0,0,0,0,0,0,0,0,0,0,0,0,0,0,0,0,0,0,0,0,0,0,0,0,0,0,0,0,0,0,
0,0,0,0,0,0,0,0,0,0,0,0,0,0,0,0,0,0,0,0,0,0,0,0,0,0,0,0,0,0,0,0,0,0,0,0,0,0,0,0,0,0,0,0,0,0,0,0,0,0,0,0,0,0,0,0,0,0,0,0,0,0,0,0,
0,0,0,0,0,0,0,0,0,0,0,0,0,0,0,0,0,0,0,0,0,0,0,0,0,0,0,0,0,0,0,0,0,0,0,0,0,0,0,0,0,0,0,0,0,0,0,0,0,0,0,0,0,0,0,0,0,0,0,0,0,0,0,0,
0,0,0,0,0,0,0,0,0,0,0,0,0,0,0,0,0,0,0,0,0,0,0,0,0,0,0,0,0,0,0,0,0,0,0,0,0,0,0,0,0,0,0,0,0,0,0,0,0,0,0,0,0,0,0,0,0,0,0,0,0,0,0,0
</data>
 </layer>
</map>
