<?xml version="1.0" encoding="UTF-8"?>
<map version="1.10" tiledversion="1.11.2" orientation="orthogonal" renderorder="right-down" width="128" height="30" tilewidth="16" tileheight="16" infinite="0" nextlayerid="2" nextobjectid="1">
 <tileset firstgid="1" name="tiles" tilewidth="16" tileheight="16" tilecount="233" columns="16">
  <image source="lr.png" width="256" height="240"/>
  <tile id="3">
   <objectgroup draworder="index" id="2">
    <object id="1" x="0" y="0">
     <polygon points="0,0 16,0 16,16 0,16"/>
    </object>
   </objectgroup>
  </tile>
  <tile id="62">
   <objectgroup draworder="index" id="2">
    <object id="1" x="0" y="0">
     <polygon points="0,0 16,0 16,16 0,16"/>
    </object>
   </objectgroup>
   <animation>
    <frame tileid="62" duration="100"/>
    <frame tileid="67" duration="100"/>
    <frame tileid="69" duration="100"/>
    <frame tileid="113" duration="100"/>
    <frame tileid="115" duration="100"/>
    <frame tileid="117" duration="100"/>
   </animation>
  </tile>
  <tile id="10">
   <objectgroup draworder="index" id="2">
    <object id="1" x="0" y="0">
     <polygon points="0,0 16,0 16,16 0,16"/>
    </object>
   </objectgroup>
  </tile>
  <tile id="66">
   <objectgroup draworder="index" id="2">
    <object id="1" x="0" y="0">
     <polygon points="0,0 16,0 16,16 0,16"/>
    </object>
   </objectgroup>
  </tile>
  <tile id="33">
   <objectgroup draworder="index" id="2">
    <object id="1" x="0" y="0">
     <polygon points="0,0 16,0 16,16 0,16"/>
    </object>
   </objectgroup>
   <animation>
    <frame tileid="33" duration="100"/>
    <frame tileid="35" duration="100"/>
    <frame tileid="37" duration="100"/>
    <frame tileid="101" duration="100"/>
    <frame tileid="103" duration="100"/>
    <frame tileid="105" duration="100"/>
   </animation>
  </tile>
  <tile id="2">
   <objectgroup draworder="index" id="2">
    <object id="1" x="0" y="0">
     <polygon points="0,0 16,0 16,16 0,16"/>
    </object>
   </objectgroup>
  </tile>
  <tile id="4">
   <objectgroup draworder="index" id="2">
    <object id="1" x="0" y="0">
     <polygon points="0,0 16,0 16,16 0,16"/>
    </object>
   </objectgroup>
  </tile>
  <tile id="39">
   <objectgroup draworder="index" id="2">
    <object id="1" x="0" y="0">
     <polygon points="0,0 16,0 16,16 0,16"/>
    </object>
   </objectgroup>
  </tile>
  <tile id="40">
   <objectgroup draworder="index" id="2">
    <object id="1" x="0" y="0">
     <polygon points="0,0 16,0 16,16 0,16"/>
    </object>
   </objectgroup>
  </tile>
  <tile id="61">
   <objectgroup draworder="index" id="2">
    <object id="1" x="0" y="0">
     <polygon points="0,0 16,0 16,16 0,16"/>
    </object>
   </objectgroup>
  </tile>
  <tile id="7">
   <objectgroup draworder="index" id="2">
    <object id="1" x="0" y="0">
     <polygon points="0,0 16,0 16,16 0,16"/>
    </object>
   </objectgroup>
  </tile>
  <tile id="8">
   <objectgroup draworder="index" id="2">
    <object id="1" x="0" y="0">
     <polygon points="0,0 16,0 16,16 0,16"/>
    </object>
   </objectgroup>
  </tile>
  <tile id="73">
   <objectgroup draworder="index" id="2">
    <object id="1" x="0" y="0">
     <polygon points="0,0 16,0 16,16 0,16"/>
    </object>
   </objectgroup>
  </tile>
  <tile id="79">
   <animation>
    <frame tileid="79" duration="100"/>
    <frame tileid="79" duration="100"/>
    <frame tileid="79" duration="100"/>
    <frame tileid="122" duration="100"/>
    <frame tileid="122" duration="100"/>
    <frame tileid="122" duration="100"/>
   </animation>
  </tile>
  <tile id="1">
   <objectgroup draworder="index" id="2">
    <object id="1" x="0" y="0">
     <polygon points="0,0 16,0 16,16 0,16"/>
    </object>
   </objectgroup>
  </tile>
  <tile id="41">
   <objectgroup draworder="index" id="2">
    <object id="1" x="0" y="0">
     <polygon points="0,0 16,0 16,16 0,16"/>
    </object>
   </objectgroup>
  </tile>
  <tile id="72">
   <objectgroup draworder="index" id="2">
    <object id="1" x="0" y="0">
     <polygon points="0,0 16,0 16,16 0,16"/>
    </object>
   </objectgroup>
  </tile>
  <tile id="9">
   <objectgroup draworder="index" id="2">
    <object id="1" x="0" y="0">
     <polygon points="0,0 16,0 16,16 0,16"/>
    </object>
   </objectgroup>
  </tile>
  <tile id="60">
   <objectgroup draworder="index" id="2">
    <object id="1" x="0" y="0">
     <polygon points="0,0 16,0 16,16 0,16"/>
    </object>
   </objectgroup>
  </tile>
  <tile id="6">
   <objectgroup draworder="index" id="2">
    <object id="1" x="0" y="0">
     <polygon points="0,0 16,0 16,16 0,16"/>
    </object>
   </objectgroup>
  </tile>
  <tile id="126">
   <objectgroup draworder="index" id="2">
    <object id="1" x="0" y="0">
     <polygon points="0,0 16,0 16,16 0,16"/>
    </object>
   </objectgroup>
  </tile>
  <tile id="25">
   <objectgroup draworder="index" id="2">
    <object id="1" x="0" y="0">
     <polygon points="0,0 16,0 16,16 0,16"/>
    </object>
   </objectgroup>
  </tile>
  <tile id="64">
   <objectgroup draworder="index" id="2">
    <object id="1" x="0" y="0">
     <polygon points="0,0 16,0 16,16 0,16"/>
    </object>
   </objectgroup>
  </tile>
  <tile id="13">
   <objectgroup draworder="index" id="2">
    <object id="1" x="0" y="0">
     <polygon points="0,0 16,0 16,16 0,16"/>
    </object>
   </objectgroup>
  </tile>
  <tile id="82">
   <animation>
    <frame tileid="82" duration="100"/>
    <frame tileid="82" duration="100"/>
    <frame tileid="82" duration="100"/>
    <frame tileid="124" duration="100"/>
    <frame tileid="124" duration="100"/>
    <frame tileid="124" duration="100"/>
   </animation>
  </tile>
  <tile id="5">
   <objectgroup draworder="index" id="2">
    <object id="1" x="0" y="0">
     <polygon points="0,0 16,0 16,16 0,16"/>
    </object>
   </objectgroup>
  </tile>
  <tile id="17">
   <objectgroup draworder="index" id="2">
    <object id="1" x="0" y="0">
     <polygon points="0,0 16,0 16,16 0,16"/>
    </object>
   </objectgroup>
   <animation>
    <frame tileid="17" duration="100"/>
    <frame tileid="21" duration="100"/>
    <frame tileid="24" duration="100"/>
    <frame tileid="93" duration="100"/>
    <frame tileid="96" duration="100"/>
    <frame tileid="99" duration="100"/>
   </animation>
  </tile>
  <tile id="16">
   <objectgroup draworder="index" id="2">
    <object id="1" x="0" y="0">
     <polygon points="0,0 16,0 16,16 0,16"/>
    </object>
   </objectgroup>
   <animation>
    <frame tileid="16" duration="100"/>
    <frame tileid="20" duration="100"/>
    <frame tileid="23" duration="100"/>
    <frame tileid="92" duration="100"/>
    <frame tileid="95" duration="100"/>
    <frame tileid="98" duration="100"/>
   </animation>
  </tile>
  <tile id="31">
   <objectgroup draworder="index" id="2">
    <object id="1" x="0" y="0">
     <polygon points="0,0 16,0 16,16 0,16"/>
    </object>
   </objectgroup>
  </tile>
  <tile id="52">
   <objectgroup draworder="index" id="2">
    <object id="1" x="0" y="0">
     <polygon points="0,0 16,0 16,16 0,16"/>
    </object>
   </objectgroup>
  </tile>
  <tile id="32">
   <objectgroup draworder="index" id="2">
    <object id="1" x="0" y="0">
     <polygon points="0,0 16,0 16,16 0,16"/>
    </object>
   </objectgroup>
   <animation>
    <frame tileid="32" duration="100"/>
    <frame tileid="34" duration="100"/>
    <frame tileid="36" duration="100"/>
    <frame tileid="100" duration="100"/>
    <frame tileid="102" duration="100"/>
    <frame tileid="104" duration="100"/>
   </animation>
  </tile>
  <tile id="38">
   <objectgroup draworder="index" id="2">
    <object id="1" x="0" y="0">
     <polygon points="0,0 16,0 16,16 0,16"/>
    </object>
   </objectgroup>
   <animation>
    <frame tileid="38" duration="100"/>
    <frame tileid="47" duration="100"/>
    <frame tileid="48" duration="100"/>
    <frame tileid="106" duration="100"/>
    <frame tileid="109" duration="100"/>
    <frame tileid="110" duration="100"/>
   </animation>
  </tile>
  <tile id="83">
   <animation>
    <frame tileid="83" duration="100"/>
    <frame tileid="89" duration="100"/>
    <frame tileid="90" duration="100"/>
    <frame tileid="89" duration="100"/>
    <frame tileid="83" duration="100"/>
    <frame tileid="125" duration="100"/>
   </animation>
  </tile>
  <tile id="65">
   <objectgroup draworder="index" id="2">
    <object id="1" x="0" y="0">
     <polygon points="0,0 16,0 16,16 0,16"/>
    </object>
   </objectgroup>
   <animation>
    <frame tileid="65" duration="100"/>
    <frame tileid="68" duration="100"/>
    <frame tileid="70" duration="100"/>
    <frame tileid="114" duration="100"/>
    <frame tileid="116" duration="100"/>
    <frame tileid="118" duration="100"/>
   </animation>
  </tile>
  <tile id="14">
   <objectgroup draworder="index" id="2">
    <object id="1" x="0" y="0">
     <polygon points="0,0 16,0 16,16 0,16"/>
    </object>
   </objectgroup>
  </tile>
  <tile id="63">
   <objectgroup draworder="index" id="2">
    <object id="1" x="0" y="0">
     <polygon points="0,0 16,0 16,16 0,16"/>
    </object>
   </objectgroup>
  </tile>
  <tile id="42">
   <animation>
    <frame tileid="42" duration="100"/>
    <frame tileid="42" duration="100"/>
    <frame tileid="42" duration="100"/>
    <frame tileid="107" duration="100"/>
    <frame tileid="107" duration="100"/>
    <frame tileid="107" duration="100"/>
   </animation>
  </tile>
  <tile id="43">
   <animation>
    <frame tileid="43" duration="100"/>
    <frame tileid="43" duration="100"/>
    <frame tileid="43" duration="100"/>
    <frame tileid="108" duration="100"/>
    <frame tileid="108" duration="100"/>
    <frame tileid="108" duration="100"/>
   </animation>
  </tile>
  <tile id="55">
   <animation>
    <frame tileid="55" duration="100"/>
    <frame tileid="55" duration="100"/>
    <frame tileid="55" duration="100"/>
    <frame tileid="111" duration="100"/>
    <frame tileid="111" duration="100"/>
    <frame tileid="111" duration="100"/>
   </animation>
  </tile>
  <tile id="56">
   <animation>
    <frame tileid="56" duration="100"/>
    <frame tileid="56" duration="100"/>
    <frame tileid="56" duration="100"/>
    <frame tileid="112" duration="100"/>
    <frame tileid="112" duration="100"/>
    <frame tileid="112" duration="100"/>
   </animation>
  </tile>
  <tile id="12">
   <animation>
    <frame tileid="12" duration="100"/>
    <frame tileid="18" duration="100"/>
    <frame tileid="18" duration="100"/>
    <frame tileid="18" duration="100"/>
    <frame tileid="12" duration="100"/>
    <frame tileid="12" duration="100"/>
   </animation>
  </tile>
  <tile id="76">
   <animation>
    <frame tileid="76" duration="100"/>
    <frame tileid="76" duration="100"/>
    <frame tileid="76" duration="100"/>
    <frame tileid="120" duration="100"/>
    <frame tileid="120" duration="100"/>
    <frame tileid="120" duration="100"/>
   </animation>
  </tile>
  <tile id="51">
   <objectgroup draworder="index" id="2">
    <object id="1" x="0" y="0">
     <polygon points="0,0 16,0 16,16 0,16"/>
    </object>
   </objectgroup>
  </tile>
  <tile id="26">
   <objectgroup draworder="index" id="2">
    <object id="1" x="0" y="0">
     <polygon points="0,0 16,0 16,16 0,16"/>
    </object>
   </objectgroup>
  </tile>
  <tile id="78">
   <animation>
    <frame tileid="78" duration="100"/>
    <frame tileid="78" duration="100"/>
    <frame tileid="78" duration="100"/>
    <frame tileid="121" duration="100"/>
    <frame tileid="121" duration="100"/>
    <frame tileid="121" duration="100"/>
   </animation>
  </tile>
 </tileset>
 <layer id="1" name="layer" width="128" height="30">
  <data encoding="csv">
4,4,4,4,4,4,4,4,4,4,4,4,4,4,4,4,4,4,4,4,4,4,63,4,4,4,4,4,4,4,4,4,4,4,63,63,4,4,4,4,4,4,4,4,4,4,4,4,4,4,4,4,4,4,4,63,4,4,4,4,4,4,4,4,4,63,4,4,4,4,4,4,4,4,4,63,63,4,4,4,4,4,4,4,4,4,4,4,4,4,4,4,4,4,4,4,4,4,4,4,4,4,4,4,4,4,4,4,4,4,4,4,4,4,4,4,4,4,4,4,4,4,4,4,4,4,4,4,
4,4,4,4,4,4,4,4,4,4,4,4,4,4,4,4,4,11,67,11,67,11,34,11,67,11,67,11,67,11,67,11,67,11,34,34,67,11,67,11,67,3,4,4,4,4,4,4,4,4,4,4,4,5,4,34,11,67,11,67,11,67,11,67,11,34,11,67,11,67,11,67,11,67,11,34,34,67,11,67,11,67,11,4,4,4,4,4,4,4,4,4,4,4,4,4,4,4,4,4,4,4,4,4,4,4,4,4,4,4,4,4,4,4,4,4,4,4,4,4,4,4,4,4,4,4,4,4,
4,4,4,4,4,4,4,4,4,4,4,4,4,63,4,11,67,40,41,41,41,41,41,41,41,41,41,41,41,41,41,41,41,41,41,41,41,41,41,41,62,8,4,4,4,4,4,4,4,4,4,5,4,9,11,34,40,41,41,41,41,41,41,41,41,41,41,41,41,41,41,41,41,41,41,41,41,41,41,41,41,41,62,11,4,4,4,4,4,4,4,4,4,4,4,4,4,4,4,4,4,4,4,4,4,4,4,4,4,4,4,4,4,4,4,4,4,63,63,4,4,4,4,4,4,4,4,4,
4,4,4,4,4,4,4,4,4,4,4,4,11,34,11,40,41,74,80,54,54,54,54,80,80,54,54,54,54,54,54,80,54,54,54,54,80,80,80,54,2,11,4,4,4,4,4,4,4,4,5,9,11,67,40,41,42,45,51,12,12,12,45,51,12,72,54,80,54,54,54,54,80,54,54,54,80,80,80,54,54,54,73,62,11,4,4,4,4,4,4,4,4,4,4,4,4,4,4,4,63,4,4,4,4,4,4,4,4,4,4,4,4,4,11,67,11,34,34,11,67,11,11,4,4,4,4,4,
4,4,4,4,4,4,4,4,4,5,4,11,40,41,41,74,54,54,76,54,76,54,76,54,54,76,54,76,54,76,54,76,54,76,54,76,54,76,54,54,2,10,4,4,4,4,4,4,4,63,9,67,40,41,42,12,12,45,30,29,29,29,30,51,12,72,54,76,54,54,54,54,54,54,54,54,54,54,54,54,54,76,54,73,62,4,4,4,4,4,4,4,4,4,4,4,11,11,67,11,34,11,67,11,67,11,67,11,67,11,67,11,11,67,40,41,41,41,41,41,41,41,62,11,67,4,4,4,
4,4,4,4,4,4,4,4,4,9,11,40,41,80,80,54,54,54,78,54,78,54,78,54,54,78,54,78,54,78,54,78,54,78,54,78,54,78,54,54,2,3,4,4,4,4,4,4,5,34,11,40,42,12,12,12,12,45,30,46,60,47,30,51,12,72,54,82,54,54,54,54,54,54,54,54,54,54,54,54,54,82,54,80,2,4,4,4,5,4,4,4,4,11,67,11,40,41,41,41,41,41,41,41,41,41,41,41,41,41,41,41,41,41,74,54,76,54,76,80,80,54,73,41,62,11,4,4,
4,4,4,4,4,4,4,4,4,11,40,41,74,54,54,54,54,54,78,54,78,54,78,54,54,78,54,78,54,78,54,78,54,78,54,78,54,78,54,54,2,8,4,4,4,4,4,5,9,34,40,42,12,12,12,12,12,45,51,12,12,12,45,51,12,72,54,54,54,54,54,54,54,54,54,54,54,54,54,54,54,54,54,54,2,4,4,4,9,11,67,11,67,41,41,41,74,54,54,76,54,76,54,54,76,54,76,54,54,54,76,54,54,76,54,54,78,54,78,54,76,54,80,55,61,62,11,4,
4,4,4,4,4,4,4,4,4,10,7,80,54,76,54,54,54,54,78,54,78,54,78,54,54,78,54,78,54,78,54,82,54,82,54,82,54,78,54,54,2,11,4,4,4,4,5,9,11,40,42,12,12,12,12,12,12,45,30,29,29,29,30,51,12,72,54,54,54,54,127,26,26,26,26,26,26,26,26,65,54,54,54,54,2,4,5,4,11,40,41,41,41,74,54,54,54,54,54,78,54,78,54,54,78,54,78,54,54,54,82,54,54,82,54,54,82,54,82,54,78,54,54,55,12,14,10,4,
4,4,4,4,4,4,4,4,4,5,7,54,54,78,54,54,54,54,82,54,82,54,82,54,54,82,54,82,54,82,54,54,54,83,54,54,54,82,54,54,2,10,4,4,4,5,9,11,40,42,12,12,12,12,12,12,12,45,30,46,60,47,30,51,12,72,54,54,54,54,2,6,6,6,6,6,6,6,6,7,54,54,54,54,2,4,9,4,10,7,55,45,51,72,54,54,54,54,54,82,54,82,54,54,82,54,82,54,127,26,26,26,18,17,18,65,54,54,54,54,78,54,54,55,12,14,3,4,
4,4,4,4,4,4,4,4,4,9,7,54,54,82,54,54,54,83,83,54,54,54,54,54,54,54,54,54,54,54,127,18,17,18,65,54,54,54,54,54,2,3,4,4,5,9,11,40,42,12,12,12,12,12,12,12,12,45,51,12,12,12,45,51,12,72,54,54,54,54,2,6,32,10,32,10,32,10,32,7,54,54,54,54,2,4,63,11,67,7,55,45,51,72,54,127,26,26,18,17,18,26,26,26,26,18,17,18,53,6,6,6,33,34,39,40,54,54,54,54,82,54,54,55,12,14,8,4,
4,4,4,4,4,4,4,4,4,11,7,54,54,54,54,54,127,18,17,18,65,54,54,54,54,54,54,54,84,54,2,33,34,39,7,54,54,54,54,54,2,8,4,4,9,11,40,42,12,12,12,12,12,12,12,12,12,45,51,12,12,12,45,51,12,72,54,54,54,54,2,32,4,4,63,4,4,4,67,7,54,54,54,54,2,4,34,40,41,74,55,45,51,72,54,2,6,6,33,34,39,6,6,6,6,33,34,39,6,6,10,32,10,66,10,7,26,65,54,76,54,76,54,55,12,14,11,4,
4,4,4,4,4,4,4,4,4,10,7,54,54,54,54,54,2,33,34,39,15,65,54,54,54,54,54,54,127,26,53,10,66,10,7,54,54,54,54,54,2,11,4,5,4,40,42,12,12,12,12,12,28,29,29,29,29,30,30,29,29,29,30,51,12,72,54,54,54,54,2,11,67,11,34,11,67,11,6,7,54,54,54,54,2,11,34,7,80,54,55,45,51,72,54,2,10,32,10,66,10,32,10,32,10,32,66,32,10,32,67,11,67,11,67,7,41,74,54,78,54,78,54,55,12,14,10,4,
4,4,4,4,4,4,4,4,4,5,7,54,54,54,54,54,2,10,66,10,6,7,54,54,54,54,54,54,2,6,6,4,4,5,7,54,54,54,54,54,2,10,4,9,11,64,12,12,12,12,12,12,45,30,46,60,47,30,30,46,60,47,30,51,12,72,54,54,54,54,73,41,41,41,41,41,41,41,41,74,54,54,54,54,73,41,41,74,54,54,55,45,51,72,54,2,4,4,4,4,4,4,4,11,67,11,67,11,67,11,40,41,41,41,41,7,80,54,54,82,54,82,54,55,12,14,3,4,
4,4,4,4,4,4,4,4,4,9,7,54,54,54,54,54,2,11,4,4,10,7,54,54,54,54,54,54,2,10,32,4,4,9,7,54,54,54,54,54,2,3,4,11,40,42,12,12,12,12,12,12,45,51,12,12,12,45,51,12,12,12,45,51,12,72,54,54,54,54,54,54,54,54,54,54,54,54,54,54,54,54,54,54,54,54,54,80,54,76,55,45,51,72,83,2,4,4,4,4,4,4,4,41,41,41,41,41,41,41,74,80,80,54,54,54,54,54,54,54,54,54,54,55,12,14,8,4,
4,4,4,4,4,4,4,4,63,11,7,54,54,54,54,54,2,10,4,4,5,7,54,54,54,54,54,54,2,3,4,4,4,11,7,54,54,54,54,54,2,8,4,10,64,12,12,12,12,12,12,12,45,51,12,12,12,45,51,43,44,12,45,51,12,72,54,54,54,54,54,54,54,54,54,54,54,54,54,54,54,76,54,76,54,76,54,76,54,78,55,45,51,72,127,53,4,4,4,4,4,4,67,40,80,54,55,45,51,72,54,76,54,76,54,76,54,76,54,76,54,76,54,55,12,14,11,4,
4,4,4,4,4,4,4,11,34,6,7,54,54,54,54,54,2,3,4,4,9,7,54,54,54,54,54,54,2,8,4,4,4,10,7,54,54,54,54,54,2,11,4,11,64,12,12,12,12,12,12,12,45,51,12,12,12,45,51,56,57,13,45,51,12,72,54,54,54,54,54,54,54,54,54,54,54,54,54,54,54,82,54,82,54,82,54,82,54,82,55,45,51,72,2,6,4,4,4,4,4,11,40,74,54,76,55,45,51,72,54,78,54,78,54,78,54,78,54,78,54,78,54,55,12,14,10,4,
4,5,4,63,4,11,67,40,41,41,74,54,54,54,54,54,2,8,4,4,11,7,54,54,54,54,54,54,2,11,4,4,4,5,7,54,54,54,54,54,2,6,4,40,42,12,12,12,12,12,12,12,45,51,77,12,52,26,26,26,26,26,26,27,13,72,83,84,84,54,127,65,54,54,54,54,127,65,83,54,84,54,54,54,54,83,54,54,84,54,127,26,26,26,53,10,4,4,4,4,5,7,74,54,54,78,55,45,51,72,54,82,54,82,54,82,54,82,54,82,54,82,83,55,12,14,3,4,
4,9,11,34,11,40,41,74,54,80,54,54,54,54,54,54,2,11,4,4,6,7,54,54,54,54,54,54,2,10,4,4,4,9,7,54,54,54,54,54,2,10,63,64,12,12,12,12,12,12,12,12,45,51,79,13,2,6,6,6,6,6,6,15,26,26,18,17,18,26,53,7,54,54,54,54,2,15,26,18,17,18,26,26,26,26,26,18,17,18,53,6,6,6,6,4,4,4,4,4,9,7,54,54,54,82,55,45,51,72,54,54,84,54,83,83,83,54,54,54,84,54,127,26,26,53,8,4,
4,4,40,41,41,74,54,54,54,54,54,54,54,54,54,54,2,10,63,4,10,7,54,54,54,54,54,54,2,67,4,4,63,11,7,54,54,54,54,54,2,11,34,64,12,12,12,12,12,12,43,44,52,18,17,18,53,10,32,10,32,10,32,6,6,6,33,34,39,6,6,7,54,54,54,54,2,6,6,33,34,39,6,6,6,6,6,33,34,39,6,10,32,10,32,4,4,4,4,4,11,74,54,54,84,54,55,45,51,72,84,127,26,26,26,26,26,26,18,17,18,26,53,6,6,6,11,4,
11,67,7,80,80,54,54,54,54,54,54,54,54,54,54,54,2,11,34,11,67,7,54,54,54,54,54,54,2,6,67,11,34,6,7,54,54,54,54,54,73,41,41,42,12,12,12,12,12,12,56,57,2,33,34,39,6,4,4,4,4,4,4,10,32,10,10,66,10,10,32,7,54,54,54,54,2,10,32,10,66,10,32,10,32,10,32,10,66,10,32,4,4,4,4,4,4,4,4,4,10,7,54,54,127,65,55,45,51,52,26,53,6,6,6,6,6,6,33,34,39,6,32,10,32,10,10,63,
41,41,74,54,54,76,54,76,54,76,54,54,54,54,54,54,73,41,41,41,41,74,54,54,54,54,54,54,73,41,41,41,41,41,74,54,54,54,54,54,54,80,54,55,12,12,12,12,12,12,52,26,53,10,66,10,32,4,4,4,4,4,4,4,4,4,4,4,4,4,5,7,54,76,54,127,53,4,4,4,4,4,4,4,4,4,4,4,4,4,4,4,4,4,4,4,4,4,4,4,5,74,54,54,73,74,55,45,51,61,41,62,6,6,6,6,6,6,6,6,6,6,11,67,11,67,11,34,
54,54,54,54,54,78,54,78,54,78,54,54,54,54,54,54,80,54,80,54,54,54,54,54,54,54,54,54,54,54,54,80,80,54,54,54,54,54,54,54,54,54,54,55,12,12,12,12,13,13,2,6,6,4,4,4,4,4,4,4,4,4,4,4,4,4,4,4,4,4,9,7,54,78,54,2,6,11,67,11,67,11,67,11,34,11,67,11,67,11,67,11,34,11,67,4,4,4,4,4,9,7,54,54,54,54,55,45,51,72,54,73,41,41,41,41,41,41,41,41,41,41,41,41,41,41,41,41,
54,76,54,76,54,78,54,78,54,78,54,76,54,76,54,76,54,54,54,54,54,54,54,54,54,54,54,54,54,54,54,54,54,54,54,54,54,76,54,76,54,76,54,55,12,12,12,77,52,26,53,10,32,4,4,4,4,4,4,4,4,4,4,4,4,4,4,4,4,4,11,7,54,78,54,73,41,41,41,41,41,41,41,41,41,41,41,41,41,41,41,41,41,41,62,3,4,4,4,4,11,7,84,54,83,83,55,45,51,72,54,54,54,54,80,80,54,54,80,54,54,54,54,54,54,54,80,54,
54,78,54,78,54,78,54,78,54,78,54,78,54,78,54,78,54,54,54,54,54,54,54,54,54,54,54,54,54,54,54,54,54,54,54,54,54,78,54,78,54,78,54,55,43,44,13,79,2,6,6,4,4,4,4,4,4,4,4,4,4,4,4,4,4,4,4,4,4,4,10,7,54,78,54,54,80,54,54,54,54,80,80,54,54,54,54,54,80,54,54,54,54,54,2,8,4,4,4,4,10,15,26,18,17,18,27,45,51,72,54,76,54,54,76,54,54,54,76,54,54,54,76,54,54,76,54,76,
54,82,54,82,54,82,54,82,54,82,54,82,54,82,54,82,54,54,54,54,54,54,54,54,54,54,54,54,54,54,54,54,54,54,54,54,54,82,54,82,54,82,54,55,56,57,52,26,53,10,32,4,4,4,4,4,4,4,4,4,4,4,4,4,4,4,4,4,4,4,5,7,54,82,54,54,76,54,54,54,54,76,54,54,76,54,54,76,54,54,76,54,54,54,2,11,4,4,4,4,5,6,6,33,34,39,15,26,27,72,54,82,54,84,82,54,84,84,82,54,83,83,82,54,83,82,84,82,
83,54,54,54,84,84,84,54,54,54,54,54,83,83,84,54,54,54,54,54,54,54,54,54,54,54,83,54,54,54,54,54,54,54,54,54,54,83,83,83,54,84,54,55,52,26,53,6,6,4,4,4,4,4,4,4,4,4,4,4,4,4,4,4,4,4,4,4,4,4,9,7,54,54,54,84,82,83,83,54,54,82,54,84,82,83,54,82,54,54,82,54,54,54,2,32,4,4,4,4,9,10,32,10,66,10,6,6,15,26,26,26,18,17,18,26,26,26,26,26,18,17,26,26,26,26,26,26,
18,17,18,26,26,26,26,26,18,17,18,26,26,26,26,26,18,17,18,26,26,26,26,26,26,26,26,26,18,17,18,26,26,26,26,26,26,26,26,26,18,17,18,26,53,6,6,10,32,4,4,4,4,4,4,4,4,4,4,4,4,4,4,4,4,4,4,4,4,4,5,15,26,26,26,26,26,18,17,18,26,26,26,26,26,26,26,26,26,65,54,54,54,54,2,3,4,4,4,4,4,4,4,4,4,4,10,32,6,6,6,6,33,34,39,6,6,6,6,6,33,34,6,6,6,6,6,6,
33,34,39,6,6,6,6,6,33,34,39,6,6,6,6,6,33,34,39,6,6,6,6,6,6,6,6,6,33,34,39,6,6,6,6,6,6,6,6,6,33,34,39,6,10,10,32,4,4,4,4,4,4,4,4,4,4,4,4,4,4,4,4,4,4,4,4,4,4,4,9,6,6,6,6,6,6,33,34,39,6,6,6,6,6,6,6,6,6,7,54,54,54,54,2,8,4,4,4,4,4,4,4,4,4,4,4,4,10,32,10,32,10,66,10,32,10,32,10,32,10,66,10,32,10,32,10,32,
10,66,10,32,10,32,10,32,10,66,10,32,10,32,10,32,10,66,10,32,10,32,10,32,10,32,10,32,10,66,10,32,10,32,10,32,10,32,10,32,10,66,10,32,4,4,4,4,4,4,4,4,4,4,4,4,4,4,4,4,4,4,4,4,4,4,4,4,4,4,4,10,32,10,32,10,32,10,66,10,32,10,32,10,32,10,32,10,32,7,54,54,54,54,2,11,4,4,4,4,4,4,4,4,4,4,4,4,4,4,4,4,4,4,4,4,4,4,4,4,4,4,4,4,4,4,4,4,
4,4,4,4,4,4,4,4,4,4,4,4,4,4,4,4,4,4,4,4,4,4,4,4,4,4,4,4,4,4,4,4,4,4,4,4,4,4,4,4,4,4,4,4,4,4,4,4,4,4,4,4,4,4,4,4,4,4,4,4,4,4,4,4,4,4,4,4,4,4,4,4,4,4,4,4,4,4,4,4,4,4,4,4,4,4,4,4,4,7,54,54,54,54,2,32,4,4,4,4,4,4,4,4,4,4,4,4,4,4,4,4,4,4,4,4,4,4,4,4,4,4,4,4,4,4,4,4
</data>
 </layer>
</map>
