<?xml version="1.0" encoding="UTF-8"?>
<map version="1.10" tiledversion="1.11.2" orientation="orthogonal" renderorder="right-down" width="30" height="64" tilewidth="16" tileheight="16" infinite="0" nextlayerid="2" nextobjectid="1">
 <tileset firstgid="1" name="tiles" tilewidth="16" tileheight="16" tilecount="233" columns="16">
  <image source="lr.png" width="256" height="240"/>
  <tile id="3">
   <objectgroup draworder="index" id="2">
    <object id="1" x="0" y="0">
     <polygon points="0,0 16,0 16,16 0,16"/>
    </object>
   </objectgroup>
  </tile>
  <tile id="6">
   <objectgroup draworder="index" id="2">
    <object id="1" x="0" y="0">
     <polygon points="0,0 16,0 16,16 0,16"/>
    </object>
   </objectgroup>
  </tile>
  <tile id="1">
   <objectgroup draworder="index" id="2">
    <object id="1" x="0" y="0">
     <polygon points="0,0 16,0 16,16 0,16"/>
    </object>
   </objectgroup>
  </tile>
  <tile id="2">
   <objectgroup draworder="index" id="2">
    <object id="1" x="0" y="0">
     <polygon points="0,0 16,0 16,16 0,16"/>
    </object>
   </objectgroup>
  </tile>
  <tile id="4">
   <objectgroup draworder="index" id="2">
    <object id="1" x="0" y="0">
     <polygon points="0,0 16,0 16,16 0,16"/>
    </object>
   </objectgroup>
  </tile>
  <tile id="7">
   <objectgroup draworder="index" id="2">
    <object id="1" x="0" y="0">
     <polygon points="0,0 16,0 16,16 0,16"/>
    </object>
   </objectgroup>
  </tile>
  <tile id="8">
   <objectgroup draworder="index" id="2">
    <object id="1" x="0" y="0">
     <polygon points="0,0 16,0 16,16 0,16"/>
    </object>
   </objectgroup>
  </tile>
  <tile id="127">
   <objectgroup draworder="index" id="2">
    <object id="1" x="0" y="0">
     <polygon points="0,0 16,0 16,16 0,16"/>
    </object>
   </objectgroup>
  </tile>
  <tile id="64">
   <objectgroup draworder="index" id="2">
    <object id="1" x="0" y="0">
     <polygon points="0,0 16,0 16,16 0,16"/>
    </object>
   </objectgroup>
  </tile>
  <tile id="128">
   <objectgroup draworder="index" id="2">
    <object id="1" x="0" y="0">
     <polygon points="0,0 16,0 16,16 0,16"/>
    </object>
   </objectgroup>
  </tile>
  <tile id="129">
   <objectgroup draworder="index" id="2">
    <object id="1" x="0" y="0">
     <polygon points="0,0 16,0 16,16 0,16"/>
    </object>
   </objectgroup>
  </tile>
  <tile id="66">
   <objectgroup draworder="index" id="2">
    <object id="1" x="0" y="0">
     <polygon points="0,0 16,0 16,16 0,16"/>
    </object>
   </objectgroup>
  </tile>
  <tile id="5">
   <objectgroup draworder="index" id="2">
    <object id="3" x="0" y="0">
     <polygon points="0,0 16,0 16,16 0,16"/>
    </object>
   </objectgroup>
  </tile>
  <tile id="72">
   <objectgroup draworder="index" id="2">
    <object id="1" x="0" y="0">
     <polygon points="0,0 16,0 16,16 0,16"/>
    </object>
   </objectgroup>
  </tile>
  <tile id="61">
   <objectgroup draworder="index" id="2">
    <object id="1" x="0" y="0">
     <polygon points="0,0 16,0 16,16 0,16"/>
    </object>
   </objectgroup>
  </tile>
  <tile id="39">
   <objectgroup draworder="index" id="2">
    <object id="1" x="0" y="0">
     <polygon points="0,0 16,0 16,16 0,16"/>
    </object>
   </objectgroup>
  </tile>
  <tile id="40">
   <objectgroup draworder="index" id="2">
    <object id="1" x="0" y="0">
     <polygon points="0,0 16,0 16,16 0,16"/>
    </object>
   </objectgroup>
  </tile>
  <tile id="73">
   <objectgroup draworder="index" id="2">
    <object id="1" x="0" y="0">
     <polygon points="0,0 16,0 16,16 0,16"/>
    </object>
   </objectgroup>
  </tile>
  <tile id="10">
   <objectgroup draworder="index" id="2">
    <object id="1" x="0" y="0">
     <polygon points="0,0 16,0 16,16 0,16"/>
    </object>
   </objectgroup>
  </tile>
  <tile id="130">
   <objectgroup draworder="index" id="2">
    <object id="1" x="0" y="0">
     <polygon points="0,0 16,0 16,16 0,16"/>
    </object>
   </objectgroup>
  </tile>
  <tile id="9">
   <objectgroup draworder="index" id="2">
    <object id="1" x="0" y="0">
     <polygon points="0,0 16,0 16,16 0,16"/>
    </object>
   </objectgroup>
  </tile>
  <tile id="31">
   <objectgroup draworder="index" id="2">
    <object id="1" x="0" y="0">
     <polygon points="0,0 16,0 16,16 0,16"/>
    </object>
   </objectgroup>
  </tile>
  <tile id="131">
   <objectgroup draworder="index" id="2">
    <object id="1" x="0" y="0">
     <polygon points="0,0 16,0 16,16 0,16"/>
    </object>
   </objectgroup>
  </tile>
  <tile id="132">
   <objectgroup draworder="index" id="2">
    <object id="1" x="0" y="0">
     <polygon points="0,0 16,0 16,16 0,16"/>
    </object>
   </objectgroup>
  </tile>
  <tile id="133">
   <objectgroup draworder="index" id="2">
    <object id="1" x="0" y="0">
     <polygon points="0,0 16,0 16,16 0,16"/>
    </object>
   </objectgroup>
  </tile>
  <tile id="134">
   <objectgroup draworder="index" id="2">
    <object id="1" x="0" y="0">
     <polygon points="0,0 16,0 16,16 0,16"/>
    </object>
   </objectgroup>
  </tile>
  <tile id="137">
   <objectgroup draworder="index" id="2">
    <object id="1" x="0" y="0">
     <polygon points="0,0 16,0 16,16 0,16"/>
    </object>
   </objectgroup>
  </tile>
  <tile id="138">
   <objectgroup draworder="index" id="2">
    <object id="1" x="0" y="0">
     <polygon points="0,0 16,0 16,16 0,16"/>
    </object>
   </objectgroup>
  </tile>
  <tile id="140">
   <objectgroup draworder="index" id="2">
    <object id="1" x="0" y="0">
     <polygon points="0,0 16,0 16,16 0,16"/>
    </object>
   </objectgroup>
  </tile>
  <tile id="141">
   <objectgroup draworder="index" id="2">
    <object id="1" x="0" y="0">
     <polygon points="0,0 16,0 16,16 0,16"/>
    </object>
   </objectgroup>
  </tile>
  <tile id="142">
   <objectgroup draworder="index" id="2">
    <object id="1" x="0" y="0">
     <polygon points="0,0 16,0 16,16 0,16"/>
    </object>
   </objectgroup>
  </tile>
 </tileset>
 <layer id="1" name="layer" width="30" height="64">
  <data encoding="csv">
4,4,4,4,4,4,4,4,4,4,4,7,54,54,78,76,78,76,78,54,54,2,3,4,4,4,4,4,4,4,
4,4,4,4,4,4,4,4,4,4,5,7,54,54,82,78,82,78,82,54,54,2,8,4,4,4,4,4,4,4,
4,4,4,4,4,4,4,4,4,4,9,128,65,54,54,82,54,82,76,54,129,130,3,4,4,4,4,4,4,4,
4,4,4,4,4,4,4,4,4,4,67,6,7,54,54,76,54,76,78,54,73,62,8,4,4,4,4,4,4,4,
4,4,4,4,4,4,4,4,4,5,40,41,74,54,54,78,76,78,82,54,54,2,11,67,4,4,4,4,4,4,
4,4,4,4,4,4,4,4,4,9,7,123,54,76,54,82,78,82,54,54,54,73,41,62,3,4,4,4,4,4,
4,4,4,4,4,4,4,4,4,5,7,54,54,82,54,54,82,54,76,54,76,54,123,2,8,4,4,4,4,4,
4,4,4,4,4,4,4,4,4,9,128,131,131,131,65,54,125,54,78,76,78,54,54,2,4,4,4,4,4,4,
4,4,4,4,4,4,4,4,4,5,6,6,6,6,128,131,65,54,82,78,82,54,129,130,11,67,3,4,4,4,
4,4,4,4,4,4,4,4,4,9,10,32,10,32,6,10,7,54,54,82,76,54,73,41,41,62,8,4,4,4,
4,4,4,4,4,4,4,4,4,4,4,4,4,5,10,128,65,125,54,76,78,76,54,76,123,2,11,67,3,4,
4,4,4,4,4,4,4,4,4,4,4,4,4,9,5,6,128,65,54,78,82,78,76,78,54,73,41,62,8,4,
4,4,4,4,4,4,4,4,4,4,4,4,4,4,9,10,6,7,54,82,54,82,78,82,76,54,123,2,3,4,
4,4,4,4,4,4,4,4,4,4,4,4,4,4,4,5,10,128,65,54,54,76,82,54,78,54,54,2,8,4,
4,4,4,4,4,4,4,4,4,4,4,4,4,4,4,9,11,40,74,54,76,78,54,76,82,54,54,2,3,4,
4,4,4,4,67,11,67,11,67,11,67,11,67,11,67,11,41,74,54,54,78,82,76,78,54,129,130,6,8,4,
4,4,4,5,40,41,41,41,41,41,41,41,41,41,41,74,54,76,54,54,82,54,78,82,129,130,6,10,4,4,
4,4,4,9,7,123,54,54,54,76,76,123,54,76,54,54,76,78,54,54,54,76,82,54,2,6,10,4,4,4,
4,4,4,5,7,76,76,54,76,78,82,54,76,78,76,54,82,82,76,54,76,78,54,125,2,10,3,4,4,4,
4,4,4,9,7,78,82,54,82,82,125,54,82,82,82,54,125,54,82,54,82,82,54,129,130,4,8,4,4,4,
4,5,67,11,7,82,54,76,54,129,131,131,131,131,131,131,131,131,131,131,131,131,131,130,6,4,4,4,4,4,
4,9,40,41,74,54,76,78,54,2,6,6,6,6,6,6,6,6,6,6,6,6,6,6,10,4,4,4,4,4,
4,4,7,123,54,76,78,82,54,2,10,32,10,32,10,32,10,32,10,32,10,32,10,32,4,4,4,4,4,4,
4,5,7,54,54,78,82,54,129,130,3,4,4,4,4,4,4,4,4,4,4,4,4,4,4,4,4,4,4,4,
4,9,7,54,54,82,76,54,2,6,8,4,4,4,4,4,4,4,4,4,4,4,4,4,4,4,4,4,4,4,
4,4,7,54,54,76,78,54,2,10,4,4,4,4,4,4,4,4,4,4,4,4,4,4,4,4,4,4,4,4,
4,5,7,54,76,78,82,54,2,3,4,4,4,4,4,4,4,4,4,4,4,4,4,4,4,4,4,4,4,4,
4,9,7,54,78,82,54,54,2,8,4,4,4,4,4,4,4,4,4,4,4,4,4,4,4,4,4,4,4,4,
4,5,7,54,82,76,54,54,2,3,4,4,4,4,4,4,4,4,4,4,4,4,4,4,4,4,4,4,4,4,
4,9,7,54,54,78,76,54,2,8,4,4,4,4,4,4,4,4,4,4,4,4,4,4,4,4,4,4,4,4,
4,4,7,54,54,82,78,54,2,4,4,4,4,4,4,4,4,4,4,4,4,4,4,4,4,4,4,4,4,4,
4,5,7,54,54,76,82,54,2,11,67,11,67,4,4,4,4,4,4,4,4,4,4,4,4,4,4,4,4,4,
4,9,7,54,76,78,54,54,73,41,41,41,62,11,67,11,67,11,67,11,4,4,4,4,4,4,4,3,4,4,
4,5,7,54,78,82,54,76,54,76,54,54,73,41,41,41,41,41,62,6,11,67,11,67,11,67,11,8,4,4,
4,9,7,54,82,54,76,78,76,78,76,54,54,123,54,76,54,54,73,41,41,41,41,41,41,41,62,4,4,4,
4,4,7,76,54,54,78,82,78,82,78,54,76,54,76,78,76,54,54,123,54,76,54,123,76,54,2,3,4,4,
4,5,7,82,54,54,82,54,82,54,82,54,82,54,82,82,78,54,76,54,76,78,76,54,82,54,2,8,4,4,
4,9,128,132,132,131,132,132,131,131,131,132,132,130,54,54,82,54,82,54,82,82,78,76,54,129,130,4,4,4,
4,67,10,133,133,10,133,133,10,32,10,133,133,128,132,131,132,131,132,134,54,54,78,78,54,73,62,3,4,4,
5,132,4,133,133,67,133,133,67,11,67,133,133,6,133,6,133,6,133,135,54,136,137,82,54,54,2,8,4,4,
9,133,11,133,133,40,138,138,41,41,41,133,133,6,133,41,138,41,138,139,76,54,82,54,76,54,2,4,4,4,
4,133,40,138,138,74,54,54,54,54,54,138,138,41,139,54,54,54,54,54,137,76,54,136,140,54,2,11,4,4,
11,133,7,54,76,54,54,54,76,54,54,54,54,54,54,54,136,54,136,54,78,78,54,54,82,54,2,6,4,4,
6,133,132,134,140,54,54,76,137,136,54,54,54,54,54,54,54,54,54,54,82,82,54,54,54,54,2,132,3,11,
132,133,133,139,82,54,76,78,82,54,141,132,132,132,132,132,132,132,132,132,132,132,132,132,132,132,132,133,8,132,
132,134,135,54,54,136,140,136,54,54,142,133,133,133,133,133,133,133,133,133,133,133,133,133,133,133,133,133,11,133,
133,135,135,54,54,76,82,54,76,54,142,133,141,132,132,132,132,132,132,132,132,132,132,132,132,132,132,132,132,132,
133,135,135,54,76,78,54,54,78,54,142,133,142,133,133,133,133,133,133,133,133,133,133,133,133,133,133,133,133,133,
133,135,133,134,140,82,54,136,137,54,142,133,142,133,133,133,133,133,133,133,133,133,133,133,133,133,133,133,133,133,
133,135,133,135,82,54,54,54,82,54,142,133,142,133,133,133,133,133,133,133,133,133,133,133,133,133,133,133,133,133,
133,135,133,139,54,54,54,54,54,54,142,133,142,133,133,133,133,133,133,133,133,133,133,133,133,133,133,133,133,133,
133,135,135,54,54,54,54,54,54,54,142,133,142,133,133,133,133,133,133,133,133,133,133,133,133,133,133,133,133,133,
138,139,135,54,54,76,54,54,54,54,142,133,142,133,133,133,133,133,133,133,133,133,133,133,133,133,133,133,133,133,
133,133,139,54,136,137,76,54,141,132,133,133,143,138,138,138,138,138,138,138,138,138,138,138,138,138,138,138,138,138,
133,135,54,54,54,82,140,54,142,133,133,133,133,133,133,133,133,133,133,133,133,133,133,133,133,133,133,133,133,133,
133,133,132,134,54,54,82,54,142,133,133,133,133,133,133,133,133,133,133,133,133,133,133,133,133,133,133,133,133,133,
132,132,134,135,54,54,54,54,143,138,138,138,138,138,138,138,138,138,138,138,138,138,138,138,138,138,138,138,138,138,
133,133,135,135,54,136,54,136,54,136,54,136,54,136,54,136,54,136,54,136,54,136,54,136,54,136,54,136,54,136,
133,133,135,135,54,136,54,136,54,136,54,136,54,136,54,136,54,136,54,136,54,136,54,136,54,136,54,136,54,136,
133,133,135,135,54,136,54,136,54,136,54,136,54,136,54,136,54,136,54,136,54,136,54,136,54,136,54,136,54,136,
133,133,135,135,54,136,54,136,54,136,54,136,54,136,54,141,132,132,132,132,132,132,132,132,132,132,132,132,132,132,
133,133,135,133,132,132,132,132,132,132,132,132,132,132,132,133,133,133,133,133,133,133,133,133,133,133,133,133,133,133,
133,133,133,132,132,132,132,132,132,132,132,132,132,132,132,132,132,132,132,132,132,132,132,132,132,132,132,132,132,132,
133,133,133,133,133,133,133,133,133,133,133,133,133,133,133,133,133,133,133,133,133,133,133,133,133,133,133,133,133,133
</data>
 </layer>
</map>
