<?xml version="1.0" encoding="UTF-8"?>
<map version="1.10" tiledversion="1.11.2" orientation="orthogonal" renderorder="right-down" width="79" height="43" tilewidth="16" tileheight="16" infinite="0" nextlayerid="2" nextobjectid="1">
 <tileset firstgid="1" name="tiles" tilewidth="16" tileheight="16" tilecount="233" columns="16">
  <image source="lr.png" width="256" height="240"/>
  <tile id="132">
   <objectgroup draworder="index" id="2">
    <object id="1" x="0" y="0">
     <polygon points="0,0 16,0 16,16 0,16"/>
    </object>
   </objectgroup>
  </tile>
  <tile id="137">
   <objectgroup draworder="index" id="2">
    <object id="1" x="0" y="0">
     <polygon points="0,0 16,0 16,16 0,16"/>
    </object>
   </objectgroup>
  </tile>
  <tile id="138">
   <objectgroup draworder="index" id="2">
    <object id="1" x="0" y="0">
     <polygon points="0,0 16,0 16,16 0,16"/>
    </object>
   </objectgroup>
  </tile>
  <tile id="142">
   <objectgroup draworder="index" id="2">
    <object id="1" x="0" y="0">
     <polygon points="0,0 16,0 16,16 0,16"/>
    </object>
   </objectgroup>
  </tile>
  <tile id="134">
   <objectgroup draworder="index" id="2">
    <object id="1" x="0" y="0">
     <polygon points="0,0 16,0 16,16 0,16"/>
    </object>
   </objectgroup>
  </tile>
  <tile id="141">
   <objectgroup draworder="index" id="2">
    <object id="1" x="0" y="0">
     <polygon points="0,0 16,0 16,16 0,16"/>
    </object>
   </objectgroup>
  </tile>
  <tile id="140">
   <objectgroup draworder="index" id="2">
    <object id="1" x="0" y="0">
     <polygon points="0,0 16,0 16,16 0,16"/>
    </object>
   </objectgroup>
  </tile>
  <tile id="131">
   <objectgroup draworder="index" id="2">
    <object id="1" x="0" y="0">
     <polygon points="0,0 16,0 16,16 0,16"/>
    </object>
   </objectgroup>
  </tile>
  <tile id="133">
   <objectgroup draworder="index" id="2">
    <object id="1" x="0" y="0">
     <polygon points="0,0 16,0 16,16 0,16"/>
    </object>
   </objectgroup>
  </tile>
 </tileset>
 <layer id="1" name="layer" width="79" height="43">
  <data encoding="csv">
133,133,133,133,133,133,133,133,133,133,133,133,133,133,133,133,133,133,133,133,133,133,133,133,133,133,133,133,133,133,133,138,138,138,138,138,138,138,133,133,133,138,138,138,138,138,138,138,138,133,133,133,133,133,133,133,133,133,133,133,133,133,133,139,133,138,138,138,138,138,138,138,133,143,138,133,133,133,133,
133,133,133,133,133,133,133,133,133,133,133,133,133,138,138,138,138,138,138,138,138,138,138,138,138,138,138,138,138,138,139,133,138,138,138,138,138,133,143,138,139,133,138,138,138,138,138,138,133,143,138,138,138,138,138,138,138,138,138,138,138,133,139,133,139,54,54,54,54,54,54,54,143,138,133,143,133,133,133,
133,133,133,133,133,133,133,133,133,133,133,133,135,133,138,138,138,138,138,138,138,138,138,138,138,138,138,138,138,138,138,139,54,54,54,54,54,143,138,138,138,139,54,54,54,54,54,54,143,138,138,138,138,138,138,138,138,138,138,138,138,135,133,139,54,54,54,54,54,54,54,54,54,54,143,133,143,133,133,
133,133,133,133,133,133,133,133,133,138,138,138,139,135,54,54,54,54,54,54,54,54,54,54,54,54,54,54,54,54,54,54,54,54,54,54,54,54,54,54,54,54,54,54,54,54,54,54,54,54,54,54,54,54,54,54,54,54,54,54,54,139,135,54,54,54,54,54,54,54,54,54,54,54,54,143,133,143,133,
133,133,133,133,133,133,133,133,135,133,138,138,138,139,54,54,54,54,54,54,54,54,54,54,54,54,54,54,54,54,54,54,54,136,54,136,54,54,54,54,54,54,54,136,54,136,54,136,54,54,54,54,54,54,54,54,54,54,54,54,54,138,139,54,54,54,54,54,54,54,54,54,54,54,54,54,143,133,142,
133,133,133,133,133,133,138,138,139,135,54,54,54,54,54,54,54,54,54,54,54,54,54,54,54,54,54,54,54,54,54,54,54,136,54,136,54,54,54,54,54,54,54,136,54,136,54,136,54,54,54,54,54,54,54,54,54,54,54,54,54,54,54,54,54,54,54,54,54,54,54,54,54,54,54,54,54,142,142,
133,133,133,133,133,135,133,138,138,139,54,54,54,54,54,54,54,54,54,54,54,54,54,54,141,132,132,132,132,132,134,54,54,54,54,54,54,141,132,132,132,134,54,54,54,54,54,54,54,141,132,132,132,134,54,54,54,54,54,54,54,54,54,54,54,54,54,54,54,54,54,54,54,54,54,54,54,142,142,
133,133,133,138,138,139,135,54,54,54,54,54,54,54,54,54,54,54,54,141,132,132,132,132,133,141,132,132,132,134,133,132,132,132,132,132,132,133,141,132,134,133,132,132,132,132,132,132,132,133,141,132,134,135,54,54,54,54,54,54,54,54,54,54,54,54,54,54,54,54,54,54,54,54,54,54,54,142,142,
133,133,135,133,138,138,139,54,54,54,54,54,54,54,54,54,54,54,54,142,141,132,132,132,132,133,133,133,133,133,132,132,132,132,132,132,132,132,133,133,133,132,132,132,132,132,132,132,132,132,133,133,135,135,54,136,54,141,132,132,132,132,134,54,54,54,54,54,54,54,54,54,54,54,54,54,54,142,142,
133,133,135,135,54,54,54,54,54,54,54,54,54,54,54,54,54,141,132,133,143,138,138,138,133,133,133,133,133,133,133,133,133,133,133,133,133,133,133,133,133,133,133,133,133,133,133,133,133,133,133,133,135,135,54,144,54,142,141,132,132,134,135,54,54,54,54,54,54,54,54,54,54,54,54,54,141,133,142,
133,133,135,135,54,54,54,54,54,54,54,54,54,54,54,54,54,143,138,138,138,138,138,133,142,133,133,133,133,133,133,133,133,133,133,133,133,133,133,133,133,133,133,133,133,133,133,133,133,133,133,133,135,135,54,136,54,143,132,142,133,135,135,54,54,54,54,54,54,54,54,54,54,54,54,141,133,141,133,
133,133,135,135,54,54,54,54,54,54,54,54,54,54,54,54,54,54,54,54,54,54,54,142,142,133,133,133,133,133,133,133,133,133,133,133,133,133,133,133,133,133,133,133,133,133,133,133,133,133,133,133,139,135,54,144,54,54,142,142,133,135,133,132,132,132,132,132,132,132,132,132,132,132,132,133,141,133,133,
133,133,135,135,54,54,54,54,54,54,54,54,54,54,54,54,54,54,54,54,54,54,54,142,142,133,133,133,133,133,133,133,133,133,133,133,133,133,133,133,133,133,133,133,133,133,133,133,133,133,133,135,133,139,54,136,54,141,133,142,133,133,132,132,132,132,132,132,132,132,132,132,132,132,132,132,133,133,133,
133,133,135,135,54,54,54,54,54,54,54,54,54,54,54,54,54,54,54,54,54,54,54,142,143,133,133,133,133,133,133,133,133,133,133,133,133,133,133,133,133,133,133,133,133,133,133,133,133,133,133,135,135,54,54,144,54,142,133,142,133,133,133,133,133,133,133,133,133,133,133,133,133,133,133,133,133,133,133,
133,133,135,135,54,54,54,54,54,54,54,54,54,54,54,54,54,54,54,54,54,54,54,143,133,142,133,133,133,133,133,133,133,133,133,133,133,133,133,133,133,133,133,133,133,133,133,133,133,133,133,135,135,54,54,136,54,143,133,142,133,133,133,133,133,133,133,133,133,133,133,133,133,133,133,133,133,133,133,
133,133,135,135,54,54,54,54,54,54,141,132,132,132,132,132,134,54,54,54,54,54,54,54,142,142,133,133,133,133,133,133,133,133,133,133,133,133,133,133,133,133,133,133,133,133,133,133,133,133,133,135,133,134,54,144,54,54,142,142,133,133,133,133,133,133,133,133,133,133,133,133,133,133,133,133,133,133,133,
133,133,135,135,54,54,54,54,54,54,142,133,133,133,133,133,139,54,54,54,54,54,54,54,142,142,133,133,133,133,133,133,133,133,133,133,133,133,133,133,133,133,133,133,133,133,133,133,133,133,133,135,133,139,54,136,54,54,142,142,133,133,133,133,133,133,133,133,133,133,133,133,133,133,133,133,133,133,133,
133,133,135,135,54,54,54,54,54,54,142,133,133,133,133,135,54,54,54,54,54,54,54,54,142,142,133,133,133,133,133,133,133,138,138,138,138,138,138,138,138,138,138,138,138,138,138,133,133,133,133,135,135,54,54,144,54,141,133,142,133,133,133,133,133,133,133,133,133,133,133,133,133,133,133,133,133,133,133,
133,133,135,135,54,54,54,54,54,54,142,133,133,133,133,135,54,54,54,54,54,54,54,54,142,143,138,138,138,138,138,138,139,133,138,138,138,138,138,138,138,138,138,138,138,138,133,142,133,133,133,135,135,54,54,136,54,143,133,142,133,133,133,133,133,133,133,133,133,133,133,133,133,133,133,133,133,133,133,
133,133,135,135,54,54,54,54,54,54,142,133,133,133,133,133,134,54,54,54,54,54,54,54,143,138,138,138,138,138,138,138,138,139,54,54,54,54,54,54,54,54,54,54,54,54,142,142,133,133,133,135,133,134,54,144,54,54,142,142,133,133,133,133,133,133,133,133,133,133,133,133,133,133,133,133,133,133,133,
133,133,135,135,54,54,54,54,54,54,143,138,138,138,138,138,139,54,54,54,54,54,54,54,54,54,54,54,54,54,54,54,54,54,54,136,54,136,54,136,54,54,54,136,54,54,142,142,133,133,133,135,133,135,54,136,54,54,142,143,138,138,138,138,133,133,133,133,133,133,133,133,133,133,133,133,133,133,133,
133,133,135,135,54,54,54,54,54,54,54,54,54,54,54,54,54,54,54,54,54,54,54,54,54,54,54,54,54,54,54,54,54,54,54,136,54,136,54,136,54,54,136,144,136,54,142,143,133,133,133,135,133,139,54,144,54,54,143,138,138,138,138,133,142,133,133,133,133,133,133,133,133,133,133,133,133,133,133,
133,133,135,135,54,54,54,54,54,54,54,54,54,54,54,54,54,54,54,54,54,54,54,54,141,132,132,132,132,132,132,132,132,134,54,54,54,54,54,54,54,54,54,136,54,54,143,133,142,133,133,135,135,54,54,54,54,54,54,54,54,54,54,142,142,133,133,133,133,133,133,133,133,133,133,133,133,133,133,
133,133,135,135,54,54,54,54,54,54,54,54,54,54,54,54,54,54,54,54,54,54,54,54,142,141,132,132,132,132,132,132,134,133,132,132,132,132,132,134,54,54,54,54,54,54,54,142,143,133,133,135,135,54,54,136,136,54,136,54,136,54,54,142,142,133,133,133,133,133,133,133,133,133,133,133,133,133,133,
133,133,135,135,54,54,54,54,54,54,54,54,54,54,54,54,54,54,54,54,54,54,54,54,142,142,133,133,133,133,133,133,133,132,132,132,132,132,134,133,134,54,54,54,54,54,54,143,133,143,133,135,135,54,54,136,136,54,136,54,136,54,54,142,142,133,133,133,133,133,133,133,133,133,133,133,133,133,133,
133,133,135,135,54,54,54,54,54,54,54,54,54,54,54,54,54,54,54,54,54,54,54,54,142,142,133,133,133,133,133,133,133,133,133,133,133,133,133,134,133,134,54,54,54,54,54,54,143,133,143,139,135,54,54,54,54,54,54,54,144,54,54,142,142,133,133,133,133,133,133,133,133,133,133,133,133,133,133,
133,133,135,133,132,132,132,132,132,132,132,132,132,132,132,132,132,132,132,132,132,132,132,132,133,142,133,133,133,133,133,133,133,133,133,133,133,133,133,133,134,135,54,54,54,54,54,54,54,142,133,133,133,132,132,132,132,134,54,54,136,54,54,142,142,133,133,133,133,133,133,133,133,133,133,133,133,133,133,
133,133,133,132,132,132,132,132,132,132,132,132,132,132,132,132,132,132,132,132,132,132,132,132,132,133,133,133,133,133,133,133,133,133,133,133,133,133,133,133,135,133,132,134,54,54,54,54,54,143,133,141,132,132,132,132,134,135,54,54,136,54,54,142,142,133,133,133,133,133,133,133,133,133,133,133,133,133,133,
133,133,133,133,133,133,133,133,133,133,133,133,133,133,133,133,133,133,133,133,133,133,133,133,133,133,133,133,133,133,133,133,133,133,133,133,133,133,133,133,133,132,134,133,134,54,54,54,54,54,142,142,133,133,133,133,135,135,54,54,136,54,54,142,142,133,133,133,133,133,133,133,133,133,133,133,133,133,133,
133,133,133,133,133,133,133,133,133,133,133,133,133,133,133,133,133,133,133,133,133,133,133,133,133,133,133,133,133,133,133,133,133,133,133,133,133,133,133,133,133,133,133,134,135,54,54,54,54,54,142,142,133,133,133,133,135,135,54,54,136,54,54,142,142,133,133,133,133,133,133,133,133,133,133,133,133,133,133,
138,138,138,138,138,138,138,138,138,138,133,133,133,133,133,133,133,133,133,133,133,138,138,138,138,138,138,138,138,138,133,133,133,133,133,133,133,133,133,133,133,133,133,139,135,54,54,136,54,54,142,142,133,133,133,133,135,135,54,54,144,54,54,142,142,133,138,138,138,138,138,138,138,138,133,133,133,133,133,
138,138,138,138,138,138,138,138,138,133,143,138,138,138,133,133,133,133,133,133,135,133,138,138,138,138,138,138,138,133,142,133,133,133,133,133,133,133,133,133,133,133,139,133,139,54,136,144,136,54,142,142,133,133,133,133,135,135,54,54,136,54,54,142,142,135,133,138,138,138,138,138,138,133,143,133,133,133,133,
54,54,54,54,54,54,54,54,54,143,138,138,138,133,143,138,138,138,138,138,139,135,54,54,54,54,54,54,54,142,143,138,138,138,138,138,138,138,138,138,138,139,133,139,54,54,54,136,54,54,142,142,133,133,133,133,135,135,54,54,54,54,54,142,143,139,135,54,54,54,54,54,54,143,133,143,133,133,133,
54,144,54,144,54,144,54,144,54,54,54,54,54,143,138,138,138,138,138,138,138,139,54,54,54,54,54,54,54,142,133,133,138,138,138,138,138,138,138,138,138,138,139,54,54,54,54,54,54,54,142,142,133,133,133,133,135,135,54,54,54,54,54,143,138,138,139,54,54,54,54,54,54,54,143,133,143,138,138,
54,136,54,136,54,136,54,136,54,144,54,54,54,54,54,54,54,54,54,54,54,54,54,136,54,136,54,136,54,143,138,139,54,54,54,54,54,54,54,54,54,54,54,54,54,54,54,54,54,54,142,142,133,133,133,133,135,135,54,54,54,54,54,54,54,54,54,144,54,54,54,144,54,54,54,143,138,138,138,
54,136,54,136,54,136,54,136,54,136,54,54,54,54,54,54,144,136,144,54,54,54,54,136,144,136,144,136,54,54,54,54,54,54,54,54,54,54,54,54,54,54,54,54,54,54,54,54,54,54,142,142,133,133,133,133,135,135,136,54,144,54,136,54,54,54,54,54,144,136,144,54,54,54,54,54,54,54,54,
54,136,54,136,54,136,54,136,54,136,54,54,54,54,54,54,144,136,144,54,54,54,54,136,144,136,144,136,54,54,54,54,54,136,54,136,54,136,54,136,54,136,54,136,54,136,54,54,54,141,133,142,133,133,133,133,135,135,144,54,136,54,144,54,54,54,54,144,136,54,136,144,54,54,54,54,54,54,54,
54,136,54,136,54,136,54,136,54,144,54,54,54,54,54,54,54,54,54,54,54,54,54,136,54,136,54,136,54,54,54,54,54,136,54,136,54,136,54,136,54,136,54,136,54,136,54,54,54,142,141,133,133,133,133,133,135,135,136,54,144,54,136,54,54,54,54,54,144,136,144,54,54,54,54,141,132,132,132,
54,136,54,136,54,136,54,136,54,54,54,54,54,141,132,132,132,132,132,132,132,134,54,54,54,54,54,54,54,54,54,54,54,54,54,54,54,54,54,54,54,54,54,54,54,54,54,54,141,133,142,133,133,133,133,133,135,135,144,54,136,54,144,141,132,132,134,144,54,54,54,144,54,54,141,133,141,132,132,
54,144,54,144,54,144,54,144,54,141,132,132,132,133,141,132,132,132,132,132,134,133,132,132,132,132,132,132,132,132,132,132,132,132,132,132,132,132,132,132,132,132,132,132,132,132,132,132,133,141,133,133,133,133,133,133,135,135,136,54,144,54,136,142,141,134,135,54,54,54,54,54,54,141,133,141,133,133,133,
54,54,54,54,54,54,54,54,141,133,141,132,132,132,133,133,133,133,133,133,133,132,132,132,132,132,132,132,132,132,132,132,132,132,132,132,132,132,132,132,132,132,132,132,132,132,132,132,132,133,133,133,133,133,133,133,135,135,144,54,136,54,144,142,142,135,133,132,132,132,132,132,132,133,141,133,133,133,133,
132,132,132,132,132,132,132,132,133,141,133,133,133,133,133,133,133,133,133,133,133,133,133,133,133,133,133,133,133,133,133,133,133,133,133,133,133,133,133,133,133,133,133,133,133,133,133,133,133,133,133,133,133,133,133,133,135,133,132,132,132,132,132,133,142,133,132,132,132,132,132,132,132,132,133,133,133,133,133,
132,132,132,132,132,132,132,132,132,133,133,133,133,133,133,133,133,133,133,133,133,133,133,133,133,133,133,133,133,133,133,133,133,133,133,133,133,133,133,133,133,133,133,133,133,133,133,133,133,133,133,133,133,133,133,133,133,132,132,132,132,132,132,132,133,133,133,133,133,133,133,133,133,133,133,133,133,133,133
</data>
 </layer>
</map>
