<?xml version="1.0" encoding="UTF-8"?>
<map version="1.10" tiledversion="1.11.0" orientation="orthogonal" renderorder="right-down" width="64" height="32" tilewidth="16" tileheight="16" infinite="0" nextlayerid="2" nextobjectid="1">
 <tileset firstgid="1" name="tiles" tilewidth="16" tileheight="16" tilecount="233" columns="16">
  <image source="lr.png" width="256" height="240"/>
  <tile id="3">
   <objectgroup draworder="index" id="2">
    <object id="1" x="0" y="0">
     <polygon points="0,0 16,0 16,16 0,16"/>
    </object>
   </objectgroup>
  </tile>
  <tile id="6">
   <objectgroup draworder="index" id="2">
    <object id="1" x="0" y="0">
     <polygon points="0,0 16,0 16,16 0,16"/>
    </object>
   </objectgroup>
  </tile>
  <tile id="1">
   <objectgroup draworder="index" id="2">
    <object id="1" x="0" y="0">
     <polygon points="0,0 16,0 16,16 0,16"/>
    </object>
   </objectgroup>
  </tile>
  <tile id="10">
   <objectgroup draworder="index" id="2">
    <object id="1" x="0" y="0">
     <polygon points="0,0 16,0 16,16 0,16"/>
    </object>
   </objectgroup>
  </tile>
  <tile id="66">
   <objectgroup draworder="index" id="2">
    <object id="1" x="0" y="0">
     <polygon points="0,0 16,0 16,16 0,16"/>
    </object>
   </objectgroup>
  </tile>
  <tile id="158">
   <objectgroup draworder="index" id="2">
    <object id="1" x="0" y="0">
     <polygon points="0,0 16,0 16,16 0,16"/>
    </object>
   </objectgroup>
  </tile>
  <tile id="4">
   <objectgroup draworder="index" id="2">
    <object id="1" x="0" y="0">
     <polygon points="0,0 16,0 16,16 0,16"/>
    </object>
   </objectgroup>
  </tile>
  <tile id="72">
   <objectgroup draworder="index" id="2">
    <object id="1" x="0" y="0">
     <polygon points="0,0 16,0 16,16 0,16"/>
    </object>
   </objectgroup>
  </tile>
  <tile id="40">
   <objectgroup draworder="index" id="2">
    <object id="1" x="0" y="0">
     <polygon points="0,0 16,0 16,16 0,16"/>
    </object>
   </objectgroup>
  </tile>
  <tile id="61">
   <objectgroup draworder="index" id="2">
    <object id="1" x="0" y="0">
     <polygon points="0,0 16,0 16,16 0,16"/>
    </object>
   </objectgroup>
  </tile>
  <tile id="159">
   <objectgroup draworder="index" id="2">
    <object id="1" x="0" y="0">
     <polygon points="0,0 16,0 16,16 0,16"/>
    </object>
   </objectgroup>
  </tile>
  <tile id="8">
   <objectgroup draworder="index" id="2">
    <object id="1" x="0" y="0">
     <polygon points="0,0 16,0 16,16 0,16"/>
    </object>
   </objectgroup>
  </tile>
  <tile id="2">
   <objectgroup draworder="index" id="2">
    <object id="1" x="0" y="0">
     <polygon points="0,0 16,0 16,16 0,16"/>
    </object>
   </objectgroup>
  </tile>
  <tile id="7">
   <objectgroup draworder="index" id="2">
    <object id="1" x="0" y="0">
     <polygon points="0,0 16,0 16,16 0,16"/>
    </object>
   </objectgroup>
  </tile>
  <tile id="127">
   <objectgroup draworder="index" id="2">
    <object id="1" x="0" y="0">
     <polygon points="0,0 16,0 16,16 0,16"/>
    </object>
   </objectgroup>
  </tile>
  <tile id="64">
   <objectgroup draworder="index" id="2">
    <object id="1" x="0" y="0">
     <polygon points="0,0 16,0 16,16 0,16"/>
    </object>
   </objectgroup>
  </tile>
  <tile id="9">
   <objectgroup draworder="index" id="2">
    <object id="1" x="0" y="0">
     <polygon points="0,0 16,0 16,16 0,16"/>
    </object>
   </objectgroup>
  </tile>
  <tile id="160">
   <objectgroup draworder="index" id="2">
    <object id="1" x="0" y="0">
     <polygon points="0,0 16,0 16,16 0,16"/>
    </object>
   </objectgroup>
  </tile>
  <tile id="128">
   <objectgroup draworder="index" id="2">
    <object id="1" x="0" y="0">
     <polygon points="0,0 16,0 16,16 0,16"/>
    </object>
   </objectgroup>
   <animation>
    <frame tileid="128" duration="100"/>
    <frame tileid="163" duration="100"/>
   </animation>
  </tile>
  <tile id="130">
   <objectgroup draworder="index" id="2">
    <object id="1" x="0" y="0">
     <polygon points="0,0 16,0 16,16 0,16"/>
    </object>
   </objectgroup>
   <animation>
    <frame tileid="130" duration="100"/>
    <frame tileid="164" duration="100"/>
   </animation>
  </tile>
  <tile id="162">
   <objectgroup draworder="index" id="2">
    <object id="1" x="0" y="0">
     <polygon points="0,0 16,0 16,16 0,16"/>
    </object>
   </objectgroup>
   <animation>
    <frame tileid="162" duration="100"/>
    <frame tileid="165" duration="100"/>
   </animation>
  </tile>
  <tile id="166">
   <objectgroup draworder="index" id="2">
    <object id="1" x="0" y="0">
     <polygon points="0,0 16,0 16,16 0,16"/>
    </object>
   </objectgroup>
   <animation>
    <frame tileid="166" duration="100"/>
    <frame tileid="170" duration="100"/>
   </animation>
  </tile>
  <tile id="167">
   <objectgroup draworder="index" id="2">
    <object id="1" x="0" y="0">
     <polygon points="0,0 16,0 16,16 0,16"/>
    </object>
   </objectgroup>
   <animation>
    <frame tileid="167" duration="100"/>
    <frame tileid="171" duration="100"/>
   </animation>
  </tile>
  <tile id="129">
   <objectgroup draworder="index" id="2">
    <object id="1" x="0" y="0">
     <polygon points="0,0 16,0 16,16 0,16"/>
    </object>
   </objectgroup>
   <animation>
    <frame tileid="129" duration="100"/>
    <frame tileid="172" duration="100"/>
   </animation>
  </tile>
  <tile id="5">
   <objectgroup draworder="index" id="2">
    <object id="1" x="0" y="0">
     <polygon points="0,0 16,0 16,16 0,16"/>
    </object>
   </objectgroup>
  </tile>
  <tile id="168">
   <objectgroup draworder="index" id="2">
    <object id="1" x="0" y="0">
     <polygon points="0,0 16,0 16,16 0,16"/>
    </object>
   </objectgroup>
  </tile>
  <tile id="169">
   <objectgroup draworder="index" id="2">
    <object id="1" x="0" y="0">
     <polygon points="0,0 16,0 16,16 0,16"/>
    </object>
   </objectgroup>
  </tile>
  <tile id="31">
   <objectgroup draworder="index" id="2">
    <object id="1" x="0" y="0">
     <polygon points="0,0 16,0 16,16 0,16"/>
    </object>
   </objectgroup>
  </tile>
  <tile id="39">
   <objectgroup draworder="index" id="2">
    <object id="1" x="0" y="0">
     <polygon points="0,0 16,0 16,16 0,16"/>
    </object>
   </objectgroup>
  </tile>
  <tile id="73">
   <objectgroup draworder="index" id="2">
    <object id="1" x="0" y="0">
     <polygon points="0,0 16,0 16,16 0,16"/>
    </object>
   </objectgroup>
  </tile>
 </tileset>
 <layer id="1" name="layer" width="64" height="32">
  <data encoding="csv">
4,4,4,4,4,4,4,4,4,4,4,4,4,4,4,4,4,4,4,4,4,4,4,4,4,4,4,7,54,54,76,54,54,2,11,11,67,4,159,4,4,4,4,4,4,4,4,4,4,4,4,4,4,4,4,4,4,4,4,4,4,4,4,4,
4,4,4,4,4,4,4,4,4,4,4,4,4,4,4,4,4,4,4,4,4,4,4,4,4,4,5,7,54,54,78,54,54,73,41,41,62,11,160,4,4,4,4,4,4,4,4,4,4,4,4,4,4,4,4,4,4,4,4,4,4,4,4,4,
4,4,4,4,4,4,4,4,4,4,4,4,4,4,4,4,4,4,4,4,4,4,4,4,4,4,9,7,54,54,78,54,54,54,123,123,73,41,62,11,67,4,4,4,3,4,4,4,4,4,4,4,4,4,4,4,4,4,4,4,4,4,4,4,
4,4,4,4,4,4,4,4,4,4,4,4,4,4,4,4,4,4,4,4,4,4,4,4,4,4,5,7,125,54,82,54,76,54,54,54,54,54,73,41,62,11,67,11,8,4,4,4,4,4,4,5,4,4,4,4,4,4,4,4,4,4,4,4,
4,4,4,4,4,4,4,4,4,4,4,4,4,4,4,4,4,4,4,4,4,4,4,4,4,4,9,128,65,54,54,54,82,54,54,54,54,54,54,123,73,41,41,62,4,159,4,4,4,4,4,9,159,4,4,3,4,4,4,4,4,4,4,4,
4,4,4,4,4,4,4,4,4,4,4,4,4,4,4,4,4,4,4,4,4,4,4,4,4,4,5,10,7,54,76,54,54,54,76,54,76,54,54,54,54,123,54,73,11,160,11,67,11,67,11,67,160,67,11,8,4,4,4,4,4,4,4,4,
4,4,4,4,4,4,4,4,4,4,4,4,4,4,4,4,4,4,4,4,4,4,4,4,4,4,9,159,7,54,78,54,76,54,78,54,78,54,76,54,76,54,54,73,41,41,41,41,41,41,41,41,41,41,62,3,4,4,4,4,4,4,4,4,
4,4,4,4,4,4,4,4,4,4,4,4,4,4,4,4,4,4,4,4,4,4,4,4,4,4,4,160,7,54,78,54,78,54,78,54,78,54,78,54,78,54,54,54,54,54,123,123,123,123,54,123,54,123,2,8,4,4,4,4,4,4,4,4,
4,4,4,4,4,4,4,4,4,4,4,4,4,4,4,4,4,4,4,4,4,4,4,4,4,4,4,161,7,54,78,54,78,54,78,54,78,54,78,54,78,54,54,54,54,54,54,54,54,54,54,54,54,54,2,3,4,4,4,4,4,4,4,4,
4,4,4,4,4,4,4,4,4,4,4,4,4,4,4,4,4,4,4,4,4,4,4,4,4,4,4,5,7,54,82,54,82,54,82,54,82,54,82,54,82,54,54,54,54,54,54,125,54,162,54,54,54,54,2,8,4,4,4,4,4,4,4,4,
4,4,4,4,4,4,4,4,4,4,4,4,4,4,4,4,4,4,4,4,4,4,4,4,4,4,4,9,7,54,54,54,54,54,54,54,54,54,125,54,54,54,125,54,162,125,129,131,163,167,168,65,54,54,2,4,4,159,4,4,4,4,4,4,
4,4,4,4,4,4,4,4,4,4,4,4,4,4,4,4,4,4,4,4,4,4,4,4,4,4,4,5,7,54,54,54,54,54,54,54,162,129,131,131,163,167,168,131,131,131,130,6,169,160,170,7,54,54,2,11,67,160,67,11,67,11,67,11,
4,4,4,4,4,4,4,4,4,4,4,4,4,4,4,4,4,4,4,4,4,4,4,4,4,4,4,9,7,54,54,54,54,54,54,129,131,130,6,6,169,160,170,6,6,6,6,10,32,161,32,7,54,54,73,41,41,41,41,41,41,41,41,41,
4,4,4,4,4,4,4,4,4,4,4,4,4,4,4,4,4,4,4,4,4,4,4,4,4,4,5,159,7,54,54,54,54,54,54,2,6,10,32,10,32,161,32,10,32,10,32,4,4,4,11,7,54,54,54,54,54,54,54,54,54,54,54,54,
4,4,4,4,4,4,4,4,4,4,4,4,4,4,4,4,4,4,4,4,4,4,4,4,4,4,9,160,7,54,54,54,54,54,54,2,10,4,4,4,4,4,4,4,4,4,4,4,4,11,40,74,54,54,54,76,54,76,54,76,54,76,54,54,
4,4,4,4,4,4,4,4,4,4,4,4,4,4,4,4,4,4,4,4,4,4,4,4,4,4,4,161,7,54,54,54,54,54,54,2,159,4,4,4,4,4,4,4,4,4,4,4,11,40,74,78,54,76,54,78,54,78,54,78,54,78,54,54,
4,4,4,4,4,4,4,4,4,4,4,4,4,4,4,4,4,4,4,4,4,4,4,4,4,4,4,67,7,54,54,54,54,54,54,2,160,3,4,4,4,4,4,4,4,4,11,67,40,74,54,54,54,78,54,78,54,78,54,78,54,78,54,54,
4,4,4,4,4,4,4,4,4,4,4,4,4,4,4,4,4,4,4,4,4,4,4,4,4,4,4,6,7,54,54,54,54,54,54,2,161,8,4,4,4,4,4,4,159,67,6,40,74,54,54,76,54,78,54,82,54,82,54,82,54,82,54,54,
4,4,4,4,4,4,4,4,4,4,4,4,4,4,4,4,4,4,4,4,4,4,4,4,4,11,67,6,7,54,54,54,54,54,54,2,11,4,4,4,4,4,4,11,160,40,41,74,54,76,54,78,54,82,54,54,54,54,54,54,125,125,162,54,
4,4,4,4,4,4,4,4,4,4,3,4,4,4,4,4,4,4,4,4,4,4,4,11,67,40,41,41,74,54,54,54,54,54,54,2,6,4,3,4,4,11,67,40,41,74,54,54,54,78,54,82,54,54,125,125,129,131,163,167,168,131,131,131,
4,4,4,4,4,159,4,4,4,159,8,4,4,4,4,4,4,4,4,4,4,4,159,40,41,74,54,54,54,54,54,54,54,54,54,73,62,159,8,4,11,40,41,74,123,54,54,76,54,82,54,54,54,162,129,131,130,6,169,160,170,6,6,6,
4,4,4,67,11,160,11,67,11,160,11,67,4,4,4,4,4,11,67,11,67,11,160,7,123,123,54,54,54,54,54,54,54,54,54,54,2,160,67,11,40,74,54,54,54,76,54,82,54,54,54,129,163,167,168,130,6,10,32,161,32,10,32,10,
11,67,11,40,41,41,41,41,41,41,41,62,4,4,4,159,67,40,41,41,41,41,41,74,54,54,54,76,54,76,54,76,54,76,54,54,73,41,41,41,74,54,54,76,54,78,54,125,125,129,131,130,169,160,170,10,32,4,4,4,4,4,4,4,
41,41,41,74,54,54,123,123,123,54,54,2,11,67,11,160,6,7,54,123,123,54,54,54,54,76,54,78,54,78,54,78,54,78,54,54,54,54,54,54,54,54,54,78,54,82,54,129,131,130,6,6,32,161,32,4,4,4,4,4,4,4,4,4,
54,123,123,54,54,76,54,76,54,76,54,73,41,41,41,41,41,74,54,76,54,76,54,76,54,78,54,78,54,78,54,78,54,78,54,54,54,54,54,54,54,54,54,82,54,54,129,130,6,6,10,32,3,4,4,4,4,4,4,4,4,4,4,4,
54,76,54,76,54,78,54,78,54,78,54,54,76,54,54,76,54,54,54,78,54,78,54,78,54,78,54,78,54,78,54,78,54,78,54,54,54,54,54,54,54,54,54,54,54,162,2,6,10,32,4,4,8,4,4,4,4,4,4,4,4,4,4,4,
54,82,54,82,54,82,54,82,54,82,54,54,78,54,54,78,54,54,54,82,54,82,54,82,54,82,54,82,54,82,54,82,54,82,54,54,54,54,54,54,54,54,54,54,54,129,130,10,4,4,4,4,4,4,4,4,4,4,4,4,4,4,4,4,
162,54,54,54,125,125,54,162,54,125,54,54,82,54,54,82,54,54,125,125,125,54,54,54,162,54,54,125,54,54,54,54,125,125,162,54,54,54,54,54,54,54,54,125,129,130,6,3,4,4,4,4,4,4,4,4,4,4,4,4,4,4,4,4,
131,163,167,168,131,131,131,131,131,163,167,168,131,131,131,131,131,131,131,163,167,168,131,131,131,131,131,163,167,168,131,131,131,131,131,131,131,163,167,168,131,131,131,131,130,6,10,8,4,4,4,4,4,4,4,4,4,4,4,4,4,4,4,4,
6,169,160,170,6,6,6,6,6,169,160,170,6,6,6,6,6,6,6,169,160,170,6,6,6,6,6,169,160,170,6,6,6,6,6,6,6,169,160,170,6,6,6,6,6,10,3,4,4,4,4,4,4,4,4,4,4,4,4,4,4,4,4,4,
10,32,161,32,10,32,10,32,10,32,161,32,10,32,10,32,10,32,10,32,161,32,10,32,10,32,10,32,161,32,10,32,10,32,10,32,10,32,161,32,10,32,10,32,10,4,8,4,4,4,4,4,4,4,4,4,4,4,4,4,4,4,4,4,
4,4,4,4,4,4,4,4,4,4,4,4,4,4,4,4,4,4,4,4,4,4,4,4,4,4,4,4,4,4,4,4,4,4,4,4,4,4,4,4,4,4,4,4,4,4,4,4,4,4,4,4,4,4,4,4,4,4,4,4,4,4,4,4
</data>
 </layer>
</map>
