<?xml version="1.0" encoding="UTF-8"?>
<map version="1.10" tiledversion="1.11.2" orientation="orthogonal" renderorder="right-down" width="32" height="64" tilewidth="16" tileheight="16" infinite="0" nextlayerid="2" nextobjectid="1">
 <tileset firstgid="1" name="tiles" tilewidth="16" tileheight="16" tilecount="233" columns="16">
  <image source="lr.png" width="256" height="240"/>
  <tile id="5">
   <objectgroup draworder="index" id="2">
    <object id="1" x="0" y="0">
     <polygon points="0,0 16,0 16,16 0,16"/>
    </object>
   </objectgroup>
  </tile>
  <tile id="6">
   <objectgroup draworder="index" id="2">
    <object id="1" x="0" y="0">
     <polygon points="0,0 16,0 16,16 0,16"/>
    </object>
   </objectgroup>
  </tile>
  <tile id="1">
   <objectgroup draworder="index" id="2">
    <object id="1" x="0" y="0">
     <polygon points="0,0 16,0 16,16 0,16"/>
    </object>
   </objectgroup>
  </tile>
  <tile id="173">
   <objectgroup draworder="index" id="2">
    <object id="1" x="0" y="0">
     <polygon points="0,0 16,0 16,16 0,16"/>
    </object>
   </objectgroup>
  </tile>
  <tile id="73">
   <objectgroup draworder="index" id="2">
    <object id="1" x="0" y="0">
     <polygon points="0,0 16,0 16,16 0,16"/>
    </object>
   </objectgroup>
  </tile>
  <tile id="39">
   <objectgroup draworder="index" id="2">
    <object id="1" x="0" y="0">
     <polygon points="0,0 16,0 16,16 0,16"/>
    </object>
   </objectgroup>
  </tile>
  <tile id="40">
   <objectgroup draworder="index" id="2">
    <object id="1" x="0" y="0">
     <polygon points="0,0 16,0 16,16 0,16"/>
    </object>
   </objectgroup>
  </tile>
  <tile id="127">
   <objectgroup draworder="index" id="2">
    <object id="1" x="0" y="0">
     <polygon points="0,0 16,0 16,16 0,16"/>
    </object>
   </objectgroup>
   <animation>
    <frame tileid="127" duration="100"/>
    <frame tileid="177" duration="100"/>
   </animation>
  </tile>
  <tile id="129">
   <objectgroup draworder="index" id="2">
    <object id="1" x="0" y="0">
     <polygon points="0,0 16,0 16,16 0,16"/>
    </object>
   </objectgroup>
   <animation>
    <frame tileid="129" duration="100"/>
    <frame tileid="178" duration="100"/>
   </animation>
  </tile>
  <tile id="9">
   <objectgroup draworder="index" id="2">
    <object id="1" x="0" y="0">
     <polygon points="0,0 16,0 16,16 0,16"/>
    </object>
   </objectgroup>
  </tile>
  <tile id="174">
   <objectgroup draworder="index" id="2">
    <object id="1" x="0" y="0">
     <polygon points="0,0 16,0 16,16 0,16"/>
    </object>
   </objectgroup>
   <animation>
    <frame tileid="174" duration="100"/>
    <frame tileid="179" duration="100"/>
   </animation>
  </tile>
  <tile id="130">
   <objectgroup draworder="index" id="2">
    <object id="1" x="0" y="0">
     <polygon points="0,0 16,0 16,16 0,16"/>
    </object>
   </objectgroup>
   <animation>
    <frame tileid="130" duration="100"/>
    <frame tileid="180" duration="100"/>
   </animation>
  </tile>
  <tile id="10">
   <objectgroup draworder="index" id="2">
    <object id="1" x="0" y="0">
     <polygon points="0,0 16,0 16,16 0,16"/>
    </object>
   </objectgroup>
  </tile>
  <tile id="72">
   <objectgroup draworder="index" id="2">
    <object id="1" x="0" y="0">
     <polygon points="0,0 16,0 16,16 0,16"/>
    </object>
   </objectgroup>
  </tile>
  <tile id="61">
   <objectgroup draworder="index" id="2">
    <object id="1" x="0" y="0">
     <polygon points="0,0 16,0 16,16 0,16"/>
    </object>
   </objectgroup>
  </tile>
  <tile id="175">
   <objectgroup draworder="index" id="2">
    <object id="1" x="0" y="0">
     <polygon points="0,0 16,0 16,16 0,16"/>
    </object>
   </objectgroup>
   <animation>
    <frame tileid="175" duration="100"/>
    <frame tileid="181" duration="100"/>
   </animation>
  </tile>
  <tile id="64">
   <objectgroup draworder="index" id="2">
    <object id="1" x="0" y="0">
     <polygon points="0,0 16,0 16,16 0,16"/>
    </object>
   </objectgroup>
  </tile>
  <tile id="176">
   <objectgroup draworder="index" id="2">
    <object id="1" x="0" y="0">
     <polygon points="0,0 16,0 16,16 0,16"/>
    </object>
   </objectgroup>
   <animation>
    <frame tileid="176" duration="100"/>
    <frame tileid="182" duration="100"/>
   </animation>
  </tile>
  <tile id="128">
   <objectgroup draworder="index" id="2">
    <object id="1" x="0" y="0">
     <polygon points="0,0 16,0 16,16 0,16"/>
    </object>
   </objectgroup>
   <animation>
    <frame tileid="128" duration="100"/>
    <frame tileid="183" duration="100"/>
   </animation>
  </tile>
 </tileset>
 <layer id="1" name="layer" width="32" height="64">
  <data encoding="csv">
6,6,6,6,6,6,6,7,54,54,54,54,54,54,54,54,54,54,54,2,6,6,174,174,174,174,174,174,174,174,174,174,
6,6,6,6,6,6,6,74,54,54,54,54,54,54,54,54,54,54,54,2,6,6,174,174,174,174,174,174,174,174,174,174,
6,6,6,40,41,41,74,54,54,54,54,54,54,54,54,54,54,54,54,2,6,6,174,174,174,174,174,174,174,174,174,174,
6,6,6,7,54,54,54,54,54,54,54,54,54,54,54,54,54,54,128,130,6,6,174,174,174,174,174,174,174,174,174,174,
6,6,6,7,54,54,54,54,54,54,54,54,54,54,54,54,54,54,2,6,6,10,174,174,174,174,174,174,174,174,174,174,
6,6,6,7,54,54,54,54,175,131,131,131,131,131,131,131,131,131,130,6,6,174,174,174,174,174,174,174,174,174,174,174,
6,6,6,7,54,54,54,175,6,6,6,6,10,10,10,10,10,6,6,6,10,174,174,174,174,174,174,174,174,174,174,174,
6,6,6,7,54,54,54,2,6,6,6,6,11,174,174,174,174,10,10,10,174,174,174,174,174,174,174,174,174,174,174,174,
6,6,6,7,54,54,54,73,41,41,41,62,6,11,11,11,174,174,174,174,174,174,174,174,174,174,174,174,174,174,174,174,
6,6,6,7,54,54,54,54,54,54,54,73,41,41,62,6,11,11,174,174,174,174,174,174,174,174,174,174,174,174,174,174,
6,6,6,7,54,54,54,54,54,54,54,54,54,54,73,41,41,62,11,174,174,174,174,174,174,174,174,174,174,174,174,174,
6,6,6,128,130,54,54,54,54,54,54,54,54,54,54,54,54,73,62,11,174,174,174,174,174,174,174,174,174,174,174,174,
6,6,6,6,128,130,54,54,54,54,54,54,54,54,54,54,54,54,73,62,11,11,11,11,11,11,11,174,174,174,174,174,
10,10,6,6,6,128,130,54,54,54,54,54,54,54,54,54,54,54,54,73,62,6,6,6,6,6,6,11,11,11,174,174,
174,174,10,10,6,6,7,54,54,54,54,54,54,54,54,54,54,54,54,54,73,41,41,41,41,41,41,41,62,6,174,174,
174,174,174,174,6,6,128,131,131,131,131,130,54,54,54,54,54,54,54,54,54,54,54,54,54,54,54,54,2,6,174,174,
174,174,174,11,6,6,6,6,6,6,6,128,131,131,131,131,131,130,54,54,54,54,54,54,54,54,54,54,2,6,174,174,
174,174,174,6,6,6,6,6,6,6,6,6,6,6,6,6,6,128,131,131,131,131,131,131,131,130,54,54,2,6,174,174,
174,174,174,6,6,6,6,6,6,6,6,10,10,10,10,10,6,6,6,6,6,6,6,6,6,7,54,54,2,6,174,174,
174,174,11,6,40,41,41,41,41,62,6,11,174,174,174,174,10,10,10,10,10,10,10,10,6,7,54,54,2,6,11,174,
174,174,6,6,7,54,54,54,54,73,62,6,11,174,174,174,174,174,174,174,174,174,174,174,6,7,54,54,2,6,6,174,
174,174,6,6,7,54,54,54,54,54,73,62,6,174,174,174,174,174,174,174,174,174,174,174,6,7,54,54,73,62,6,174,
174,174,6,6,7,54,54,54,54,54,54,2,6,11,174,174,174,174,174,174,174,174,174,174,6,7,54,54,54,176,6,174,
174,174,6,6,7,54,54,54,54,54,54,2,6,6,174,174,174,174,174,174,174,174,174,174,6,7,54,54,54,2,6,174,
174,174,6,6,128,131,131,65,54,54,54,2,6,6,174,174,174,174,174,174,174,174,174,174,6,128,65,54,54,2,6,174,
174,174,6,6,6,6,128,131,65,54,54,2,6,6,174,174,174,174,174,174,174,174,174,174,10,6,7,54,54,2,6,174,
174,11,6,6,6,6,6,6,7,54,54,2,6,6,174,174,174,174,174,174,174,174,174,174,174,6,7,54,54,2,6,174,
11,6,6,6,6,6,6,6,7,54,54,2,6,6,11,11,11,11,11,11,11,11,11,11,11,6,7,54,54,6,6,11,
6,6,6,6,6,6,6,40,74,54,54,73,62,6,6,6,6,6,6,6,6,6,6,6,6,6,7,54,54,2,6,6,
41,41,41,41,41,41,41,74,54,54,54,54,73,41,41,41,41,41,41,41,41,41,41,41,41,41,74,54,54,73,6,6,
54,54,54,54,54,54,54,54,54,54,54,54,54,54,54,54,54,54,54,54,54,54,54,54,54,54,54,54,54,54,2,6,
131,131,65,54,54,54,54,54,54,54,54,54,54,54,54,54,54,54,54,54,54,54,54,54,54,54,54,54,54,54,2,6,
6,6,7,54,54,54,54,54,54,177,54,54,54,54,177,177,54,54,54,54,54,54,177,177,54,54,54,54,54,54,2,6,
6,6,7,54,54,54,54,128,131,131,131,131,131,131,131,131,131,131,131,131,131,131,131,131,131,131,131,131,131,131,130,6,
6,6,7,54,54,54,128,130,6,6,6,6,6,6,6,6,6,6,6,6,6,6,6,6,6,6,6,6,6,6,6,6,
6,40,74,54,54,129,130,6,6,6,6,6,6,6,6,6,6,6,6,6,6,6,6,10,10,10,10,10,10,10,10,10,
6,7,54,54,54,2,6,10,10,6,6,6,6,40,41,41,41,41,62,6,6,6,6,11,11,174,174,174,174,174,174,174,
6,7,54,54,54,2,6,174,174,10,6,6,40,74,54,54,54,54,73,62,6,6,6,6,6,11,174,174,174,174,174,174,
6,7,54,54,54,2,6,174,174,174,6,40,74,54,54,54,54,54,54,73,41,41,41,62,6,6,11,174,174,174,174,174,
6,128,65,54,54,2,6,174,174,174,6,7,54,54,54,54,54,54,54,54,54,54,54,73,41,62,6,11,174,174,174,174,
6,6,7,54,54,2,6,174,174,174,6,7,54,54,129,131,130,54,54,54,54,54,54,54,54,2,6,6,11,11,174,174,
6,6,7,54,54,2,6,11,174,174,6,7,54,54,2,6,128,131,65,54,54,54,54,54,54,73,41,62,6,6,11,11,
6,6,7,54,54,73,62,6,11,11,40,74,54,54,2,6,10,6,6,128,131,131,65,54,54,54,54,73,41,62,6,6,
6,6,7,54,54,54,73,62,6,6,7,54,54,54,2,6,174,10,6,6,6,128,131,65,54,54,54,54,54,2,6,6,
6,6,128,65,54,54,54,73,41,62,7,54,54,54,2,6,11,174,10,6,6,6,6,128,131,65,54,54,54,2,6,6,
6,6,6,7,54,54,54,54,54,73,74,54,54,129,131,130,6,174,174,10,6,6,6,6,128,131,65,54,54,2,6,6,
6,6,6,128,65,54,54,54,54,54,54,54,54,2,6,6,6,174,174,174,10,10,6,6,6,6,7,54,54,2,6,6,
10,6,6,128,131,65,54,54,54,54,54,54,54,2,6,6,6,174,174,174,174,174,10,10,6,6,7,54,54,2,6,6,
174,10,6,6,6,128,131,131,65,54,54,54,54,2,6,10,10,174,174,174,174,174,174,174,6,6,7,54,54,2,6,6,
174,174,10,6,6,6,6,6,128,65,54,54,54,2,6,174,174,174,174,174,174,174,174,174,10,6,7,54,54,2,6,6,
174,174,174,10,10,10,6,6,6,7,54,54,54,2,6,174,174,174,174,174,174,174,174,174,174,6,7,54,54,2,6,6,
174,174,174,174,174,174,6,6,6,7,54,54,54,2,6,11,11,11,11,11,11,11,11,11,11,6,7,54,54,2,6,6,
174,174,174,174,174,174,10,10,6,7,54,54,54,2,6,6,6,6,6,6,6,6,6,6,6,6,7,54,54,2,6,6,
174,174,174,174,174,174,174,174,6,128,65,54,54,2,6,6,40,41,41,41,41,41,41,41,41,41,74,54,54,2,6,6,
174,174,174,174,174,174,174,174,6,6,7,54,54,2,40,41,74,54,54,54,54,54,54,54,54,54,54,54,54,2,6,6,
174,174,174,174,174,174,174,174,6,6,7,54,54,73,74,54,54,54,54,54,54,54,54,54,54,54,54,54,54,2,6,6,
174,174,174,174,174,11,11,11,6,6,7,54,54,54,54,54,54,54,54,128,131,131,131,131,131,131,131,131,131,130,6,6,
174,174,174,174,174,6,6,6,6,40,74,54,54,54,54,54,128,131,131,130,6,6,6,6,6,6,6,6,6,6,6,6,
174,174,174,174,174,6,6,6,40,74,54,54,54,54,54,54,6,6,6,6,6,6,6,6,6,6,6,6,6,10,10,10,
174,174,174,174,11,6,6,40,74,54,54,54,54,54,128,131,130,6,6,6,10,10,10,10,10,10,10,10,10,174,174,174,
174,174,174,174,6,6,40,74,54,54,54,54,129,131,130,6,6,6,6,10,174,174,174,174,174,174,174,174,174,174,174,174,
11,11,11,11,6,6,7,54,54,54,54,54,2,6,6,6,6,10,10,174,174,174,174,174,174,174,174,174,174,174,174,174,
6,6,6,6,6,6,7,54,54,54,54,54,2,6,6,6,10,174,174,174,174,174,174,174,174,174,174,174,174,174,174,174,
6,6,6,6,6,6,7,54,54,54,54,54,2,6,6,6,174,174,174,174,174,174,174,174,174,174,174,174,174,174,174,174
</data>
 </layer>
</map>
