<?xml version="1.0" encoding="UTF-8"?>
<map version="1.10" tiledversion="1.11.2" orientation="orthogonal" renderorder="right-down" width="27" height="24" tilewidth="16" tileheight="16" infinite="0" nextlayerid="4" nextobjectid="1">
 <properties>
  <property name="priority" type="bool" value="true"/>
 </properties>
 <tileset firstgid="1" name="tiles" tilewidth="16" tileheight="16" tilecount="132" columns="12">
  <image source="pv.png" width="192" height="176"/>
  <tile id="1">
   <properties>
    <property name="spikes" type="int" value="2"/>
   </properties>
  </tile>
  <tile id="2">
   <objectgroup draworder="index" id="2">
    <object id="1" x="0" y="0">
     <polygon points="0,0 16,0 16,16 0,16"/>
    </object>
   </objectgroup>
  </tile>
  <tile id="3">
   <objectgroup draworder="index" id="4">
    <object id="4" x="0" y="0">
     <polygon points="0,0 16,0 16,16 0,16"/>
    </object>
   </objectgroup>
  </tile>
  <tile id="4">
   <objectgroup draworder="index" id="2">
    <object id="1" x="0" y="0">
     <polygon points="0,0 16,0 16,16 0,16"/>
    </object>
   </objectgroup>
  </tile>
  <tile id="5">
   <objectgroup draworder="index" id="2">
    <object id="1" x="0" y="0">
     <polygon points="0,0 16,0 16,16 0,16"/>
    </object>
   </objectgroup>
  </tile>
  <tile id="6">
   <properties>
    <property name="spikes" type="int" value="3"/>
   </properties>
  </tile>
  <tile id="8">
   <objectgroup draworder="index" id="2">
    <object id="1" x="0" y="0">
     <polygon points="0,0 16,0 16,16 0,16"/>
    </object>
   </objectgroup>
  </tile>
  <tile id="10">
   <objectgroup draworder="index" id="2">
    <object id="1" x="0" y="0">
     <polygon points="0,0 16,0 16,16 0,16"/>
    </object>
   </objectgroup>
  </tile>
  <tile id="13">
   <objectgroup draworder="index" id="2">
    <object id="1" x="0" y="0">
     <polygon points="0,0 16,0 16,16 0,16"/>
    </object>
   </objectgroup>
  </tile>
  <tile id="14">
   <objectgroup draworder="index" id="2">
    <object id="1" x="0" y="0">
     <polygon points="0,0 16,0 16,16 0,16"/>
    </object>
   </objectgroup>
  </tile>
  <tile id="15">
   <objectgroup draworder="index" id="2">
    <object id="1" x="0" y="0">
     <polygon points="0,0 16,0 16,16 0,16"/>
    </object>
   </objectgroup>
  </tile>
  <tile id="18">
   <objectgroup draworder="index" id="2">
    <object id="1" x="0" y="0">
     <polygon points="0,0 16,0 16,16 0,16"/>
    </object>
   </objectgroup>
  </tile>
  <tile id="19">
   <objectgroup draworder="index" id="2">
    <object id="1" x="0" y="0">
     <polygon points="0,0 16,0 16,16 0,16"/>
    </object>
   </objectgroup>
  </tile>
  <tile id="20">
   <objectgroup draworder="index" id="2">
    <object id="1" x="0" y="0">
     <polygon points="0,0 16,0 16,16 0,16"/>
    </object>
   </objectgroup>
   <animation>
    <frame tileid="20" duration="400"/>
    <frame tileid="30" duration="400"/>
    <frame tileid="20" duration="400"/>
    <frame tileid="84" duration="400"/>
   </animation>
  </tile>
  <tile id="21">
   <objectgroup draworder="index" id="2">
    <object id="1" x="0" y="0">
     <polygon points="0,0 16,0 16,16 0,16"/>
    </object>
   </objectgroup>
  </tile>
  <tile id="22">
   <objectgroup draworder="index" id="2">
    <object id="1" x="0" y="0">
     <polygon points="0,0 16,0 16,16 0,16"/>
    </object>
   </objectgroup>
   <animation>
    <frame tileid="22" duration="400"/>
    <frame tileid="31" duration="400"/>
    <frame tileid="22" duration="400"/>
    <frame tileid="85" duration="400"/>
   </animation>
  </tile>
  <tile id="23">
   <objectgroup draworder="index" id="2">
    <object id="1" x="0" y="0">
     <polygon points="0,0 16,0 16,16 0,16"/>
    </object>
   </objectgroup>
  </tile>
  <tile id="26">
   <objectgroup draworder="index" id="2">
    <object id="1" x="0" y="0">
     <polygon points="0,0 16,0 16,16 0,16"/>
    </object>
   </objectgroup>
  </tile>
  <tile id="28">
   <objectgroup draworder="index" id="2">
    <object id="1" x="0" y="0">
     <polygon points="0,0 16,0 16,16 0,16"/>
    </object>
   </objectgroup>
  </tile>
  <tile id="34">
   <objectgroup draworder="index" id="2">
    <object id="1" x="0" y="0">
     <polygon points="0,0 16,0 16,16 0,16"/>
    </object>
   </objectgroup>
  </tile>
  <tile id="35">
   <objectgroup draworder="index" id="2">
    <object id="1" x="0" y="0">
     <polygon points="0,0 16,0 16,16 0,16"/>
    </object>
   </objectgroup>
  </tile>
  <tile id="38">
   <objectgroup draworder="index" id="2">
    <object id="1" x="0" y="0">
     <polygon points="0,0 16,0 16,16 0,16"/>
    </object>
   </objectgroup>
  </tile>
  <tile id="39">
   <objectgroup draworder="index" id="2">
    <object id="1" x="0" y="0">
     <polygon points="0,0 16,0 16,16 0,16"/>
    </object>
   </objectgroup>
  </tile>
  <tile id="40">
   <objectgroup draworder="index" id="2">
    <object id="1" x="0" y="0">
     <polygon points="0,0 16,0 16,16 0,16"/>
    </object>
   </objectgroup>
  </tile>
  <tile id="41">
   <objectgroup draworder="index" id="2">
    <object id="1" x="0" y="0">
     <polygon points="0,0 16,0 16,16 0,16"/>
    </object>
   </objectgroup>
  </tile>
  <tile id="42">
   <objectgroup draworder="index" id="2">
    <object id="1" x="0" y="0">
     <polygon points="0,0 16,0 16,16 0,16"/>
    </object>
   </objectgroup>
  </tile>
  <tile id="43">
   <objectgroup draworder="index" id="2">
    <object id="1" x="0" y="0">
     <polygon points="0,0 16,0 16,16 0,16"/>
    </object>
   </objectgroup>
  </tile>
  <tile id="44">
   <objectgroup draworder="index" id="2">
    <object id="1" x="0" y="0">
     <polygon points="0,0 16,0 16,16 0,16"/>
    </object>
   </objectgroup>
  </tile>
  <tile id="49">
   <objectgroup draworder="index" id="2">
    <object id="1" x="0" y="0">
     <polygon points="0,0 16,0 16,16 0,16"/>
    </object>
   </objectgroup>
  </tile>
  <tile id="50">
   <objectgroup draworder="index" id="2">
    <object id="1" x="0" y="0">
     <polygon points="0,0 16,0 16,16 0,16"/>
    </object>
   </objectgroup>
   <animation>
    <frame tileid="50" duration="400"/>
    <frame tileid="52" duration="400"/>
    <frame tileid="50" duration="400"/>
    <frame tileid="88" duration="400"/>
   </animation>
  </tile>
  <tile id="51">
   <objectgroup draworder="index" id="2">
    <object id="1" x="0" y="0">
     <polygon points="0,0 16,0 16,16 0,16"/>
    </object>
   </objectgroup>
   <animation>
    <frame tileid="51" duration="400"/>
    <frame tileid="53" duration="400"/>
    <frame tileid="51" duration="400"/>
    <frame tileid="89" duration="400"/>
   </animation>
  </tile>
  <tile id="54">
   <animation>
    <frame tileid="54" duration="400"/>
    <frame tileid="61" duration="400"/>
    <frame tileid="54" duration="400"/>
    <frame tileid="91" duration="400"/>
   </animation>
  </tile>
  <tile id="55">
   <animation>
    <frame tileid="55" duration="400"/>
    <frame tileid="62" duration="400"/>
    <frame tileid="55" duration="400"/>
    <frame tileid="92" duration="400"/>
   </animation>
  </tile>
  <tile id="56">
   <animation>
    <frame tileid="56" duration="400"/>
    <frame tileid="63" duration="400"/>
    <frame tileid="56" duration="400"/>
    <frame tileid="93" duration="400"/>
   </animation>
  </tile>
  <tile id="57">
   <objectgroup draworder="index" id="2">
    <object id="1" x="0" y="0">
     <polygon points="0,0 16,0 16,16 0,16"/>
    </object>
   </objectgroup>
  </tile>
  <tile id="58">
   <animation>
    <frame tileid="58" duration="400"/>
    <frame tileid="64" duration="400"/>
    <frame tileid="58" duration="400"/>
    <frame tileid="94" duration="400"/>
   </animation>
  </tile>
  <tile id="60">
   <properties>
    <property name="spikes" type="int" value="0"/>
   </properties>
  </tile>
  <tile id="65">
   <animation>
    <frame tileid="65" duration="400"/>
    <frame tileid="75" duration="400"/>
    <frame tileid="65" duration="400"/>
    <frame tileid="98" duration="400"/>
   </animation>
  </tile>
  <tile id="66">
   <objectgroup draworder="index" id="2">
    <object id="1" x="0" y="0">
     <polygon points="0,0 16,0 16,16 0,16"/>
    </object>
   </objectgroup>
  </tile>
  <tile id="67">
   <objectgroup draworder="index" id="2">
    <object id="1" x="0" y="0">
     <polygon points="0,0 16,0 16,16 0,16"/>
    </object>
   </objectgroup>
  </tile>
  <tile id="68">
   <animation>
    <frame tileid="68" duration="400"/>
    <frame tileid="76" duration="400"/>
    <frame tileid="68" duration="400"/>
    <frame tileid="99" duration="400"/>
   </animation>
  </tile>
  <tile id="69">
   <animation>
    <frame tileid="69" duration="400"/>
    <frame tileid="77" duration="400"/>
    <frame tileid="69" duration="400"/>
    <frame tileid="100" duration="400"/>
   </animation>
  </tile>
  <tile id="70">
   <objectgroup draworder="index" id="2">
    <object id="1" x="0" y="8">
     <polygon points="0,0 16,0 16,8 0,8"/>
    </object>
   </objectgroup>
  </tile>
  <tile id="71">
   <objectgroup draworder="index" id="2">
    <object id="1" x="0" y="8">
     <polygon points="0,0 16,0 16,8 0,8"/>
    </object>
   </objectgroup>
  </tile>
  <tile id="72">
   <objectgroup draworder="index" id="2">
    <object id="1" x="0" y="0">
     <polygon points="0,0 16,0 16,16 0,16"/>
    </object>
   </objectgroup>
  </tile>
  <tile id="73">
   <objectgroup draworder="index" id="2">
    <object id="1" x="0" y="0">
     <properties>
      <property name="type" type="int" value="2"/>
     </properties>
     <polygon points="0,0 16,0 16,16 0,16"/>
    </object>
   </objectgroup>
   <animation>
    <frame tileid="73" duration="400"/>
    <frame tileid="78" duration="400"/>
    <frame tileid="73" duration="400"/>
    <frame tileid="101" duration="400"/>
   </animation>
  </tile>
  <tile id="74">
   <objectgroup draworder="index" id="2">
    <object id="1" x="0" y="0">
     <polygon points="0,0 16,0 16,16 0,16"/>
    </object>
   </objectgroup>
  </tile>
  <tile id="79">
   <objectgroup draworder="index" id="2">
    <object id="1" x="0" y="0">
     <properties>
      <property name="type" type="int" value="2"/>
     </properties>
     <polygon points="0,0 16,0 16,16 0,16"/>
    </object>
   </objectgroup>
   <animation>
    <frame tileid="79" duration="400"/>
    <frame tileid="82" duration="400"/>
    <frame tileid="79" duration="400"/>
    <frame tileid="103" duration="400"/>
   </animation>
  </tile>
  <tile id="80">
   <objectgroup draworder="index" id="2">
    <object id="1" x="0" y="0">
     <properties>
      <property name="type" type="int" value="2"/>
     </properties>
     <polygon points="0,0 16,0 16,16 0,16"/>
    </object>
   </objectgroup>
   <animation>
    <frame tileid="80" duration="400"/>
    <frame tileid="83" duration="400"/>
    <frame tileid="80" duration="400"/>
    <frame tileid="104" duration="400"/>
   </animation>
  </tile>
  <tile id="81">
   <objectgroup draworder="index" id="3">
    <object id="2" x="0" y="0">
     <properties>
      <property name="type" type="int" value="2"/>
     </properties>
     <polygon points="0,0 16,0 16,16 0,16"/>
    </object>
   </objectgroup>
   <animation>
    <frame tileid="81" duration="400"/>
    <frame tileid="81" duration="400"/>
    <frame tileid="81" duration="400"/>
    <frame tileid="81" duration="400"/>
   </animation>
  </tile>
 </tileset>
 <layer id="1" name="layer0" width="27" height="24">
  <data encoding="csv">
43,43,43,43,43,43,43,43,43,43,27,43,5,43,43,43,43,5,51,44,43,43,43,43,43,43,43,
1,1,1,1,1,1,1,1,1,2,3,4,5,1,1,1,1,5,4,6,7,1,1,1,1,1,1,
8,1,1,1,8,1,8,1,1,1,1,2,9,1,1,1,1,9,7,1,1,1,1,8,1,8,1,
10,1,1,1,10,1,10,1,1,1,1,2,11,1,1,1,1,11,7,1,12,13,1,10,1,10,1,
14,15,14,15,14,15,14,16,1,1,1,1,1,1,12,13,1,1,1,1,17,18,1,19,15,14,15,
20,21,20,22,23,22,20,24,1,8,1,1,1,12,25,26,13,1,1,8,1,1,1,27,21,20,22,
28,28,28,28,28,28,21,29,1,10,1,1,1,30,33,33,34,1,1,10,1,1,1,35,28,28,28,
28,28,28,28,28,28,36,29,1,10,1,1,1,17,37,38,18,1,1,10,1,1,1,27,39,28,28,
28,28,28,28,40,41,42,6,19,16,1,1,1,1,17,18,1,1,1,19,16,1,1,3,44,23,28,
28,28,28,28,28,42,6,1,1,1,1,1,1,1,1,1,1,1,1,1,1,1,1,1,35,45,28,
28,28,28,28,28,29,1,1,1,1,46,47,47,47,47,47,47,48,46,47,47,49,1,1,27,50,51,
28,28,28,28,52,24,1,1,46,55,47,47,47,47,47,47,47,47,47,47,49,1,1,1,35,41,40,
28,28,28,28,36,29,1,46,56,57,47,49,1,1,1,1,1,46,47,47,55,49,1,1,58,44,28,
28,28,28,40,40,42,46,47,59,57,56,47,49,1,1,1,1,1,46,47,57,60,49,1,1,35,28,
28,28,51,42,58,6,1,46,59,57,59,47,47,49,1,1,46,47,47,47,57,49,1,1,1,35,51,
28,28,41,29,1,1,46,56,59,57,59,49,61,61,1,1,61,61,46,47,57,60,49,1,1,27,36,
28,28,21,42,1,1,1,66,66,19,67,16,15,14,15,14,15,14,19,68,16,1,1,19,14,27,44,
28,28,36,29,1,1,1,66,66,6,58,6,1,1,1,1,1,1,3,58,6,1,1,3,35,20,28,
28,28,42,24,19,16,1,66,66,69,1,1,1,1,1,1,1,1,1,1,69,1,1,1,35,70,28,
28,28,28,20,22,29,1,66,66,69,1,1,1,1,71,72,1,1,1,1,69,1,1,1,35,28,28,
28,28,28,28,28,73,74,74,74,74,74,74,74,74,74,74,74,74,74,74,74,74,74,74,75,28,28,
28,28,28,28,28,73,80,80,80,80,80,80,80,80,80,80,80,80,80,80,80,80,80,80,75,28,28,
28,28,28,28,28,73,81,81,81,81,81,81,81,81,81,81,81,81,81,81,81,81,81,81,75,28,28,
28,28,28,28,28,73,82,82,82,82,82,82,82,82,82,82,82,82,82,82,82,82,82,82,75,28,28
</data>
 </layer>
 <layer id="2" name="layer1" width="27" height="24" visible="0">
  <properties>
   <property name="priority" type="bool" value="true"/>
  </properties>
  <data encoding="csv">
1,1,1,1,1,1,1,1,1,1,1,1,1,1,1,1,1,1,91,1,1,1,1,1,1,1,1,
1,1,1,1,1,1,1,1,1,1,1,1,1,1,1,1,1,1,1,1,1,1,1,1,1,1,1,
1,1,1,1,1,1,1,1,1,1,1,1,1,1,1,1,1,1,1,1,1,1,1,1,1,1,1,
1,1,1,1,1,1,1,1,1,1,1,1,1,1,1,1,1,1,1,1,1,1,1,1,1,1,1,
1,1,1,1,1,1,1,1,1,1,1,1,1,1,1,1,1,1,1,1,1,1,1,1,1,1,1,
1,87,1,1,88,1,1,1,1,1,1,1,1,1,1,1,1,1,1,1,1,1,1,1,87,1,1,
1,1,1,1,1,1,87,1,1,1,1,1,1,1,1,1,1,1,1,1,1,1,1,1,1,1,1,
1,1,1,1,1,1,1,1,1,1,1,1,1,1,1,1,1,1,1,1,1,1,1,1,1,1,1,
1,1,1,1,1,1,1,1,1,1,1,1,1,1,1,1,1,1,1,1,1,1,1,1,1,88,1,
1,1,1,1,1,1,1,1,1,1,1,1,1,1,1,1,1,1,1,1,1,1,1,1,1,1,1,
1,1,1,1,1,1,1,1,1,1,1,1,1,1,1,1,1,1,1,1,1,1,1,1,1,1,91,
1,1,1,1,87,1,1,1,1,1,1,1,1,1,1,1,1,1,1,1,1,1,1,1,1,1,1,
1,1,1,1,1,1,1,1,96,97,1,1,1,1,1,1,1,1,1,1,96,1,1,1,1,1,1,
1,1,1,1,1,1,1,1,98,97,96,1,1,1,1,1,1,1,1,1,97,1,1,1,1,1,1,
1,1,91,1,1,1,1,1,98,97,98,1,1,1,1,1,1,1,1,1,97,1,1,1,1,1,91,
1,1,1,1,1,1,1,96,98,97,98,1,1,1,1,1,1,1,1,1,97,1,1,1,1,1,1,
1,1,87,1,1,1,1,98,98,1,1,1,1,1,1,1,1,1,1,1,1,1,1,1,1,1,1,
1,1,1,1,1,1,1,98,98,1,1,1,1,1,1,1,1,1,1,1,1,1,1,1,1,1,1,
1,1,1,1,1,1,1,98,98,97,1,1,1,1,1,1,1,1,1,1,97,1,1,1,1,88,1,
1,1,1,1,1,1,1,98,98,97,1,1,1,1,1,1,1,1,1,1,97,1,1,1,1,1,1,
1,1,1,1,1,1,103,103,103,103,103,103,103,103,103,103,103,103,103,103,103,103,103,103,1,1,1,
1,1,1,1,1,1,106,106,106,106,106,106,106,106,106,106,106,106,106,106,106,106,106,106,1,1,1,
1,1,1,1,1,1,106,106,106,106,106,106,106,106,106,106,106,106,106,106,106,106,106,106,1,1,1,
1,1,1,1,1,1,106,106,106,106,106,106,106,106,106,106,106,106,106,106,106,106,106,106,1,1,1
</data>
 </layer>
</map>
