<?xml version="1.0" encoding="UTF-8"?>
<map version="1.10" tiledversion="1.11.2" orientation="orthogonal" renderorder="right-down" width="59" height="59" tilewidth="16" tileheight="16" infinite="0" nextlayerid="4" nextobjectid="1">
 <tileset firstgid="1" name="tiles" tilewidth="16" tileheight="16" tilecount="132" columns="12">
  <image source="pv.png" width="192" height="176"/>
  <tile id="28">
   <objectgroup draworder="index" id="2">
    <object id="1" x="0" y="0">
     <polygon points="0,0 16,0 16,16 0,16"/>
    </object>
   </objectgroup>
  </tile>
  <tile id="2">
   <objectgroup draworder="index" id="2">
    <object id="1" x="0" y="0">
     <polygon points="0,0 16,0 16,16 0,16"/>
    </object>
   </objectgroup>
  </tile>
  <tile id="43">
   <objectgroup draworder="index" id="2">
    <object id="1" x="0" y="0">
     <polygon points="0,0 16,0 16,16 0,16"/>
    </object>
   </objectgroup>
  </tile>
  <tile id="40">
   <objectgroup draworder="index" id="2">
    <object id="1" x="0" y="0">
     <polygon points="0,0 16,0 16,16 0,16"/>
    </object>
   </objectgroup>
  </tile>
  <tile id="22">
   <objectgroup draworder="index" id="2">
    <object id="1" x="0" y="0">
     <polygon points="0,0 16,0 16,16 0,16"/>
    </object>
   </objectgroup>
   <animation>
    <frame tileid="22" duration="400"/>
    <frame tileid="31" duration="400"/>
    <frame tileid="22" duration="400"/>
    <frame tileid="85" duration="400"/>
   </animation>
  </tile>
  <tile id="20">
   <objectgroup draworder="index" id="2">
    <object id="1" x="0" y="0">
     <polygon points="0,0 16,0 16,16 0,16"/>
    </object>
   </objectgroup>
   <animation>
    <frame tileid="20" duration="400"/>
    <frame tileid="30" duration="400"/>
    <frame tileid="20" duration="400"/>
    <frame tileid="84" duration="400"/>
   </animation>
  </tile>
  <tile id="49">
   <objectgroup draworder="index" id="2">
    <object id="1" x="0" y="0">
     <polygon points="0,0 16,0 16,16 0,16"/>
    </object>
   </objectgroup>
  </tile>
  <tile id="35">
   <objectgroup draworder="index" id="2">
    <object id="1" x="0" y="0">
     <polygon points="0,0 16,0 16,16 0,16"/>
    </object>
   </objectgroup>
  </tile>
  <tile id="41">
   <objectgroup draworder="index" id="2">
    <object id="1" x="0" y="0">
     <polygon points="0,0 16,0 16,16 0,16"/>
    </object>
   </objectgroup>
  </tile>
  <tile id="3">
   <objectgroup draworder="index" id="2">
    <object id="1" x="0" y="0">
     <polygon points="0,0 16,0 16,16 0,16"/>
    </object>
   </objectgroup>
  </tile>
  <tile id="57">
   <objectgroup draworder="index" id="2">
    <object id="1" x="0" y="0">
     <polygon points="0,0 16,0 16,16 0,16"/>
    </object>
   </objectgroup>
  </tile>
  <tile id="34">
   <objectgroup draworder="index" id="2">
    <object id="1" x="0" y="0">
     <polygon points="0,0 16,0 16,16 0,16"/>
    </object>
   </objectgroup>
  </tile>
  <tile id="50">
   <objectgroup draworder="index" id="2">
    <object id="1" x="0" y="0">
     <polygon points="0,0 16,0 16,16 0,16"/>
    </object>
   </objectgroup>
   <animation>
    <frame tileid="50" duration="400"/>
    <frame tileid="52" duration="400"/>
    <frame tileid="50" duration="400"/>
    <frame tileid="88" duration="400"/>
   </animation>
  </tile>
  <tile id="5">
   <objectgroup draworder="index" id="2">
    <object id="1" x="0" y="0">
     <polygon points="0,0 16,0 16,16 0,16"/>
    </object>
   </objectgroup>
  </tile>
  <tile id="39">
   <objectgroup draworder="index" id="2">
    <object id="1" x="0" y="0">
     <polygon points="0,0 16,0 16,16 0,16"/>
    </object>
   </objectgroup>
  </tile>
  <tile id="51">
   <objectgroup draworder="index" id="2">
    <object id="1" x="0" y="0">
     <polygon points="0,0 16,0 16,16 0,16"/>
    </object>
   </objectgroup>
   <animation>
    <frame tileid="51" duration="400"/>
    <frame tileid="53" duration="400"/>
    <frame tileid="51" duration="400"/>
    <frame tileid="89" duration="400"/>
   </animation>
  </tile>
  <tile id="106">
   <objectgroup draworder="index" id="2">
    <object id="1" x="0" y="0">
     <polygon points="0,0 16,0 16,16 0,16"/>
    </object>
   </objectgroup>
  </tile>
  <tile id="107">
   <objectgroup draworder="index" id="2">
    <object id="1" x="0" y="0">
     <polygon points="0,0 16,0 16,16 0,16"/>
    </object>
   </objectgroup>
  </tile>
  <tile id="18">
   <objectgroup draworder="index" id="2">
    <object id="1" x="0" y="0">
     <polygon points="0,0 16,0 16,16 0,16"/>
    </object>
   </objectgroup>
  </tile>
  <tile id="13">
   <objectgroup draworder="index" id="2">
    <object id="1" x="0" y="0">
     <polygon points="0,0 16,0 16,16 0,16"/>
    </object>
   </objectgroup>
  </tile>
  <tile id="14">
   <objectgroup draworder="index" id="2">
    <object id="1" x="0" y="0">
     <polygon points="0,0 16,0 16,16 0,16"/>
    </object>
   </objectgroup>
  </tile>
  <tile id="15">
   <objectgroup draworder="index" id="2">
    <object id="1" x="0" y="0">
     <polygon points="0,0 16,0 16,16 0,16"/>
    </object>
   </objectgroup>
  </tile>
  <tile id="109">
   <objectgroup draworder="index" id="2">
    <object id="1" x="0" y="0">
     <polygon points="0,0 16,0 16,16 0,16"/>
    </object>
   </objectgroup>
  </tile>
  <tile id="60">
   <properties>
    <property name="spikes" type="int" value="0"/>
   </properties>
  </tile>
  <tile id="110">
   <objectgroup draworder="index" id="2">
    <object id="1" x="0" y="0">
     <polygon points="0,0 16,0 16,16 0,16"/>
    </object>
   </objectgroup>
  </tile>
  <tile id="54">
   <animation>
    <frame tileid="54" duration="400"/>
    <frame tileid="61" duration="400"/>
    <frame tileid="54" duration="400"/>
    <frame tileid="91" duration="400"/>
   </animation>
  </tile>
  <tile id="56">
   <animation>
    <frame tileid="56" duration="400"/>
    <frame tileid="63" duration="400"/>
    <frame tileid="56" duration="400"/>
    <frame tileid="93" duration="400"/>
   </animation>
  </tile>
  <tile id="55">
   <animation>
    <frame tileid="55" duration="400"/>
    <frame tileid="62" duration="400"/>
    <frame tileid="55" duration="400"/>
    <frame tileid="92" duration="400"/>
   </animation>
  </tile>
  <tile id="69">
   <objectgroup draworder="index" id="2">
    <object id="1" x="0" y="0">
     <polygon points="0,0 16,0 16,16 0,16"/>
    </object>
   </objectgroup>
   <animation>
    <frame tileid="69" duration="400"/>
    <frame tileid="77" duration="400"/>
    <frame tileid="69" duration="400"/>
    <frame tileid="100" duration="400"/>
   </animation>
  </tile>
  <tile id="21">
   <objectgroup draworder="index" id="2">
    <object id="1" x="0" y="0">
     <polygon points="0,0 16,0 16,16 0,16"/>
    </object>
   </objectgroup>
  </tile>
  <tile id="19">
   <objectgroup draworder="index" id="2">
    <object id="1" x="0" y="0">
     <polygon points="0,0 16,0 16,16 0,16"/>
    </object>
   </objectgroup>
  </tile>
  <tile id="68">
   <animation>
    <frame tileid="68" duration="400"/>
    <frame tileid="76" duration="400"/>
    <frame tileid="68" duration="400"/>
    <frame tileid="99" duration="400"/>
   </animation>
  </tile>
  <tile id="65">
   <animation>
    <frame tileid="65" duration="400"/>
    <frame tileid="75" duration="400"/>
    <frame tileid="65" duration="400"/>
    <frame tileid="98" duration="400"/>
   </animation>
  </tile>
  <tile id="67">
   <objectgroup draworder="index" id="2">
    <object id="1" x="0" y="0">
     <polygon points="0,0 16,0 16,16 0,16"/>
    </object>
   </objectgroup>
  </tile>
  <tile id="26">
   <objectgroup draworder="index" id="2">
    <object id="1" x="0" y="0">
     <polygon points="0,0 16,0 16,16 0,16"/>
    </object>
   </objectgroup>
  </tile>
  <tile id="8">
   <objectgroup draworder="index" id="2">
    <object id="1" x="0" y="0">
     <polygon points="0,0 16,0 16,16 0,16"/>
    </object>
   </objectgroup>
  </tile>
  <tile id="73">
   <objectgroup draworder="index" id="2">
    <object id="1" x="0" y="0">
     <properties>
      <property name="type" type="int" value="2"/>
     </properties>
     <polygon points="0,0 16,0 16,16 0,16"/>
    </object>
   </objectgroup>
   <animation>
    <frame tileid="73" duration="400"/>
    <frame tileid="78" duration="400"/>
    <frame tileid="73" duration="400"/>
    <frame tileid="101" duration="400"/>
   </animation>
  </tile>
  <tile id="74">
   <objectgroup draworder="index" id="2">
    <object id="1" x="0" y="0">
     <polygon points="0,0 16,0 16,16 0,16"/>
    </object>
   </objectgroup>
  </tile>
  <tile id="72">
   <objectgroup draworder="index" id="2">
    <object id="1" x="0" y="0">
     <polygon points="0,0 16,0 16,16 0,16"/>
    </object>
   </objectgroup>
  </tile>
  <tile id="79">
   <objectgroup draworder="index" id="2">
    <object id="1" x="0" y="0">
     <properties>
      <property name="type" type="int" value="2"/>
     </properties>
     <polygon points="0,0 16,0 16,16 0,16"/>
    </object>
   </objectgroup>
   <animation>
    <frame tileid="79" duration="400"/>
    <frame tileid="82" duration="400"/>
    <frame tileid="79" duration="400"/>
    <frame tileid="103" duration="400"/>
   </animation>
  </tile>
  <tile id="23">
   <objectgroup draworder="index" id="2">
    <object id="1" x="0" y="0">
     <polygon points="0,0 16,0 16,16 0,16"/>
    </object>
   </objectgroup>
  </tile>
  <tile id="80">
   <objectgroup draworder="index" id="2">
    <object id="1" x="0" y="0">
     <properties>
      <property name="type" type="int" value="2"/>
     </properties>
     <polygon points="0,0 16,0 16,16 0,16"/>
    </object>
   </objectgroup>
   <animation>
    <frame tileid="80" duration="400"/>
    <frame tileid="83" duration="400"/>
    <frame tileid="80" duration="400"/>
    <frame tileid="104" duration="400"/>
   </animation>
  </tile>
  <tile id="81">
   <objectgroup draworder="index" id="2">
    <object id="1" x="0" y="0">
     <properties>
      <property name="type" type="int" value="2"/>
     </properties>
     <polygon points="0,0 16,0 16,16 0,16"/>
    </object>
   </objectgroup>
   <animation>
    <frame tileid="81" duration="400"/>
    <frame tileid="81" duration="400"/>
    <frame tileid="81" duration="400"/>
    <frame tileid="81" duration="400"/>
   </animation>
  </tile>
  <tile id="112">
   <objectgroup draworder="index" id="2">
    <object id="1" x="0" y="0">
     <polygon points="0,0 16,0 16,16 0,16"/>
    </object>
   </objectgroup>
   <animation>
    <frame tileid="112" duration="400"/>
    <frame tileid="116" duration="400"/>
    <frame tileid="112" duration="400"/>
    <frame tileid="127" duration="400"/>
   </animation>
  </tile>
  <tile id="113">
   <objectgroup draworder="index" id="2">
    <object id="1" x="0" y="0">
     <polygon points="0,0 16,0 16,16 0,16"/>
    </object>
   </objectgroup>
   <animation>
    <frame tileid="113" duration="400"/>
    <frame tileid="117" duration="400"/>
    <frame tileid="113" duration="400"/>
    <frame tileid="128" duration="400"/>
   </animation>
  </tile>
  <tile id="114">
   <objectgroup draworder="index" id="2">
    <object id="1" x="0" y="0">
     <polygon points="0,0 16,0 16,16 0,16"/>
    </object>
   </objectgroup>
  </tile>
  <tile id="10">
   <objectgroup draworder="index" id="2">
    <object id="1" x="0" y="0">
     <polygon points="0,0 16,0 16,16 0,16"/>
    </object>
   </objectgroup>
  </tile>
  <tile id="38">
   <objectgroup draworder="index" id="2">
    <object id="1" x="0" y="0">
     <polygon points="0,0 16,0 16,16 0,16"/>
    </object>
   </objectgroup>
  </tile>
  <tile id="66">
   <objectgroup draworder="index" id="2">
    <object id="1" x="0" y="0">
     <polygon points="0,0 16,0 16,16 0,16"/>
    </object>
   </objectgroup>
  </tile>
  <tile id="118">
   <objectgroup draworder="index" id="2">
    <object id="1" x="0" y="0">
     <polygon points="0,0 16,0 16,16 0,16"/>
    </object>
   </objectgroup>
  </tile>
  <tile id="119">
   <objectgroup draworder="index" id="2">
    <object id="1" x="0" y="0">
     <polygon points="0,0 16,0 16,16 0,16"/>
    </object>
   </objectgroup>
   <animation>
    <frame tileid="119" duration="400"/>
    <frame tileid="124" duration="400"/>
    <frame tileid="119" duration="400"/>
    <frame tileid="130" duration="400"/>
   </animation>
  </tile>
  <tile id="120">
   <objectgroup draworder="index" id="2">
    <object id="1" x="0" y="0">
     <polygon points="0,0 16,0 16,16 0,16"/>
    </object>
   </objectgroup>
   <animation>
    <frame tileid="120" duration="400"/>
    <frame tileid="125" duration="400"/>
    <frame tileid="120" duration="400"/>
    <frame tileid="131" duration="400"/>
   </animation>
  </tile>
  <tile id="121">
   <objectgroup draworder="index" id="2">
    <object id="1" x="0" y="0">
     <polygon points="0,0 16,0 16,16 0,16"/>
    </object>
   </objectgroup>
  </tile>
  <tile id="44">
   <objectgroup draworder="index" id="2">
    <object id="1" x="0" y="0">
     <polygon points="0,0 16,0 16,16 0,16"/>
    </object>
   </objectgroup>
  </tile>
  <tile id="58">
   <animation>
    <frame tileid="58" duration="400"/>
    <frame tileid="64" duration="400"/>
    <frame tileid="58" duration="400"/>
    <frame tileid="94" duration="400"/>
   </animation>
  </tile>
  <tile id="122">
   <objectgroup draworder="index" id="2">
    <object id="1" x="0" y="0">
     <polygon points="0,0 16,0 16,16 0,16"/>
    </object>
   </objectgroup>
  </tile>
  <tile id="123">
   <objectgroup draworder="index" id="2">
    <object id="1" x="0" y="0">
     <polygon points="0,0 16,0 16,16 0,16"/>
    </object>
   </objectgroup>
  </tile>
 </tileset>
 <layer id="1" name="layer0" width="59" height="59">
  <data encoding="csv">
28,28,29,1,1,1,1,1,1,1,1,1,1,3,44,41,23,41,21,50,28,36,41,21,50,41,42,4,58,4,58,4,58,4,58,4,58,4,58,35,28,28,28,28,28,28,28,28,28,28,28,28,28,28,28,28,28,28,28,
28,28,29,1,1,1,1,1,1,1,1,1,1,1,3,4,58,4,58,44,51,42,4,44,42,4,6,33,33,33,33,33,33,33,33,33,33,33,33,35,41,23,41,40,41,40,23,41,40,21,40,41,36,51,28,28,28,28,28,
28,52,29,1,1,1,1,107,108,1,1,1,1,1,1,30,33,33,33,3,4,6,33,3,6,33,33,33,19,14,15,14,15,14,15,14,15,16,109,3,58,4,58,58,58,4,58,4,58,4,58,4,44,36,28,28,28,28,28,
28,28,29,1,1,1,1,107,108,1,1,1,1,1,19,15,14,16,33,33,33,33,33,33,33,33,19,15,110,6,1,1,1,1,1,1,1,1,1,1,1,1,1,1,1,1,1,1,1,1,1,1,3,44,28,28,28,28,28,
28,28,29,61,61,1,51,107,108,51,1,61,61,19,6,1,1,3,4,58,4,58,4,58,4,58,111,6,1,1,1,46,47,49,1,1,1,1,1,1,1,1,1,1,1,1,1,46,55,47,49,1,1,35,28,28,28,28,28,
28,42,110,15,14,15,14,15,14,15,14,15,14,6,1,1,1,1,1,1,1,1,1,1,1,1,1,1,1,1,1,46,47,55,49,1,1,1,1,1,1,46,55,47,47,47,47,47,57,56,56,49,1,35,70,28,28,28,28,
28,28,52,22,20,21,20,22,29,4,4,4,6,1,1,1,1,1,1,1,1,1,1,1,1,1,1,1,1,1,1,1,46,57,56,47,49,1,1,1,46,47,57,47,49,1,1,1,69,66,66,1,19,111,36,28,28,28,28,
28,28,28,41,21,41,51,41,29,1,1,1,1,1,1,1,1,1,1,1,1,1,1,1,1,1,1,1,1,1,1,1,1,69,66,1,1,1,1,1,1,1,69,1,1,1,1,68,69,66,66,1,27,20,112,28,28,28,28,
28,28,51,42,4,6,4,4,6,1,1,1,1,1,1,1,1,1,1,1,1,1,1,1,1,1,1,1,8,1,1,68,1,69,66,1,68,1,1,1,46,56,57,49,1,1,19,9,74,74,74,74,75,28,28,28,28,28,28,
28,51,42,6,1,1,1,1,1,1,1,1,1,1,1,1,1,1,1,1,1,1,1,1,1,1,1,1,10,1,19,111,74,74,74,74,110,16,1,1,1,66,69,1,1,19,27,73,80,80,80,80,75,28,28,28,28,28,28,
28,29,6,1,1,1,1,1,12,13,1,12,13,1,12,13,1,1,1,12,13,1,1,12,13,1,1,1,10,19,27,73,80,80,80,80,75,24,15,68,16,66,69,1,19,27,111,73,81,81,81,81,75,28,28,28,28,28,28,
28,29,1,1,1,1,1,1,17,18,1,17,18,1,17,18,1,1,1,17,18,1,1,17,18,1,1,19,14,27,110,73,81,81,81,82,75,111,22,111,73,74,74,74,75,111,52,73,82,82,82,82,75,28,28,28,28,28,28,
28,29,1,1,8,1,1,1,1,1,1,1,1,1,1,1,1,1,1,1,1,1,1,1,1,1,1,27,70,110,50,73,82,82,82,82,14,51,28,52,73,80,80,80,75,51,42,110,113,114,113,114,115,36,28,28,28,28,28,
28,24,16,1,10,1,1,1,1,1,1,1,1,1,1,1,1,1,1,1,1,1,1,1,1,1,1,35,28,20,42,24,113,114,113,114,27,36,28,42,73,81,81,81,75,112,28,20,22,20,22,20,22,112,28,28,28,28,28,
28,21,16,1,10,1,1,1,1,1,1,1,1,1,1,1,1,1,1,1,1,1,1,1,1,1,1,35,28,28,28,20,22,20,22,20,22,112,28,50,24,114,113,114,27,36,28,28,28,28,28,28,28,28,28,28,28,28,28,
28,28,24,15,14,16,1,1,1,1,1,1,1,1,1,1,1,1,1,1,1,1,1,1,1,1,1,35,23,28,28,28,28,28,28,28,28,28,28,42,110,20,22,20,22,112,28,28,28,28,28,28,28,28,28,28,28,28,28,
28,28,28,22,20,24,1,1,12,116,13,1,1,1,1,1,1,1,1,1,1,1,1,1,1,1,1,35,28,28,28,28,28,28,28,28,28,28,28,28,28,28,28,28,28,28,28,28,28,28,28,28,28,28,28,28,28,28,28,
28,28,28,28,52,29,1,1,17,109,18,1,1,12,116,13,1,1,1,1,1,1,1,1,1,1,1,35,51,41,21,41,40,23,40,41,21,41,40,23,40,41,21,41,40,23,40,41,21,41,40,23,40,41,28,28,28,28,28,
28,28,28,28,28,24,1,1,1,1,1,1,1,17,109,18,1,1,12,116,13,1,1,1,1,1,1,3,4,4,58,4,58,4,58,4,58,4,58,4,58,4,58,4,58,4,58,4,58,4,58,4,58,44,51,28,28,28,28,
28,28,28,28,28,29,1,1,1,1,1,1,1,1,1,1,1,1,17,109,18,1,1,12,116,13,1,1,1,1,11,1,1,1,1,1,1,11,1,1,1,1,1,1,11,1,1,1,1,1,1,1,1,35,28,28,28,28,28,
28,28,28,28,21,24,1,1,1,1,1,1,1,1,1,1,1,1,1,1,1,107,108,17,109,18,1,8,1,1,1,1,1,1,8,1,1,1,1,1,1,8,1,1,1,1,1,8,1,1,1,1,1,27,28,28,28,28,28,
28,28,28,28,28,29,1,1,1,1,1,1,1,1,1,1,1,1,1,1,1,1,1,1,1,1,1,10,1,1,1,1,1,1,10,1,1,1,1,1,1,10,1,1,1,1,1,10,1,1,1,1,1,35,23,28,28,28,28,
28,28,28,28,28,24,1,1,1,1,1,1,1,1,1,1,1,1,1,1,1,1,1,1,1,19,15,14,15,14,15,14,15,14,15,14,15,14,15,14,15,14,15,14,15,14,15,16,1,1,1,1,1,3,44,39,28,28,28,
28,28,28,28,52,29,1,1,1,1,1,1,1,1,1,1,1,1,1,1,1,1,1,1,1,1,27,21,22,20,23,22,23,22,23,22,23,22,23,22,22,23,22,23,22,20,42,6,1,1,1,1,1,1,3,44,28,28,28,
28,28,28,28,28,24,1,1,1,1,1,1,1,1,1,12,116,13,1,1,1,1,1,1,1,1,27,40,41,40,41,40,41,40,41,40,41,40,41,40,41,40,41,40,41,40,24,1,1,1,12,13,1,1,1,27,28,28,28,
28,28,28,28,21,24,1,1,1,1,1,1,1,1,1,30,33,34,1,1,1,1,1,1,1,1,3,4,58,4,58,4,58,4,58,4,58,4,58,4,58,4,58,4,58,4,6,1,1,1,17,18,1,1,1,27,70,28,28,
28,28,28,28,29,6,1,1,1,1,1,1,1,1,1,17,109,18,1,1,1,1,1,1,1,1,1,1,1,1,1,1,1,1,1,1,1,1,1,1,1,1,1,1,1,1,1,1,1,1,19,16,1,1,1,27,39,28,28,
28,28,28,28,29,1,1,1,1,1,1,1,1,1,67,1,1,1,67,1,1,1,1,1,1,1,8,1,1,12,13,1,1,1,1,12,13,1,1,1,1,12,13,1,1,1,1,1,1,1,12,13,1,1,1,27,70,28,28,
28,28,28,28,29,1,1,1,1,12,116,13,1,1,9,74,74,74,9,1,1,12,116,13,1,1,10,1,1,17,18,1,1,1,1,17,18,1,1,1,1,17,18,1,1,1,1,1,1,1,17,18,1,1,1,35,36,28,28,
28,28,28,28,24,16,1,1,1,30,33,34,1,19,110,80,80,80,111,16,1,30,33,34,1,1,19,14,15,119,119,19,15,15,16,119,119,19,14,15,16,119,119,19,14,15,16,1,1,1,1,1,1,1,19,27,44,28,28,
28,28,28,28,51,29,8,1,1,17,109,18,1,120,73,81,81,81,75,121,1,17,109,18,1,1,35,23,21,122,122,23,21,22,21,122,122,23,22,21,22,122,122,23,20,21,24,16,74,74,74,74,74,19,27,36,28,28,28,
28,28,28,28,36,24,10,1,1,1,14,1,1,35,73,82,82,82,75,29,1,1,14,1,1,1,35,110,45,28,28,28,28,28,28,28,28,28,28,28,28,28,28,28,28,28,36,73,80,80,80,80,80,75,110,45,28,28,28,
28,28,28,28,42,24,16,1,1,1,1,1,1,3,111,113,114,113,110,6,1,1,1,1,1,1,3,35,50,70,28,28,28,28,28,28,28,28,28,28,28,28,28,28,28,28,36,73,81,81,81,81,81,75,41,51,28,28,28,
28,28,28,28,28,42,24,16,1,1,1,1,1,1,3,4,58,4,6,1,1,1,1,1,1,1,1,3,35,36,28,28,28,28,28,28,28,28,28,28,28,28,28,36,40,51,42,24,113,114,113,114,113,27,51,41,39,28,28,
28,28,28,28,28,51,42,24,16,1,1,1,1,1,1,1,1,1,1,1,1,1,1,1,1,1,1,1,35,51,40,41,40,41,40,41,40,41,40,41,40,41,52,42,58,4,58,4,58,4,58,4,58,4,58,4,44,28,28,
28,28,28,28,28,28,36,20,29,1,1,12,13,1,1,12,13,1,1,12,13,1,1,12,13,1,12,13,3,4,58,4,58,4,58,4,58,4,58,4,58,4,58,6,1,1,1,1,1,1,1,1,1,1,1,1,27,36,28,
28,28,28,28,28,28,112,42,24,16,8,17,18,1,1,17,18,1,1,17,18,1,1,17,18,1,17,18,1,12,13,1,1,1,1,1,1,1,1,1,1,12,13,1,1,1,1,1,12,116,116,13,1,1,1,1,3,35,28,
28,28,28,28,28,28,28,52,20,29,10,1,1,1,1,1,1,1,1,1,1,1,1,1,1,1,1,8,1,30,34,1,1,1,1,1,1,1,1,1,1,30,34,1,1,8,1,1,17,109,109,18,1,1,1,1,1,35,36,
28,28,28,28,28,28,28,112,42,24,16,1,1,1,1,1,1,1,1,1,1,1,1,1,1,1,1,10,1,17,18,1,1,1,1,1,1,1,1,1,1,17,18,1,1,10,1,1,1,1,1,1,1,1,1,1,16,27,28,
28,28,28,28,28,28,28,28,52,20,29,1,1,1,1,1,1,1,1,1,1,1,1,1,1,1,19,19,15,14,15,14,15,14,15,14,15,14,15,14,15,14,15,16,1,10,1,1,1,19,16,1,1,1,1,1,27,36,28,
28,28,28,28,28,28,28,28,42,42,24,16,1,1,15,14,12,13,1,1,12,13,15,14,1,1,1,1,27,22,20,29,58,4,4,58,44,23,22,21,22,20,42,24,14,16,1,1,12,116,116,13,1,1,1,19,27,36,28,
28,28,28,28,28,28,28,28,52,52,42,6,1,1,1,1,17,18,1,1,17,18,1,1,46,47,56,49,35,70,28,29,1,1,1,1,35,36,28,28,28,28,28,22,51,24,1,1,17,109,109,18,1,1,1,35,20,23,28,
28,28,28,28,28,28,28,51,110,42,29,1,46,47,55,49,1,1,1,1,1,1,46,47,56,49,66,1,35,36,39,29,1,1,1,1,35,28,28,28,28,28,28,28,42,24,16,1,1,1,1,1,1,19,15,27,36,28,28,
28,28,28,28,28,28,28,28,36,29,6,46,56,47,57,49,1,1,1,1,1,1,1,1,66,1,66,1,35,51,45,29,1,1,1,1,35,28,28,28,28,28,28,28,28,52,24,1,1,1,1,1,1,27,22,20,112,28,28,
28,28,28,28,28,28,28,28,112,29,1,1,66,1,69,56,49,1,1,1,1,1,46,56,59,49,66,1,35,70,50,29,1,19,14,15,27,36,28,28,28,28,28,28,28,112,29,1,1,1,1,1,1,35,51,28,28,28,28,
28,28,28,28,28,28,28,28,36,24,1,1,66,1,69,66,19,16,1,1,19,16,1,66,66,1,66,1,35,36,41,29,33,35,22,20,22,20,28,28,28,28,28,28,28,28,24,1,1,1,1,1,1,27,28,28,28,28,28,
28,28,28,28,28,28,28,28,112,24,74,74,74,74,74,80,35,29,1,1,35,29,74,74,74,74,74,74,75,112,51,29,33,35,36,28,28,28,28,28,28,28,28,28,28,21,29,1,1,1,1,1,1,27,28,28,28,28,28,
28,28,28,28,28,28,28,28,36,73,80,80,80,80,80,80,75,29,33,33,35,73,80,80,80,80,80,80,75,70,28,29,33,35,28,28,28,28,28,28,28,28,28,28,28,28,24,1,1,1,1,1,1,35,23,28,28,28,28,
28,28,28,28,28,28,28,28,112,73,81,81,81,81,81,81,75,29,33,33,35,73,81,81,81,81,81,81,75,36,50,29,33,35,36,28,28,28,28,40,23,40,41,21,41,40,29,1,1,1,1,1,1,27,28,28,28,28,28,
28,28,28,28,28,28,28,28,36,73,81,81,81,81,81,81,75,29,33,33,35,73,81,81,81,81,81,81,75,41,40,29,33,35,28,28,28,28,39,42,4,58,4,58,4,58,6,1,1,1,1,1,1,35,28,28,28,28,28,
28,28,28,28,28,28,28,28,112,73,81,81,81,81,81,81,75,29,33,33,3,4,4,4,4,4,4,4,4,6,6,6,33,35,52,28,28,28,51,29,1,1,1,1,1,1,1,1,1,1,1,1,1,27,70,28,28,28,28,
28,28,28,28,28,28,28,28,36,73,81,81,81,81,81,81,75,29,33,33,33,33,33,33,33,33,33,33,33,33,33,33,33,35,28,28,28,42,110,123,1,1,1,1,1,1,1,12,13,1,1,12,13,35,28,28,28,28,28,
28,28,28,28,28,28,28,28,112,73,81,81,81,81,81,81,75,29,33,33,19,16,15,14,15,14,15,14,15,14,15,14,15,35,70,28,28,52,124,1,1,1,1,8,1,8,1,17,18,1,1,17,18,35,28,28,28,28,28,
28,28,28,28,28,28,28,28,36,73,81,81,81,81,81,81,75,29,33,33,35,29,81,81,81,81,81,81,35,22,20,22,20,22,20,28,28,51,124,1,1,1,1,10,1,10,1,19,16,1,1,19,15,111,44,28,28,28,28,
28,28,28,28,28,28,28,28,112,73,81,81,81,81,81,81,75,29,33,33,27,73,81,81,81,81,81,81,75,36,28,28,28,28,28,28,28,52,124,1,1,1,1,10,1,10,1,27,24,1,1,27,22,20,28,28,28,28,28,
28,28,28,28,28,28,28,28,36,73,81,81,81,81,81,81,75,29,33,33,35,73,81,81,81,81,81,81,75,112,28,28,28,28,28,28,28,42,24,15,14,15,14,15,14,15,14,27,73,74,74,75,51,28,28,28,28,28,28,
28,28,28,28,28,28,28,28,112,73,81,81,81,81,81,81,75,29,33,33,35,73,81,81,81,81,81,81,75,36,28,28,28,28,28,28,28,28,28,22,20,21,20,22,23,22,20,51,73,80,80,75,28,28,28,28,28,28,28,
28,28,28,28,28,28,28,28,36,73,81,81,81,81,81,81,75,29,33,33,35,73,81,81,81,81,81,81,75,112,28,28,28,28,28,28,28,28,28,28,28,28,28,28,28,28,28,36,73,81,81,75,36,28,28,28,28,28,28,
28,28,28,28,28,28,28,28,112,73,82,82,82,82,82,82,75,29,33,33,35,73,82,82,82,82,82,82,75,36,28,28,28,28,28,28,28,28,28,28,28,28,28,28,28,28,28,42,110,113,113,111,44,28,28,28,28,28,28
</data>
 </layer>
 <layer id="3" name="layer1" width="59" height="59">
  <properties>
   <property name="priority" type="bool" value="true"/>
  </properties>
  <data encoding="csv">
0,0,0,0,0,0,0,0,0,0,0,0,0,0,0,0,0,0,0,0,0,0,0,0,0,0,0,0,0,0,0,0,0,0,0,0,0,0,0,0,0,0,0,0,0,0,0,0,0,0,0,0,0,0,0,0,0,0,0,
0,0,0,0,0,0,0,0,0,0,0,0,0,0,0,0,0,0,0,0,0,0,0,0,0,0,0,0,0,0,0,0,0,0,0,0,0,0,0,0,0,0,0,0,0,0,0,0,0,0,0,0,0,0,0,0,0,0,0,
0,0,0,0,0,0,0,0,0,0,0,0,0,0,0,0,0,0,0,0,0,0,0,0,0,0,0,0,0,0,0,0,0,0,0,0,0,0,0,0,0,0,0,0,0,0,0,0,0,0,0,0,0,0,0,0,0,0,0,
0,0,0,0,0,0,0,0,0,0,0,0,0,0,0,0,0,0,0,0,0,0,0,0,0,0,0,0,0,0,0,0,0,0,0,0,0,0,0,0,0,0,0,0,0,0,0,0,0,0,0,0,0,0,0,0,0,0,0,
0,0,0,0,0,0,0,0,0,0,0,0,0,0,0,0,0,0,0,0,0,0,0,0,0,0,0,0,0,0,0,0,0,0,0,0,0,0,0,0,0,0,0,0,0,0,0,0,0,0,0,0,0,0,0,0,0,0,0,
0,0,0,0,0,0,0,0,0,0,0,0,0,0,0,0,0,0,0,0,0,0,0,0,0,0,0,0,0,0,0,0,0,0,0,0,0,0,0,0,0,0,0,0,0,0,0,0,0,0,0,0,0,0,0,0,0,0,0,
0,0,0,0,0,0,0,0,0,0,0,0,0,0,0,0,0,0,0,0,0,0,0,0,0,0,0,0,0,0,0,0,0,0,0,0,0,0,0,0,0,0,0,0,0,0,0,0,0,0,0,0,0,0,0,0,0,0,0,
0,0,0,0,0,0,0,0,0,0,0,0,0,0,0,0,0,0,0,0,0,0,0,0,0,0,0,0,0,0,0,0,0,0,0,0,0,0,0,0,0,0,0,0,0,0,0,0,0,0,0,0,0,0,0,0,0,0,0,
0,0,0,0,0,0,0,0,0,0,0,0,0,0,0,0,0,0,0,0,0,0,0,0,0,0,0,0,0,0,0,0,0,0,0,0,0,0,0,0,0,0,0,0,0,0,0,0,0,0,0,0,0,0,0,0,0,0,0,
0,0,0,0,0,0,0,0,0,0,0,0,0,0,0,0,0,0,0,0,0,0,0,0,0,0,0,0,0,0,0,0,0,0,0,0,0,0,0,0,0,0,0,0,0,0,0,0,0,0,0,0,0,0,0,0,0,0,0,
0,0,0,0,0,0,0,0,0,0,0,0,0,0,0,0,0,0,0,0,0,0,0,0,0,0,0,0,0,0,0,0,0,0,0,0,0,0,0,0,0,0,0,0,0,0,0,0,0,0,0,0,0,0,0,0,0,0,0,
0,0,0,0,0,0,0,0,0,0,0,0,0,0,0,0,0,0,0,0,0,0,0,0,0,0,0,0,0,0,0,0,0,0,0,0,0,0,0,0,0,0,0,0,0,0,0,0,0,0,0,0,0,0,0,0,0,0,0,
0,0,0,0,0,0,0,0,0,0,0,0,0,0,0,0,0,0,0,0,0,0,0,0,0,0,0,0,0,0,0,0,0,0,0,0,0,0,0,0,0,0,0,0,0,0,0,0,0,0,0,0,0,0,0,0,0,0,0,
0,0,0,0,0,0,0,0,0,0,0,0,0,0,0,0,0,0,0,0,0,0,0,0,0,0,0,0,0,0,0,0,0,0,0,0,0,0,0,0,0,0,0,0,0,0,0,0,0,0,0,0,0,0,0,0,0,0,0,
0,0,0,0,0,0,0,0,0,0,0,0,0,0,0,0,0,0,0,0,0,0,0,0,0,0,0,0,0,0,0,0,0,0,0,0,0,0,0,0,0,0,0,0,0,0,0,0,0,0,0,0,0,0,0,0,0,0,0,
0,0,0,0,0,0,0,0,0,0,0,0,0,0,0,0,0,0,0,0,0,0,0,0,0,0,0,0,0,0,0,0,0,0,0,0,0,0,0,0,0,0,0,0,0,0,0,0,0,0,0,0,0,0,0,0,0,0,0,
0,0,0,0,0,0,0,0,0,0,0,0,0,0,0,0,0,0,0,0,0,0,0,0,0,0,0,0,0,0,0,0,0,0,0,0,0,0,0,0,0,0,0,0,0,0,0,0,0,0,0,0,0,0,0,0,0,0,0,
0,0,0,0,0,0,0,0,0,0,0,0,0,0,0,0,0,0,0,0,0,0,0,0,0,0,0,0,0,0,0,0,0,0,0,0,0,0,0,0,0,0,0,0,0,0,0,0,0,0,0,0,0,0,0,0,0,0,0,
0,0,0,0,0,0,0,0,0,0,0,0,0,0,0,0,0,0,0,0,0,0,0,0,0,0,0,0,0,0,0,0,0,0,0,0,0,0,0,0,0,0,0,0,0,0,0,0,0,0,0,0,0,0,0,0,0,0,0,
0,0,0,0,0,0,0,0,0,0,0,0,0,0,0,0,0,0,0,0,0,0,0,0,0,0,0,0,0,0,0,0,0,0,0,0,0,0,0,0,0,0,0,0,0,0,0,0,0,0,0,0,0,0,0,0,0,0,0,
0,0,0,0,0,0,0,0,0,0,0,0,0,0,0,0,0,0,0,0,0,0,0,0,0,0,0,0,0,0,0,0,0,0,0,0,0,0,0,0,0,0,0,0,0,0,0,0,0,0,0,0,0,0,0,0,0,0,0,
0,0,0,0,0,0,0,0,0,0,0,0,0,0,0,0,0,0,0,0,0,0,0,0,0,0,0,0,0,0,0,0,0,0,0,0,0,0,0,0,0,0,0,0,0,0,0,0,0,0,0,0,0,0,0,0,0,0,0,
0,0,0,0,0,0,0,0,0,0,0,0,0,0,0,0,0,0,0,0,0,0,0,0,0,0,0,0,0,0,0,0,0,0,0,0,0,0,0,0,0,0,0,0,0,0,0,0,0,0,0,0,0,0,0,0,0,0,0,
0,0,0,0,0,0,0,0,0,0,0,0,0,0,0,0,0,0,0,0,0,0,0,0,0,0,0,0,0,0,0,0,0,0,0,0,0,0,0,0,0,0,0,0,0,0,0,0,0,0,0,0,0,0,0,0,0,0,0,
0,0,0,0,0,0,0,0,0,0,0,0,0,0,0,0,0,0,0,0,0,0,0,0,0,0,0,0,0,0,0,0,0,0,0,0,0,0,0,0,0,0,0,0,0,0,0,0,0,0,0,0,0,0,0,0,0,0,0,
0,0,0,0,0,0,0,0,0,0,0,0,0,0,0,0,0,0,0,0,0,0,0,0,0,0,0,0,0,0,0,0,0,0,0,0,0,0,0,0,0,0,0,0,0,0,0,0,0,0,0,0,0,0,0,0,0,0,0,
0,0,0,0,0,0,0,0,0,0,0,0,0,0,0,0,0,0,0,0,0,0,0,0,0,0,0,0,0,0,0,0,0,0,0,0,0,0,0,0,0,0,0,0,0,0,0,0,0,0,0,0,0,0,0,0,0,0,0,
0,0,0,0,0,0,0,0,0,0,0,0,0,0,0,0,0,0,0,0,0,0,0,0,0,0,0,0,0,0,0,0,0,0,0,0,0,0,0,0,0,0,0,0,0,0,0,0,0,0,0,0,0,0,0,0,0,0,0,
0,0,0,0,0,0,0,0,0,0,0,0,0,0,0,74,74,74,0,0,0,0,0,0,0,0,0,0,0,0,0,0,0,0,0,0,0,0,0,0,0,0,0,0,0,0,0,0,0,0,0,0,0,0,0,0,0,0,0,
0,0,0,0,0,0,0,0,0,0,0,0,0,0,0,80,80,80,0,0,0,0,0,0,0,0,19,14,15,119,119,19,15,15,16,119,119,19,14,15,16,119,119,19,14,15,16,0,0,0,0,0,0,0,0,0,0,0,0,
0,0,0,0,0,0,0,0,0,0,0,0,0,0,0,81,81,81,0,0,0,0,0,0,0,0,35,23,21,122,122,23,21,22,21,122,122,23,22,21,22,122,122,23,20,21,24,0,0,0,0,0,0,0,0,0,0,0,0,
0,0,0,0,0,0,0,0,0,0,0,0,0,0,0,82,82,82,0,0,0,0,0,0,0,0,0,0,0,0,0,0,0,0,0,0,0,0,0,0,0,0,0,0,0,0,0,0,0,0,0,0,0,0,0,0,0,0,0,
0,0,0,0,0,0,0,0,0,0,0,0,0,0,0,0,0,0,0,0,0,0,0,0,0,0,0,0,0,0,0,0,0,0,0,0,0,0,0,0,0,0,0,0,0,0,0,0,0,0,0,0,0,0,0,0,0,0,0,
0,0,0,0,0,0,0,0,0,0,0,0,0,0,0,0,0,0,0,0,0,0,0,0,0,0,0,0,0,0,0,0,0,0,0,0,0,0,0,0,0,0,0,0,0,0,0,0,0,0,0,0,0,0,0,0,0,0,0,
0,0,0,0,0,0,0,0,0,0,0,0,0,0,0,0,0,0,0,0,0,0,0,0,0,0,0,0,0,0,0,0,0,0,0,0,0,0,0,0,0,0,0,0,0,0,0,0,0,0,0,0,0,0,0,0,0,0,0,
0,0,0,0,0,0,0,0,0,0,0,0,0,0,0,0,0,0,0,0,0,0,0,0,0,0,0,0,0,0,0,0,0,0,0,0,0,0,0,0,0,0,0,0,0,0,0,0,0,0,0,0,0,0,0,0,0,0,0,
0,0,0,0,0,0,0,0,0,0,0,0,0,0,0,0,0,0,0,0,0,0,0,0,0,0,0,0,0,0,0,0,0,0,0,0,0,0,0,0,0,0,0,0,0,0,0,0,0,0,0,0,0,0,0,0,0,0,0,
0,0,0,0,0,0,0,0,0,0,0,0,0,0,0,0,0,0,0,0,0,0,0,0,0,0,0,0,0,0,0,0,0,0,0,0,0,0,0,0,0,0,0,0,0,0,0,0,0,0,0,0,0,0,0,0,0,0,0,
0,0,0,0,0,0,0,0,0,0,0,0,0,0,0,0,0,0,0,0,0,0,0,0,0,0,0,0,0,0,0,0,0,0,0,0,0,0,0,0,0,0,0,0,0,0,0,0,0,0,0,0,0,0,0,0,0,0,0,
0,0,0,0,0,0,0,0,0,0,0,0,0,0,0,0,0,0,0,0,0,0,0,0,0,0,0,0,0,0,0,0,0,0,0,0,0,0,0,0,0,0,0,0,0,0,0,0,0,0,0,0,0,0,0,0,0,0,0,
0,0,0,0,0,0,0,0,0,0,0,0,0,0,0,0,0,0,0,0,0,0,0,0,0,0,0,0,0,0,0,0,0,0,0,0,0,0,0,0,0,0,0,0,0,0,0,0,0,0,0,0,0,0,0,0,0,0,0,
0,0,0,0,0,0,0,0,0,0,0,0,0,0,0,0,0,0,0,0,0,0,0,0,0,0,0,0,0,0,0,0,0,0,0,0,0,0,0,0,0,0,0,0,0,0,0,0,0,0,0,0,0,0,0,0,0,0,0,
0,0,0,0,0,0,0,0,0,0,0,0,0,0,0,0,0,0,0,0,0,0,0,0,0,0,0,0,0,0,0,0,0,0,0,0,0,0,0,0,0,0,0,0,0,0,0,0,0,0,0,0,0,0,0,0,0,0,0,
0,0,0,0,0,0,0,0,0,0,0,0,0,0,0,0,0,0,0,0,0,0,0,0,0,0,0,0,0,0,0,0,0,0,0,0,0,0,0,0,0,0,0,0,0,0,0,0,0,0,0,0,0,0,0,0,0,0,0,
0,0,0,0,0,0,0,0,0,0,0,0,0,0,0,0,0,0,0,0,0,0,0,0,0,0,0,0,0,0,0,0,0,0,0,0,0,0,0,0,0,0,0,0,0,0,0,0,0,0,0,0,0,0,0,0,0,0,0,
0,0,0,0,0,0,0,0,0,0,0,0,0,0,0,0,0,0,0,0,0,0,0,0,0,0,0,0,0,0,0,0,0,0,0,0,0,0,0,0,0,0,0,0,0,0,0,0,0,0,0,0,0,0,0,0,0,0,0,
0,0,0,0,0,0,0,0,0,0,74,74,74,74,74,80,0,0,0,0,0,0,74,74,74,74,74,74,0,0,0,0,0,0,0,0,0,0,0,0,0,0,0,0,0,0,0,0,0,0,0,0,0,0,0,0,0,0,0,
0,0,0,0,0,0,0,0,0,0,80,80,80,80,80,80,0,0,0,0,0,0,80,80,80,80,80,80,0,0,0,0,0,0,0,0,0,0,0,0,0,0,0,0,0,0,0,0,0,0,0,0,0,0,0,0,0,0,0,
0,0,0,0,0,0,0,0,0,0,81,81,81,81,81,81,0,0,0,0,0,0,81,81,81,81,81,81,0,0,0,0,0,0,0,0,0,0,0,0,0,0,0,0,0,0,0,0,0,0,0,0,0,0,0,0,0,0,0,
0,0,0,0,0,0,0,0,0,0,81,81,81,81,81,81,0,0,0,0,0,0,81,81,81,81,81,81,0,0,0,0,0,0,0,0,0,0,0,0,0,0,0,0,0,0,0,0,0,0,0,0,0,0,0,0,0,0,0,
0,0,0,0,0,0,0,0,0,0,81,81,81,81,81,81,0,0,0,0,0,0,0,0,0,0,0,0,0,0,0,0,0,0,0,0,0,0,0,0,0,0,0,0,0,0,0,0,0,0,0,0,0,0,0,0,0,0,0,
0,0,0,0,0,0,0,0,0,0,81,81,81,81,81,81,0,0,0,0,0,0,0,0,0,0,0,0,0,0,0,0,0,0,0,0,0,0,0,0,0,0,0,0,0,0,0,0,0,0,0,0,0,0,0,0,0,0,0,
0,0,0,0,0,0,0,0,0,0,81,81,81,81,81,81,0,0,0,0,0,0,0,0,0,0,0,0,0,0,0,0,0,0,0,0,0,0,0,0,0,0,0,0,0,0,0,0,0,0,0,0,0,0,0,0,0,0,0,
0,0,0,0,0,0,0,0,0,0,81,81,81,81,81,81,0,0,0,0,0,0,0,0,0,0,0,0,0,0,0,0,0,0,0,0,0,0,0,0,0,0,0,0,0,0,0,0,0,0,0,0,0,0,0,0,0,0,0,
0,0,0,0,0,0,0,0,0,0,81,81,81,81,81,81,0,0,0,0,0,0,0,0,0,0,0,0,0,0,0,0,0,0,0,0,0,0,0,0,0,0,0,0,0,0,0,0,0,0,0,0,0,0,0,0,0,0,0,
0,0,0,0,0,0,0,0,0,0,81,81,81,81,81,81,0,0,0,0,0,0,0,0,0,0,0,0,0,0,0,0,0,0,0,0,0,0,0,0,0,0,0,0,0,0,0,0,0,0,0,0,0,0,0,0,0,0,0,
0,0,0,0,0,0,0,0,0,0,81,81,81,81,81,81,0,0,0,0,0,0,0,0,0,0,0,0,0,0,0,0,0,0,0,0,0,0,0,0,0,0,0,0,0,0,0,0,0,0,0,0,0,0,0,0,0,0,0,
0,0,0,0,0,0,0,0,0,0,81,81,81,81,81,81,0,0,0,0,0,0,0,0,0,0,0,0,0,0,0,0,0,0,0,0,0,0,0,0,0,0,0,0,0,0,0,0,0,0,0,0,0,0,0,0,0,0,0,
0,0,0,0,0,0,0,0,0,0,82,82,82,82,82,82,0,0,0,0,0,0,0,0,0,0,0,0,0,0,0,0,0,0,0,0,0,0,0,0,0,0,0,0,0,0,0,0,0,0,0,0,0,0,0,0,0,0,0
</data>
 </layer>
 <layer id="2" name="layer2" width="59" height="59" visible="0">
  <properties>
   <property name="priority" type="bool" value="true"/>
  </properties>
  <data encoding="csv">
1,1,1,1,1,1,1,1,1,1,1,1,1,1,1,1,88,1,87,1,1,1,1,87,1,1,1,1,1,1,1,1,1,1,1,1,1,1,1,1,1,1,1,1,1,1,1,1,1,1,1,1,1,1,1,1,1,1,1,
1,1,1,1,1,1,1,1,1,1,1,1,1,1,1,1,1,1,1,1,91,1,1,1,1,1,1,1,1,1,1,1,1,1,1,1,1,1,1,1,1,88,1,1,1,1,88,1,1,87,1,1,1,91,1,1,1,1,1,
1,87,1,1,1,1,1,1,1,1,1,1,1,1,1,1,1,1,1,1,1,1,1,1,1,1,1,1,1,1,1,1,1,1,1,1,1,1,1,1,1,1,1,1,1,1,1,1,1,1,1,1,1,1,1,1,1,1,1,
1,1,1,1,1,1,1,1,1,1,1,1,1,1,1,1,1,1,1,1,1,1,1,1,1,1,1,1,1,1,1,1,1,1,1,1,1,1,1,1,1,1,1,1,1,1,1,1,1,1,1,1,1,1,1,1,1,1,1,
1,1,1,1,1,1,91,1,1,91,1,1,1,1,1,1,1,1,1,1,1,1,1,1,1,1,1,1,1,1,1,1,1,1,1,1,1,1,1,1,1,1,1,1,1,1,1,1,96,1,1,1,1,1,1,1,1,1,1,
1,1,1,1,1,1,1,1,1,1,1,1,1,1,1,1,1,1,1,1,1,1,1,1,1,1,1,1,1,1,1,1,1,96,1,1,1,1,1,1,1,1,96,1,1,1,1,1,97,127,127,1,1,1,88,1,1,1,1,
1,1,87,1,1,87,1,1,1,1,1,1,1,1,1,1,1,1,1,1,1,1,1,1,1,1,1,1,1,1,1,1,1,97,127,1,1,1,1,1,1,1,97,1,1,1,1,1,97,98,98,1,1,1,1,1,1,1,1,
1,1,1,1,87,1,91,1,1,1,1,1,1,1,1,1,1,1,1,1,1,1,1,1,1,1,1,1,1,1,1,1,1,97,98,1,1,1,1,1,1,1,97,1,1,1,1,1,97,98,98,1,1,1,1,1,1,1,1,
1,1,91,1,1,1,1,1,1,1,1,1,1,1,1,1,1,1,1,1,1,1,1,1,1,1,1,1,1,1,1,1,1,97,98,1,1,1,1,1,1,127,97,1,1,1,1,1,103,103,103,103,1,1,1,1,1,1,1,
1,91,1,1,1,1,1,1,1,1,1,1,1,1,1,1,1,1,1,1,1,1,1,1,1,1,1,1,1,1,1,1,103,103,103,103,1,1,1,1,1,98,97,1,1,1,1,1,106,106,106,106,1,1,1,1,1,1,1,
1,1,1,1,1,1,1,1,1,1,1,1,1,1,1,1,1,1,1,1,1,1,1,1,1,1,1,1,1,1,1,1,106,106,106,106,1,1,1,1,1,98,97,1,1,1,1,1,106,106,106,106,1,1,1,1,1,1,1,
1,1,1,1,1,1,1,1,1,1,1,1,1,1,1,1,1,1,1,1,1,1,1,1,1,1,1,1,1,1,1,1,106,106,106,106,1,1,1,1,1,103,103,103,1,1,87,1,106,106,106,106,1,1,1,1,1,1,1,
1,1,1,1,1,1,1,1,1,1,1,1,1,1,1,1,1,1,1,1,1,1,1,1,1,1,1,1,88,1,1,1,106,106,106,106,1,91,1,87,1,106,106,106,1,91,1,1,130,1,130,1,1,1,1,1,1,1,1,
1,1,1,1,1,1,1,1,1,1,1,1,1,1,1,1,1,1,1,1,1,1,1,1,1,1,1,1,1,1,1,1,130,1,130,1,1,1,1,1,1,106,106,106,1,1,1,1,1,1,1,1,1,1,1,1,1,1,1,
1,87,1,1,1,1,1,1,1,1,1,1,1,1,1,1,1,1,1,1,1,1,1,1,1,1,1,1,1,1,1,1,1,1,1,1,1,1,1,1,1,1,130,1,1,1,1,1,1,1,1,1,1,1,1,1,1,1,1,
1,1,1,1,1,1,1,1,1,1,1,1,1,1,1,1,1,1,1,1,1,1,1,1,1,1,1,1,88,1,1,1,1,1,1,1,1,1,1,1,1,1,1,1,1,1,1,1,1,1,1,1,1,1,1,1,1,1,1,
1,1,1,1,1,1,1,1,1,1,1,1,1,1,1,1,1,1,1,1,1,1,1,1,1,1,1,1,1,1,1,1,1,1,1,1,1,1,1,1,1,1,1,1,1,1,1,1,1,1,1,1,1,1,1,1,1,1,1,
1,1,1,1,87,1,1,1,1,1,1,1,1,1,1,1,1,1,1,1,1,1,1,1,1,1,1,1,1,1,87,1,1,88,1,1,87,1,1,88,1,1,87,1,1,88,1,1,87,1,1,88,1,1,1,1,1,1,1,
1,1,1,1,1,1,1,1,1,1,1,1,1,1,1,1,1,1,1,1,1,1,1,1,1,1,1,1,1,1,1,1,1,1,1,1,1,1,1,1,1,1,1,1,1,1,1,1,1,1,1,1,1,1,91,1,1,1,1,
1,1,1,1,1,1,1,1,1,1,1,1,1,1,1,1,1,1,1,1,1,1,1,1,1,1,1,1,1,1,1,1,1,1,1,1,1,1,1,1,1,1,1,1,1,1,1,1,1,1,1,1,1,1,1,1,1,1,1,
1,1,1,1,87,1,1,1,1,1,1,1,1,1,1,1,1,1,1,1,1,1,1,1,1,1,1,1,1,1,1,1,1,1,1,1,1,1,1,1,1,1,1,1,1,1,1,1,1,1,1,1,1,1,1,1,1,1,1,
1,1,1,1,1,1,1,1,1,1,1,1,1,1,1,1,1,1,1,1,1,1,1,1,1,1,1,1,1,1,1,1,1,1,1,1,1,1,1,1,1,1,1,1,1,1,1,1,1,1,1,1,1,1,88,1,1,1,1,
1,1,1,1,1,1,1,1,1,1,1,1,1,1,1,1,1,1,1,1,1,1,1,1,1,1,1,1,1,1,1,1,1,1,1,1,1,1,1,1,1,1,1,1,1,1,1,1,1,1,1,1,1,1,1,1,1,1,1,
1,1,1,1,87,1,1,1,1,1,1,1,1,1,1,1,1,1,1,1,1,1,1,1,1,1,1,87,1,1,88,1,88,1,88,1,88,1,88,1,1,88,1,88,1,1,1,1,1,1,1,1,1,1,1,1,1,1,1,
1,1,1,1,1,1,1,1,1,1,1,1,1,1,1,1,1,1,1,1,1,1,1,1,1,1,1,1,1,1,1,1,1,1,1,1,1,1,1,1,1,1,1,1,1,1,1,1,1,1,1,1,1,1,1,1,1,1,1,
1,1,1,1,87,1,1,1,1,1,1,1,1,1,1,1,1,1,1,1,1,1,1,1,1,1,1,1,1,1,1,1,1,1,1,1,1,1,1,1,1,1,1,1,1,1,1,1,1,1,1,1,1,1,1,1,88,1,1,
1,1,1,1,1,1,1,1,1,1,1,1,1,1,1,1,1,1,1,1,1,1,1,1,1,1,1,1,1,1,1,1,1,1,1,1,1,1,1,1,1,1,1,1,1,1,1,1,1,1,1,1,1,1,1,1,1,1,1,
1,1,1,1,1,1,1,1,1,1,1,1,1,1,1,1,1,1,1,1,1,1,1,1,1,1,1,1,1,1,1,1,1,1,1,1,1,1,1,1,1,1,1,1,1,1,1,1,1,1,1,1,1,1,1,1,88,1,1,
1,1,1,1,1,1,1,1,1,1,1,1,1,1,1,103,103,103,1,1,1,1,1,1,1,1,1,1,1,1,1,1,1,1,1,1,1,1,1,1,1,1,1,1,1,1,1,1,1,1,1,1,1,1,1,1,1,1,1,
1,1,1,1,1,1,1,1,1,1,1,1,1,1,1,106,106,106,1,1,1,1,1,1,1,1,1,1,1,1,1,1,1,1,1,1,1,1,1,1,1,1,1,1,1,1,1,1,1,1,1,1,1,1,1,1,1,1,1,
1,1,1,1,91,1,1,1,1,1,1,1,1,1,1,106,106,106,1,1,1,1,1,1,1,1,1,88,87,1,1,88,87,1,87,1,1,88,1,87,1,1,1,88,1,87,1,1,103,103,103,103,103,1,1,1,1,1,1,
1,1,1,1,1,1,1,1,1,1,1,1,1,1,1,106,106,106,1,1,1,1,1,1,1,1,1,1,1,1,1,1,1,1,1,1,1,1,1,1,1,1,1,1,1,1,1,1,106,106,106,106,106,1,1,1,1,1,1,
1,1,1,1,1,1,1,1,1,1,1,1,1,1,1,130,1,130,1,1,1,1,1,1,1,1,1,1,1,88,1,1,1,1,1,1,1,1,1,1,1,1,1,1,1,1,1,1,106,106,106,106,106,1,1,91,1,1,1,
1,1,1,1,1,1,1,1,1,1,1,1,1,1,1,1,1,1,1,1,1,1,1,1,1,1,1,1,1,1,1,1,1,1,1,1,1,1,1,1,1,1,1,1,1,91,1,1,130,1,130,1,130,1,91,1,1,1,1,
1,1,1,1,1,91,1,1,1,1,1,1,1,1,1,1,1,1,1,1,1,1,1,1,1,1,1,1,1,91,1,1,1,1,1,1,1,1,1,1,1,1,87,1,1,1,1,1,1,1,1,1,1,1,1,1,1,1,1,
1,1,1,1,1,1,1,1,1,1,1,1,1,1,1,1,1,1,1,1,1,1,1,1,1,1,1,1,1,1,1,1,1,1,1,1,1,1,1,1,1,1,1,1,1,1,1,1,1,1,1,1,1,1,1,1,1,1,1,
1,1,1,1,1,1,1,1,1,1,1,1,1,1,1,1,1,1,1,1,1,1,1,1,1,1,1,1,1,1,1,1,1,1,1,1,1,1,1,1,1,1,1,1,1,1,1,1,1,1,1,1,1,1,1,1,1,1,1,
1,1,1,1,1,1,87,87,1,1,1,1,1,1,1,1,1,1,1,1,1,1,1,1,1,1,1,1,1,1,1,1,1,1,1,1,1,1,1,1,1,1,1,1,1,1,1,1,1,1,1,1,1,1,1,1,1,1,1,
1,1,1,1,1,1,1,1,1,1,1,1,1,1,1,1,1,1,1,1,1,1,1,1,1,1,1,1,1,1,1,1,1,1,1,1,1,1,1,1,1,1,1,1,1,1,1,1,1,1,1,1,1,1,1,1,1,1,1,
1,1,1,1,1,1,1,1,87,1,1,1,1,1,1,1,1,1,1,1,1,1,1,1,1,1,1,1,1,1,1,1,1,1,1,1,1,1,1,1,1,1,1,1,1,1,1,1,1,1,1,1,1,1,1,1,1,1,1,
1,1,1,1,1,1,1,1,1,1,1,1,1,1,1,1,1,1,1,1,1,1,1,1,1,1,1,1,1,1,1,1,1,1,1,1,1,88,1,87,1,1,1,1,1,1,1,1,1,1,1,1,1,1,1,1,1,1,1,
1,1,1,1,1,1,1,1,87,87,1,1,1,1,1,1,1,1,1,1,1,1,1,1,1,1,127,1,1,88,1,1,1,1,1,1,1,1,1,1,1,1,1,1,91,1,1,1,1,1,1,1,1,1,1,1,1,88,1,
1,1,1,1,1,1,1,91,1,1,1,1,1,1,96,1,1,1,1,1,1,1,1,1,1,1,98,1,1,1,1,1,1,1,1,1,1,1,1,1,1,1,1,1,1,1,1,1,1,1,1,1,1,1,1,1,1,1,1,
1,1,1,1,1,1,1,1,1,1,1,1,127,1,97,1,1,1,1,1,1,1,1,1,98,1,98,1,1,91,1,1,1,1,1,1,1,1,1,1,1,1,1,1,1,87,1,1,1,1,1,1,1,1,1,1,1,1,1,
1,1,1,1,1,1,1,1,1,1,1,1,98,1,97,127,1,1,1,1,1,1,1,127,98,1,98,1,1,88,1,1,1,1,1,1,1,1,1,1,1,1,1,1,1,1,1,1,1,1,1,1,1,1,91,1,1,1,1,
1,1,1,1,1,1,1,1,1,1,1,1,98,1,97,98,1,1,1,1,1,1,1,98,98,1,98,1,1,1,1,1,1,1,1,1,1,1,1,1,1,1,1,1,1,1,1,1,1,1,1,1,1,1,1,1,1,1,1,
1,1,1,1,1,1,1,1,1,1,103,103,103,103,103,106,1,1,1,1,1,1,103,103,103,103,103,103,1,1,91,1,1,1,1,1,1,1,1,1,1,1,1,1,1,87,1,1,1,1,1,1,1,1,1,1,1,1,1,
1,1,1,1,1,1,1,1,1,1,106,106,106,106,106,106,1,1,1,1,1,1,106,106,106,106,106,106,1,88,1,1,1,1,1,1,1,1,1,1,1,1,1,1,1,1,1,1,1,1,1,1,1,1,88,1,1,1,1,
1,1,1,1,1,1,1,1,1,1,106,106,106,106,106,106,1,1,1,1,1,1,106,106,106,106,106,106,1,1,1,1,1,1,1,1,1,1,1,1,88,1,1,87,1,1,1,1,1,1,1,1,1,1,1,1,1,1,1,
1,1,1,1,1,1,1,1,1,1,106,106,106,106,106,106,1,1,1,1,1,1,106,106,106,106,106,106,1,1,1,1,1,1,1,1,1,1,1,1,1,1,1,1,1,1,1,1,1,1,1,1,1,1,1,1,1,1,1,
1,1,1,1,1,1,1,1,1,1,106,106,106,106,106,106,1,1,1,1,1,1,1,1,1,1,1,1,1,1,1,1,1,1,87,1,1,1,91,1,1,1,1,1,1,1,1,1,1,1,1,1,1,1,88,1,1,1,1,
1,1,1,1,1,1,1,1,1,1,106,106,106,106,106,106,1,1,1,1,1,1,1,1,1,1,1,1,1,1,1,1,1,1,1,1,1,1,1,1,1,1,1,1,1,1,1,1,1,1,1,1,1,1,1,1,1,1,1,
1,1,1,1,1,1,1,1,1,1,106,106,106,106,106,106,1,1,1,1,1,1,1,1,1,1,1,1,1,1,1,1,1,1,88,1,1,1,1,1,1,1,1,1,1,1,1,1,1,1,1,1,1,1,1,1,1,1,1,
1,1,1,1,1,1,1,1,1,1,106,106,106,106,106,106,1,1,1,1,1,1,106,106,106,106,106,106,1,1,1,1,1,1,1,1,1,91,1,1,1,1,1,1,1,1,1,1,1,1,1,1,1,1,1,1,1,1,1,
1,1,1,1,1,1,1,1,1,1,106,106,106,106,106,106,1,1,1,1,1,1,106,106,106,106,106,106,1,1,1,1,1,1,1,1,1,87,1,1,1,1,1,1,1,1,1,1,1,1,1,1,1,1,1,1,1,1,1,
1,1,1,1,1,1,1,1,1,1,106,106,106,106,106,106,1,1,1,1,1,1,106,106,106,106,106,106,1,1,1,1,1,1,1,1,1,1,1,1,1,1,1,1,1,1,1,1,1,103,103,1,91,1,1,1,1,1,1,
1,1,1,1,1,1,1,1,1,1,106,106,106,106,106,106,1,1,1,1,1,1,106,106,106,106,106,106,1,1,1,1,1,1,1,1,1,1,1,1,1,87,1,1,88,1,1,91,1,106,106,1,1,1,1,1,1,1,1,
1,1,1,1,1,1,1,1,1,1,106,106,106,106,106,106,1,1,1,1,1,1,106,106,106,106,106,106,1,1,1,1,1,1,1,1,1,1,1,1,1,1,1,1,1,1,1,1,1,106,106,1,1,1,1,1,1,1,1,
1,1,1,1,1,1,1,1,1,1,106,106,106,106,106,106,1,1,1,1,1,1,106,106,106,106,106,106,1,1,1,1,1,1,1,1,1,1,1,1,1,1,1,1,1,1,1,1,1,130,130,1,1,1,1,1,1,1,1
</data>
 </layer>
</map>
