<?xml version="1.0" encoding="UTF-8"?>
<map version="1.10" tiledversion="1.11.2" orientation="orthogonal" renderorder="right-down" width="76" height="44" tilewidth="16" tileheight="16" infinite="0" nextlayerid="3" nextobjectid="1">
 <tileset firstgid="1" name="tiles" tilewidth="16" tileheight="16" tilecount="102" columns="11">
  <image source="cf.png" width="176" height="160"/>
  <tile id="0">
   <objectgroup draworder="index" id="2">
    <object id="1" x="0" y="0">
     <polygon points="0,0 16,0 16,16 0,16"/>
    </object>
   </objectgroup>
  </tile>
  <tile id="2">
   <objectgroup draworder="index" id="2">
    <object id="1" x="0" y="0">
     <polygon points="0,0 16,0 16,16 0,16"/>
    </object>
   </objectgroup>
  </tile>
  <tile id="5">
   <objectgroup draworder="index" id="2">
    <object id="1" x="0" y="0">
     <polygon points="0,0 16,0 16,16 0,16"/>
    </object>
   </objectgroup>
  </tile>
  <tile id="6">
   <objectgroup draworder="index" id="2">
    <object id="1" x="0" y="0">
     <polygon points="0,0 16,0 16,16 0,16"/>
    </object>
   </objectgroup>
  </tile>
  <tile id="7">
   <objectgroup draworder="index" id="2">
    <object id="1" x="0" y="0">
     <polygon points="0,0 16,0 16,16 0,16"/>
    </object>
   </objectgroup>
  </tile>
  <tile id="8">
   <objectgroup draworder="index" id="2">
    <object id="1" x="0" y="0">
     <polygon points="0,0 16,0 16,16 0,16"/>
    </object>
   </objectgroup>
  </tile>
  <tile id="9">
   <objectgroup draworder="index" id="2">
    <object id="1" x="0" y="0">
     <polygon points="0,0 16,0 16,16 0,16"/>
    </object>
   </objectgroup>
  </tile>
  <tile id="10">
   <objectgroup draworder="index" id="2">
    <object id="1" x="0" y="0">
     <polygon points="0,0 16,0 16,16 0,16"/>
    </object>
   </objectgroup>
  </tile>
  <tile id="11">
   <objectgroup draworder="index" id="2">
    <object id="1" x="0" y="0">
     <polygon points="0,0 16,0 16,16 0,16"/>
    </object>
   </objectgroup>
  </tile>
  <tile id="12">
   <objectgroup draworder="index" id="2">
    <object id="1" x="0" y="0">
     <polygon points="0,0 16,0 16,16 0,16"/>
    </object>
   </objectgroup>
  </tile>
  <tile id="13">
   <objectgroup draworder="index" id="2">
    <object id="1" x="0" y="0">
     <polygon points="0,0 16,0 16,16 0,16"/>
    </object>
   </objectgroup>
  </tile>
  <tile id="14">
   <objectgroup draworder="index" id="2">
    <object id="1" x="0" y="0">
     <polygon points="0,0 16,0 16,16 0,16"/>
    </object>
   </objectgroup>
  </tile>
  <tile id="15">
   <objectgroup draworder="index" id="2">
    <object id="1" x="0" y="0">
     <polygon points="0,0 16,0 16,16 0,16"/>
    </object>
   </objectgroup>
  </tile>
  <tile id="16">
   <objectgroup draworder="index" id="2">
    <object id="1" x="0" y="0">
     <polygon points="0,0 16,0 16,16 0,16"/>
    </object>
   </objectgroup>
  </tile>
  <tile id="17">
   <objectgroup draworder="index" id="2">
    <object id="1" x="0" y="0">
     <polygon points="0,0 16,0 16,16 0,16"/>
    </object>
   </objectgroup>
  </tile>
  <tile id="18">
   <objectgroup draworder="index" id="2">
    <object id="1" x="0" y="0">
     <polygon points="0,0 16,0 16,16 0,16"/>
    </object>
   </objectgroup>
  </tile>
  <tile id="21">
   <objectgroup draworder="index" id="2">
    <object id="1" x="0" y="0">
     <polygon points="0,0 16,0 16,16 0,16"/>
    </object>
   </objectgroup>
  </tile>
  <tile id="26">
   <objectgroup draworder="index" id="2">
    <object id="1" x="0" y="0">
     <polygon points="0,0 16,0 16,16 0,16"/>
    </object>
   </objectgroup>
  </tile>
  <tile id="27">
   <objectgroup draworder="index" id="2">
    <object id="1" x="0" y="0">
     <polygon points="0,0 16,0 16,16 0,16"/>
    </object>
   </objectgroup>
  </tile>
  <tile id="28">
   <objectgroup draworder="index" id="2">
    <object id="1" x="0" y="0">
     <polygon points="0,0 16,0 16,16 0,16"/>
    </object>
   </objectgroup>
  </tile>
  <tile id="29">
   <objectgroup draworder="index" id="3">
    <object id="2" x="0" y="0">
     <polygon points="0,0 16,0 16,16 0,16"/>
    </object>
   </objectgroup>
  </tile>
  <tile id="30">
   <objectgroup draworder="index" id="2">
    <object id="1" x="0" y="0">
     <polygon points="0,0 16,0 16,16 0,16"/>
    </object>
   </objectgroup>
  </tile>
  <tile id="31">
   <objectgroup draworder="index" id="2">
    <object id="1" x="0" y="0">
     <polygon points="0,0 16,0 16,16 0,16"/>
    </object>
   </objectgroup>
  </tile>
  <tile id="32">
   <objectgroup draworder="index" id="2">
    <object id="1" x="0" y="0">
     <polygon points="0,0 16,0 16,16 0,16"/>
    </object>
   </objectgroup>
  </tile>
  <tile id="33">
   <objectgroup draworder="index" id="2">
    <object id="1" x="0" y="0">
     <polygon points="0,0 16,0 16,16 0,16"/>
    </object>
   </objectgroup>
  </tile>
  <tile id="34">
   <objectgroup draworder="index" id="2">
    <object id="1" x="0" y="0">
     <polygon points="0,0 16,0 16,16 0,16"/>
    </object>
   </objectgroup>
  </tile>
  <tile id="35">
   <objectgroup draworder="index" id="2">
    <object id="1" x="0" y="0">
     <polygon points="0,0 16,0 16,16 0,16"/>
    </object>
   </objectgroup>
  </tile>
  <tile id="36">
   <objectgroup draworder="index" id="2">
    <object id="1" x="0" y="0">
     <polygon points="0,0 16,0 16,16 0,16"/>
    </object>
   </objectgroup>
  </tile>
  <tile id="37">
   <objectgroup draworder="index" id="2">
    <object id="1" x="0" y="0">
     <polygon points="0,0 16,0 16,16 0,16"/>
    </object>
   </objectgroup>
  </tile>
  <tile id="38">
   <objectgroup draworder="index" id="2">
    <object id="1" x="0" y="0">
     <polygon points="0,0 16,0 16,16 0,16"/>
    </object>
   </objectgroup>
  </tile>
  <tile id="39">
   <objectgroup draworder="index" id="2">
    <object id="1" x="0" y="0">
     <polygon points="0,0 16,0 16,16 0,16"/>
    </object>
   </objectgroup>
  </tile>
  <tile id="44">
   <objectgroup draworder="index" id="2">
    <object id="1" x="0" y="0">
     <polygon points="0,0 16,0 16,16 0,16"/>
    </object>
   </objectgroup>
  </tile>
  <tile id="45">
   <objectgroup draworder="index" id="3">
    <object id="2" x="0" y="0">
     <properties>
      <property name="type" type="int" value="1"/>
     </properties>
     <polygon points="0,0 16,0 16,8 0,8"/>
    </object>
   </objectgroup>
  </tile>
  <tile id="46">
   <objectgroup draworder="index" id="2">
    <object id="1" x="0" y="0">
     <polygon points="0,0 16,0 16,16 0,16"/>
    </object>
   </objectgroup>
  </tile>
  <tile id="47">
   <objectgroup draworder="index" id="2">
    <object id="2" x="0" y="8">
     <polygon points="0,0 16,-8 16,8 0,8"/>
    </object>
   </objectgroup>
  </tile>
  <tile id="48">
   <objectgroup draworder="index" id="2">
    <object id="1" x="0" y="0">
     <polygon points="0,0 16,0 16,16 0,16"/>
    </object>
   </objectgroup>
  </tile>
  <tile id="49">
   <objectgroup draworder="index" id="2">
    <object id="1" x="0" y="0">
     <polygon points="0,0 16,0 16,16 0,16"/>
    </object>
   </objectgroup>
  </tile>
  <tile id="50">
   <objectgroup draworder="index" id="2">
    <object id="1" x="0" y="0">
     <polygon points="0,0 16,0 16,16 0,16"/>
    </object>
   </objectgroup>
  </tile>
  <tile id="51">
   <objectgroup draworder="index" id="2">
    <object id="1" x="0" y="0">
     <polygon points="0,0 16,0 16,16 0,16"/>
    </object>
   </objectgroup>
  </tile>
  <tile id="53">
   <objectgroup draworder="index" id="2">
    <object id="1" x="0" y="0">
     <polygon points="0,0 16,0 16,16 0,16"/>
    </object>
   </objectgroup>
  </tile>
  <tile id="55">
   <objectgroup draworder="index" id="2">
    <object id="1" x="0" y="0">
     <polygon points="0,0 16,0 16,16 0,16"/>
    </object>
   </objectgroup>
  </tile>
  <tile id="56">
   <objectgroup draworder="index" id="2">
    <object id="1" x="0" y="0">
     <polygon points="0,0 16,0 16,16 0,16"/>
    </object>
   </objectgroup>
  </tile>
  <tile id="57">
   <objectgroup draworder="index" id="2">
    <object id="1" x="0" y="0">
     <polygon points="0,0 16,0 16,16 0,16"/>
    </object>
   </objectgroup>
  </tile>
  <tile id="59">
   <objectgroup draworder="index" id="2">
    <object id="1" x="0" y="0">
     <polygon points="0,0 16,0 16,16 0,16"/>
    </object>
   </objectgroup>
  </tile>
  <tile id="60">
   <objectgroup draworder="index" id="2">
    <object id="2" x="0" y="16">
     <polygon points="0,0 16,-8 16,0"/>
    </object>
   </objectgroup>
  </tile>
  <tile id="61">
   <objectgroup draworder="index" id="2">
    <object id="1" x="0" y="0">
     <polygon points="0,0 16,0 16,16 0,16"/>
    </object>
   </objectgroup>
  </tile>
  <tile id="62">
   <objectgroup draworder="index" id="2">
    <object id="1" x="0" y="0">
     <polygon points="0,0 16,0 16,16 0,16"/>
    </object>
   </objectgroup>
  </tile>
  <tile id="76">
   <objectgroup draworder="index" id="2">
    <object id="1" x="0" y="0">
     <polygon points="0,0 16,0 16,16 0,16"/>
    </object>
   </objectgroup>
  </tile>
 </tileset>
 <layer id="1" name="layer0" width="76" height="44">
  <properties>
   <property name="collision" type="bool" value="true"/>
  </properties>
  <data encoding="csv">
3,4,4,4,4,4,4,4,4,4,4,4,4,4,4,5,2,2,2,2,2,2,2,2,2,2,2,2,2,2,2,2,2,2,2,2,2,2,2,2,2,2,2,2,2,2,2,2,2,2,2,2,2,2,2,2,2,2,2,2,2,2,2,2,2,2,2,6,7,2,2,2,2,2,2,2,
3,4,4,4,4,4,4,4,4,4,4,4,4,4,4,5,2,2,2,2,2,2,2,2,2,2,2,2,2,2,2,2,2,2,2,2,2,2,2,2,2,2,2,2,2,2,2,2,2,2,2,2,2,2,2,2,2,2,2,2,2,2,2,2,2,2,2,6,7,2,2,2,2,2,2,2,
3,4,4,4,4,4,4,4,4,4,4,4,4,4,4,5,2,2,2,2,2,2,2,2,2,2,2,2,2,2,2,2,2,2,2,2,2,2,2,2,2,2,2,2,2,2,2,2,2,2,2,2,2,2,2,2,2,2,2,2,2,2,2,2,2,2,2,6,7,2,2,2,2,2,2,2,
3,4,8,9,10,4,4,4,4,4,4,4,4,4,4,5,2,2,2,2,2,2,2,2,2,2,2,2,2,2,2,2,2,2,2,2,2,2,2,2,2,2,2,2,2,2,2,2,2,2,2,2,2,2,2,2,2,2,2,2,2,2,2,2,2,2,2,6,7,2,2,2,2,2,2,2,
11,12,13,12,12,13,12,13,13,4,4,12,13,12,12,12,12,12,13,13,13,14,14,14,14,14,14,14,14,14,14,14,14,14,14,14,14,8,9,15,13,12,13,12,13,12,13,12,15,9,10,2,2,2,2,2,2,2,2,2,2,2,2,2,2,2,2,6,7,2,2,2,2,2,2,2,
16,17,18,18,18,18,18,18,15,4,4,15,18,19,19,19,19,19,18,19,15,2,20,21,2,2,2,2,2,2,2,2,2,2,2,2,2,6,22,18,18,18,18,18,18,18,18,18,18,22,3,23,2,24,23,2,23,2,2,23,25,26,2,23,2,24,23,6,7,2,2,2,2,2,2,2,
2,16,27,27,27,27,16,3,4,4,4,28,29,27,27,27,27,27,27,30,31,2,2,2,26,26,2,23,26,26,2,23,26,2,23,25,26,6,30,27,27,27,27,27,27,27,27,27,27,27,3,21,20,25,25,25,21,20,25,25,26,20,25,21,20,25,25,6,7,2,2,2,2,2,2,2,
2,2,2,2,2,2,32,33,4,4,4,6,7,34,35,34,34,34,35,35,3,2,2,2,2,20,25,21,2,20,25,21,20,25,25,26,23,36,37,29,38,38,1,39,2,2,2,2,2,40,3,25,21,2,41,20,25,21,24,41,20,23,25,25,21,2,41,6,7,2,2,2,2,2,2,2,
2,2,2,2,2,40,3,4,4,4,4,36,1,1,1,1,1,1,1,1,33,2,2,2,2,42,2,26,24,23,25,25,21,24,41,20,21,20,43,4,4,4,4,6,7,2,2,2,2,40,3,42,24,20,25,25,25,25,26,2,23,25,26,24,23,21,2,6,7,2,2,2,2,2,2,2,
2,2,2,2,2,40,3,4,4,4,4,4,4,4,4,5,2,20,26,23,26,23,2,44,26,2,23,20,25,21,2,42,2,2,2,2,2,42,43,4,4,4,4,6,7,2,2,2,2,40,3,26,2,23,2,20,21,26,20,25,21,23,20,25,21,26,23,6,45,2,2,2,2,2,2,2,
2,2,2,2,2,32,33,4,4,4,4,4,4,4,4,5,2,2,20,21,20,25,26,2,20,25,21,24,2,20,21,2,2,2,2,8,9,37,9,8,4,4,4,6,7,2,2,2,2,40,3,20,25,21,2,26,24,23,20,26,2,23,21,2,41,20,25,36,1,35,45,2,2,2,2,2,
2,2,2,2,40,3,4,4,4,4,4,4,4,4,4,5,26,2,23,2,2,2,20,25,21,24,2,2,2,2,24,2,2,2,2,36,45,27,27,3,4,4,4,6,7,2,2,2,2,40,3,41,2,20,25,25,25,21,24,20,25,21,24,2,2,2,2,42,2,36,39,45,2,2,2,2,
2,2,2,2,40,3,4,4,4,4,4,4,4,4,4,5,20,25,26,2,23,2,2,23,20,25,26,2,8,9,10,2,2,2,2,2,36,1,45,3,4,4,4,6,7,2,2,2,2,40,3,2,2,2,2,2,2,2,2,2,2,2,2,2,2,2,2,2,2,2,36,39,45,35,35,35,
2,2,2,2,40,3,4,4,4,4,4,4,4,4,4,5,2,2,20,25,21,2,23,21,2,2,20,25,36,1,33,2,2,2,2,2,2,2,6,3,4,4,4,6,7,34,34,34,34,34,3,2,2,2,2,2,2,2,2,2,2,2,2,2,2,2,2,2,26,2,23,36,1,1,1,1,
2,2,2,2,40,3,4,4,4,4,4,4,4,4,4,5,26,25,21,2,20,25,8,9,10,23,26,2,2,2,2,2,2,2,2,2,2,2,36,33,4,46,4,36,38,38,38,38,38,38,3,2,2,2,2,2,2,2,2,2,2,2,2,2,2,2,2,2,20,25,21,2,43,4,4,4,
2,2,2,2,40,3,4,4,4,4,4,4,4,4,4,5,20,26,2,2,2,2,36,38,33,24,20,26,2,23,2,2,2,2,2,2,2,2,43,4,4,4,4,4,4,4,4,4,4,4,3,2,2,2,2,2,2,2,2,2,2,2,2,2,2,2,2,2,42,24,2,2,43,4,4,4,
2,2,2,2,40,3,4,4,4,4,4,4,4,4,4,5,41,20,26,2,23,2,26,2,23,2,2,20,25,21,20,25,21,2,2,2,2,2,43,4,4,4,4,4,4,4,4,4,4,4,3,2,2,2,2,2,2,2,2,2,2,2,2,2,2,2,2,2,2,2,2,2,43,4,4,4,
2,2,2,2,40,3,4,4,4,4,4,4,4,4,4,5,2,2,20,25,26,2,20,25,21,26,2,23,24,2,2,2,24,61,48,13,12,13,12,13,12,12,12,12,12,12,12,12,12,12,12,12,2,2,2,2,2,2,2,2,2,2,2,2,2,2,2,2,49,12,12,12,13,12,13,12,
2,2,2,2,2,3,4,4,4,4,4,4,4,4,4,5,24,2,41,2,20,25,21,2,2,20,25,21,2,8,9,9,13,13,50,51,18,18,18,19,19,19,19,19,19,19,19,19,19,19,51,15,12,2,2,2,2,2,2,2,2,2,2,2,2,2,23,13,19,18,18,18,18,18,19,19,
2,2,2,2,2,3,4,4,4,12,13,13,13,4,4,5,2,23,2,2,2,23,20,26,2,24,23,21,2,36,45,16,18,18,18,33,47,37,29,16,19,19,19,19,19,52,51,51,19,27,27,51,15,12,53,2,2,24,23,25,26,42,23,25,23,2,20,54,1,38,1,38,38,1,45,27,
2,2,2,2,2,3,4,4,4,18,18,18,18,4,4,5,23,21,20,25,25,21,2,20,25,25,24,2,2,2,36,1,38,38,33,4,4,4,4,2,55,55,55,55,55,2,6,30,52,2,2,56,54,15,25,24,23,25,26,23,25,25,25,24,20,21,24,42,43,4,4,4,4,4,36,45,
2,2,2,2,2,11,12,12,12,31,27,27,28,12,13,13,57,2,2,2,24,2,2,2,2,2,2,2,2,2,43,4,4,4,4,4,4,4,4,2,2,2,2,41,2,2,6,7,2,2,2,40,58,15,20,25,21,25,26,41,20,21,23,25,23,26,46,8,37,37,37,10,4,4,4,6,
2,2,2,2,2,16,17,18,18,22,52,16,11,18,18,19,19,2,2,14,14,14,14,14,14,14,14,14,2,2,43,4,4,4,4,4,4,4,4,2,2,2,2,2,2,2,6,7,2,2,2,2,16,28,53,20,25,20,21,20,26,23,21,23,21,25,23,6,7,59,56,36,10,4,4,6,
2,2,2,2,2,2,16,27,27,27,2,2,27,27,27,27,11,12,12,57,2,2,2,2,2,2,2,12,12,12,13,13,12,12,12,12,13,12,57,2,2,2,2,2,2,2,6,7,2,2,2,2,40,3,2,24,2,42,20,25,21,20,25,21,20,23,21,6,7,2,2,56,36,10,4,6,
2,2,2,2,2,2,2,2,2,2,2,2,2,2,2,2,16,17,18,18,2,2,2,2,2,2,2,18,18,18,18,18,18,18,18,18,18,18,18,13,12,57,2,2,2,2,6,7,2,2,2,2,40,3,2,2,2,2,2,2,2,2,2,2,2,2,8,22,7,2,2,2,56,3,4,6,
2,2,2,2,2,2,2,2,2,2,2,2,2,2,2,2,32,1,1,33,2,2,26,2,2,23,2,6,27,27,27,27,27,27,27,27,27,27,27,18,18,51,2,2,2,2,6,7,2,2,2,2,40,3,2,2,2,2,2,2,2,2,2,2,2,2,36,31,7,2,2,2,40,3,4,6,
2,2,2,2,2,2,2,2,2,2,2,2,2,2,2,32,3,2,2,2,26,2,20,25,25,21,2,36,38,38,1,38,38,39,45,34,34,34,34,27,27,3,2,2,2,2,6,7,2,2,2,2,40,3,2,2,2,2,2,2,2,2,2,2,2,2,2,6,7,2,2,2,40,3,4,6,
2,2,2,2,2,2,2,2,2,2,2,2,2,40,60,9,33,26,2,26,20,25,21,24,41,2,2,43,4,4,4,4,4,36,1,38,38,1,38,38,38,33,2,2,2,2,6,7,2,2,2,2,40,3,2,2,2,2,2,2,2,2,2,2,2,2,2,36,39,45,35,35,32,3,4,6,
2,2,2,2,2,2,2,2,2,2,2,2,2,40,3,2,42,20,25,25,25,21,26,2,23,57,12,12,12,12,12,57,4,4,4,4,4,4,5,2,2,2,2,2,2,2,6,7,2,2,2,2,40,3,2,2,2,2,2,2,2,2,2,2,2,2,2,2,47,37,37,37,37,33,4,6,
2,2,2,2,2,2,2,2,2,2,2,2,2,40,3,2,26,2,23,2,24,2,20,25,21,51,19,19,54,19,19,19,12,12,12,12,12,12,12,57,2,2,2,2,2,2,6,7,2,2,2,2,40,11,12,13,2,2,2,2,2,2,2,2,2,2,2,2,43,4,4,4,4,4,4,6,
45,2,2,2,2,2,2,2,2,2,2,2,2,40,3,2,20,25,26,2,23,26,2,24,23,36,1,39,31,31,19,19,19,19,31,19,19,19,19,50,2,2,2,2,2,2,6,7,2,2,2,2,40,16,17,18,44,12,13,13,13,12,13,12,13,13,13,13,13,12,13,12,12,12,12,12,
36,45,2,2,2,2,2,2,2,2,2,2,34,32,33,26,2,23,20,25,21,20,25,25,21,2,2,6,11,22,27,27,27,27,22,62,27,27,27,51,26,2,26,2,42,24,6,35,34,34,34,2,16,39,15,27,25,19,17,15,18,18,18,18,18,19,17,18,18,19,17,18,18,18,18,18,
25,36,45,2,2,2,2,2,2,2,2,32,1,33,20,25,25,21,26,24,2,2,42,2,2,42,53,6,63,32,35,35,35,35,35,7,2,2,32,29,21,41,20,25,21,2,36,51,38,38,60,35,32,3,62,24,2,16,19,28,29,27,27,27,27,16,52,27,27,16,52,27,27,27,27,27,
26,44,36,45,34,34,34,34,34,34,32,33,25,26,2,42,20,21,20,25,24,23,26,23,64,64,26,36,34,60,1,54,19,15,38,39,35,35,3,21,24,23,25,26,42,24,43,4,4,4,36,51,1,33,26,2,2,2,16,6,7,2,2,2,2,2,2,2,2,2,2,2,2,2,2,2,
20,26,23,36,1,1,1,1,1,1,33,25,21,20,26,2,41,2,23,64,64,65,66,67,68,68,69,43,15,33,4,4,4,4,4,36,47,37,33,23,64,26,23,65,69,26,43,4,4,4,4,4,4,70,69,26,23,26,2,6,7,2,2,2,2,2,2,2,2,2,2,2,2,2,2,2,
64,26,24,23,65,71,68,69,26,23,21,23,23,67,66,26,26,23,65,68,68,68,68,72,68,68,71,73,4,4,4,4,4,4,4,4,4,4,4,65,71,66,65,68,72,66,8,28,10,4,4,4,4,70,68,69,65,66,26,6,7,2,2,2,2,2,2,2,2,2,2,2,2,2,2,2,
68,69,64,65,68,68,68,72,66,67,69,64,65,72,68,66,64,65,68,68,74,75,76,68,68,68,68,73,4,4,4,4,4,4,4,4,4,4,4,76,68,68,68,68,68,68,6,11,11,9,37,28,10,70,68,71,74,76,66,6,7,2,2,2,2,2,2,2,2,2,2,2,2,2,2,2,
68,71,68,68,68,68,68,68,68,72,68,68,68,68,68,68,68,49,12,12,12,12,13,13,12,12,12,12,19,12,13,19,19,19,12,12,12,12,12,57,68,68,68,68,68,49,22,30,30,30,30,11,11,12,12,12,12,12,12,22,2,2,2,2,2,2,2,2,2,2,2,2,2,2,2,2,
68,68,68,68,68,68,68,68,14,14,14,14,14,14,14,14,14,17,17,18,18,18,18,18,18,18,18,18,18,18,18,18,18,18,18,18,18,18,18,18,57,68,75,76,49,18,30,2,2,2,2,2,30,18,18,18,18,18,18,52,2,2,2,2,2,2,2,2,2,2,2,2,2,2,2,2,
13,12,12,12,13,12,12,12,57,68,68,68,68,68,68,68,49,54,54,27,27,27,27,27,30,30,30,30,30,30,30,30,30,30,30,30,30,30,30,30,18,12,12,12,18,30,2,2,2,2,2,2,2,30,30,30,30,30,30,7,2,2,2,2,2,2,2,2,2,2,2,2,2,2,2,2,
18,18,18,18,18,18,18,18,51,68,68,68,68,68,68,68,51,18,77,2,2,2,2,2,2,2,2,2,2,2,2,2,2,2,2,2,2,2,2,2,30,30,30,30,30,2,2,2,2,2,2,2,2,2,2,2,2,2,2,2,2,2,2,2,2,2,2,2,2,2,2,2,2,2,2,2,
27,27,27,27,27,27,27,27,3,68,68,68,68,68,68,68,6,27,2,2,2,2,2,2,2,2,2,2,2,2,2,2,2,2,2,2,2,2,2,2,2,2,2,2,2,2,2,2,2,2,2,2,2,2,2,2,2,2,2,2,2,2,2,2,2,2,2,2,2,2,2,2,2,2,2,2,
2,2,2,2,2,2,2,40,3,68,68,68,68,68,68,68,6,7,2,2,2,2,2,2,2,2,2,2,2,2,2,2,2,2,2,2,2,2,2,2,2,2,2,2,2,2,2,2,2,2,2,2,2,2,2,2,2,2,2,2,2,2,2,2,2,2,2,2,2,2,2,2,2,2,2,2,
2,2,2,2,2,2,2,40,3,68,68,68,68,68,68,68,6,7,2,2,2,2,2,2,2,2,2,2,2,2,2,2,2,2,2,2,2,2,2,2,2,2,2,2,2,2,2,2,2,2,2,2,2,2,2,2,2,2,2,2,2,2,2,2,2,2,2,2,2,2,2,2,2,2,2,2
</data>
 </layer>
 <layer id="2" name="layer1" width="76" height="44">
  <properties>
   <property name="priority" type="bool" value="true"/>
  </properties>
  <data encoding="csv">
0,0,0,0,0,0,0,0,0,0,0,0,0,0,0,0,0,0,0,0,0,0,0,0,0,0,0,0,0,0,0,0,0,0,0,0,0,0,0,0,0,0,0,0,0,0,0,0,0,0,0,0,0,0,0,0,0,0,0,0,0,0,0,0,0,0,0,0,0,0,0,0,0,0,0,0,
0,0,0,0,0,0,0,0,0,0,0,0,0,0,0,0,0,0,0,0,0,0,0,0,0,0,0,0,0,0,0,0,0,0,0,0,0,0,0,0,0,0,0,0,0,0,0,0,0,0,0,0,0,0,0,0,0,0,0,0,0,0,0,0,0,0,0,0,0,0,0,0,0,0,0,0,
0,0,0,0,0,0,0,0,0,0,0,0,0,0,0,0,0,0,0,0,0,0,0,0,0,0,0,0,0,0,0,0,0,0,0,0,0,0,0,0,0,0,0,0,0,0,0,0,0,0,0,0,0,0,0,0,0,0,0,0,0,0,0,0,0,0,0,0,0,0,0,0,0,0,0,0,
0,0,0,0,0,0,0,0,0,0,0,0,0,0,0,0,0,0,0,0,0,0,0,0,0,0,0,0,0,0,0,0,0,0,0,0,0,0,0,0,0,0,0,0,0,0,0,0,0,0,0,0,0,0,0,0,0,0,0,0,0,0,0,0,0,0,0,0,0,0,0,0,0,0,0,0,
0,0,0,0,0,0,0,0,0,0,0,0,0,0,0,0,0,0,0,0,0,0,0,0,0,0,0,0,0,0,0,0,0,0,0,0,0,0,0,0,0,0,0,0,0,0,0,0,0,0,0,0,0,0,0,0,0,0,0,0,0,0,0,0,0,0,0,0,0,0,0,0,0,0,0,0,
0,0,0,0,0,0,0,0,0,0,0,0,0,0,0,0,0,0,0,0,0,0,0,0,0,0,0,0,0,0,0,0,0,0,0,0,0,0,0,0,0,0,0,0,0,0,0,0,0,0,0,0,0,0,0,0,0,0,0,0,0,0,0,0,0,0,0,0,0,0,0,0,0,0,0,0,
0,0,0,0,0,0,0,0,0,0,0,0,0,0,0,0,0,0,0,0,0,0,0,0,0,0,0,0,0,0,0,0,0,0,0,0,0,0,0,0,0,0,0,0,0,0,0,0,0,0,0,0,0,0,0,0,0,0,0,0,0,0,0,0,0,0,0,0,0,0,0,0,0,0,0,0,
0,0,0,0,0,0,0,0,0,0,0,0,0,0,0,0,0,0,0,0,0,0,0,0,0,0,0,0,0,0,0,0,0,0,0,0,0,0,0,0,0,0,0,0,0,0,0,0,0,0,0,0,0,0,0,0,0,0,0,0,0,0,0,0,0,0,0,0,0,0,0,0,0,0,0,0,
0,0,0,0,0,0,0,0,0,0,0,0,0,0,0,0,0,0,0,0,0,0,0,0,0,0,0,0,0,0,0,0,0,0,0,0,0,0,0,0,0,0,0,0,0,0,0,0,0,0,0,0,0,0,0,0,0,0,0,0,0,0,0,0,0,0,0,0,0,0,0,0,0,0,0,0,
0,0,0,0,0,0,0,0,0,0,0,0,0,0,0,0,0,0,0,0,0,0,0,0,0,0,0,0,0,0,0,0,0,0,0,0,0,0,0,0,0,0,0,0,0,0,0,0,0,0,0,0,0,0,0,0,0,0,0,0,0,0,0,0,0,0,0,0,0,0,0,0,0,0,0,0,
0,0,0,0,0,0,0,0,0,0,0,0,0,0,0,0,0,0,0,0,0,0,0,0,0,0,0,0,0,0,0,0,0,0,0,0,0,0,0,0,0,0,0,0,0,0,0,0,0,0,0,0,0,0,0,0,0,0,0,0,0,0,0,0,0,0,0,0,0,0,0,0,0,0,0,0,
0,0,0,0,0,0,0,0,0,0,0,0,0,0,0,0,0,0,0,0,0,0,0,0,0,0,0,0,0,0,0,0,0,0,0,0,0,0,0,0,0,0,0,0,0,0,0,0,0,0,0,0,0,0,0,0,0,0,0,0,0,0,0,0,0,0,0,0,0,0,0,0,0,0,0,0,
0,0,0,0,0,0,0,0,0,0,0,0,0,0,0,0,0,0,0,0,0,0,0,0,0,0,0,0,0,0,0,0,0,0,0,0,0,0,0,0,0,0,0,0,0,0,0,0,0,0,0,0,0,0,0,0,0,0,0,0,0,0,0,0,0,0,0,0,0,0,0,0,0,0,0,0,
0,0,0,0,0,0,0,0,0,0,0,0,0,0,0,0,0,0,0,0,0,0,0,0,0,0,0,0,0,0,0,0,0,0,0,0,0,0,0,0,0,0,0,0,0,0,0,0,0,0,0,0,0,0,0,0,0,0,0,0,0,0,0,0,0,0,0,0,0,0,0,0,0,0,0,0,
0,0,0,0,0,0,0,0,0,0,0,0,0,0,0,0,0,0,0,0,0,0,0,0,0,0,0,0,0,0,0,0,0,0,0,0,0,0,0,0,0,0,0,0,0,0,0,0,0,0,0,0,0,0,0,0,0,0,0,0,0,0,0,0,0,0,0,0,0,0,0,0,0,0,0,0,
0,0,0,0,0,0,0,0,0,0,0,0,0,0,0,0,0,0,0,0,0,0,0,0,0,0,0,0,0,0,0,0,0,0,0,0,0,0,0,0,0,0,0,47,10,8,8,29,0,0,0,0,0,0,0,0,0,0,0,0,0,0,0,0,0,0,0,0,0,0,0,0,0,0,0,0,
0,0,0,0,0,0,0,0,0,0,0,0,0,0,0,0,0,0,0,0,0,0,0,0,0,0,0,0,0,0,0,0,0,0,0,0,0,0,0,0,0,0,0,47,10,10,8,29,0,0,0,0,0,0,0,0,0,0,0,0,0,0,0,0,0,0,0,0,0,0,0,0,0,0,0,0,
0,0,0,0,0,0,0,0,0,0,0,0,0,0,0,0,0,0,0,0,0,0,0,0,0,0,0,0,0,0,0,0,0,0,0,0,0,0,0,0,0,0,0,0,0,0,0,0,0,0,0,0,0,0,0,0,0,0,0,0,0,0,0,0,0,0,0,0,0,0,0,0,0,0,0,0,
0,0,0,0,0,0,0,0,0,0,0,0,0,0,0,0,0,0,0,0,0,0,0,0,0,0,0,0,0,0,0,0,0,0,0,0,0,0,0,0,0,0,0,0,0,0,0,0,0,0,0,0,0,0,0,0,0,0,0,0,0,0,0,0,0,0,0,0,0,0,0,0,0,0,0,0,
0,0,0,0,0,0,0,0,0,0,0,0,0,0,0,0,0,0,0,0,0,0,0,0,0,0,0,0,0,0,0,0,0,0,0,0,0,0,0,0,0,0,0,0,0,0,0,0,0,0,0,0,0,0,0,0,0,0,0,0,0,0,0,0,0,0,0,0,0,0,0,0,0,0,0,0,
0,0,0,0,0,0,0,0,0,0,0,0,0,0,0,0,0,0,0,0,0,0,0,0,0,0,0,0,0,0,0,0,0,0,0,0,47,10,29,0,0,0,0,0,0,0,0,0,0,0,0,0,0,0,0,0,0,0,0,0,0,0,0,0,0,0,0,0,0,0,0,0,0,0,0,0,
0,0,0,0,0,0,0,0,0,0,0,0,0,0,0,0,0,0,0,0,0,0,0,0,0,0,0,0,0,0,0,0,0,0,0,0,47,10,29,0,0,0,0,0,0,0,0,0,0,0,0,0,0,0,0,0,0,0,0,0,0,0,0,0,0,0,0,0,0,0,0,0,0,0,0,0,
0,0,0,0,0,0,0,0,0,0,0,0,0,0,0,0,0,0,0,0,0,0,0,0,0,0,0,0,0,0,0,0,0,0,0,0,47,10,29,0,0,0,0,0,0,0,0,0,0,0,0,0,0,0,0,0,0,0,0,0,0,0,0,0,0,0,0,0,0,0,0,0,0,0,0,0,
0,0,0,0,0,0,0,0,0,0,0,0,0,0,0,0,0,0,0,0,0,0,0,0,0,0,0,0,0,0,0,0,0,0,0,0,0,0,0,0,0,0,0,0,0,0,0,0,0,0,0,0,0,0,0,0,0,0,0,0,0,0,0,0,0,0,0,0,0,0,0,0,0,0,0,0,
0,0,0,0,0,0,0,0,0,0,0,0,0,0,0,0,0,0,0,0,0,0,0,0,0,0,0,0,0,0,0,0,0,0,0,0,0,0,0,0,0,0,0,0,0,0,0,0,0,0,0,0,0,0,0,0,0,0,0,0,0,0,0,0,0,0,0,0,0,0,0,0,0,0,0,0,
0,0,0,0,0,0,0,0,0,0,0,0,0,0,0,0,0,0,0,0,0,0,0,0,0,0,0,0,0,0,0,0,0,0,0,0,0,0,0,0,0,0,0,0,0,0,0,0,0,0,0,0,0,0,0,0,0,0,0,0,0,0,0,0,0,0,0,0,0,0,0,0,0,0,0,0,
0,0,0,0,0,0,0,0,0,0,0,0,0,0,0,0,0,0,0,0,0,0,0,0,0,0,0,0,0,0,0,0,0,0,0,0,0,0,0,0,0,0,0,0,0,0,0,0,0,0,0,0,0,0,0,0,0,0,0,0,0,0,0,0,0,0,0,0,0,0,0,0,0,0,0,0,
0,0,0,0,0,0,0,0,0,0,0,0,0,0,0,0,0,0,0,0,0,0,0,0,0,0,0,0,0,0,0,0,0,0,0,0,0,0,0,0,0,0,0,0,0,0,0,0,0,0,0,0,0,0,0,0,0,0,0,0,0,0,0,0,0,0,0,0,0,0,0,0,0,0,0,0,
0,0,0,0,0,0,0,0,0,0,0,0,0,0,0,0,0,0,0,0,0,0,0,0,0,0,0,0,0,0,0,0,0,0,0,0,0,0,0,0,0,0,0,0,0,0,0,0,0,0,0,0,0,0,0,0,0,0,0,0,0,0,0,0,0,0,0,0,0,0,0,0,0,0,0,0,
0,0,0,0,0,0,0,0,0,0,0,0,0,0,0,0,0,0,0,0,0,0,0,0,0,0,0,0,0,0,0,0,0,0,0,0,0,0,0,0,0,0,0,0,0,0,0,0,0,0,0,0,0,0,0,0,0,0,0,0,0,0,0,0,0,0,0,0,0,0,0,0,0,0,0,0,
0,0,0,0,0,0,0,0,0,0,0,0,0,0,0,0,0,0,0,0,0,0,0,0,0,0,0,0,0,0,0,0,0,0,0,0,0,0,0,0,0,0,0,0,0,0,0,0,0,0,0,0,0,0,0,0,0,0,0,0,0,0,0,0,0,0,0,0,0,0,0,0,0,0,0,0,
0,0,0,0,0,0,0,0,0,0,0,0,0,0,0,0,0,0,0,0,0,0,0,0,0,0,0,0,0,0,0,0,0,0,0,0,0,0,0,0,0,0,0,0,0,0,0,0,0,0,0,0,0,0,0,0,0,0,0,0,0,0,0,0,0,0,0,0,0,0,0,0,0,0,0,0,
0,0,0,0,0,0,0,0,0,0,0,0,0,0,0,0,0,0,0,0,0,0,0,0,0,0,0,0,0,0,0,0,0,0,0,0,0,0,0,0,0,0,0,0,0,0,0,0,0,0,0,0,0,0,0,0,0,0,0,0,0,0,0,0,0,0,0,0,0,0,0,0,0,0,0,0,
0,0,0,0,0,0,0,0,0,0,0,0,0,0,0,0,0,0,0,0,0,0,0,0,0,0,0,0,0,0,0,0,0,0,0,0,0,0,0,0,0,0,0,0,0,0,0,0,0,0,0,0,0,0,0,0,0,0,0,0,0,0,0,0,0,0,0,0,0,0,0,0,0,0,0,0,
0,0,0,0,0,0,0,0,0,0,0,0,0,0,0,0,0,0,0,0,0,0,0,0,0,0,0,0,0,0,0,0,0,0,0,0,0,0,0,0,0,0,0,0,0,0,0,0,0,0,0,0,0,0,0,0,0,0,0,0,0,0,0,0,0,0,0,0,0,0,0,0,0,0,0,0,
0,0,0,0,0,0,0,0,0,0,0,0,0,0,0,0,0,0,0,0,0,0,0,0,0,0,0,0,0,0,0,0,0,0,0,0,3,10,6,0,0,0,0,0,0,0,0,0,0,0,0,0,0,0,0,0,0,0,0,0,0,0,0,0,0,0,0,0,0,0,0,0,0,0,0,0,
0,0,0,0,0,0,0,0,0,0,0,0,0,0,0,0,0,0,0,0,0,0,0,0,0,0,0,0,0,0,0,0,0,0,0,0,3,10,6,0,0,0,0,0,0,0,0,0,0,0,0,0,0,0,0,0,0,0,0,0,0,0,0,0,0,0,0,0,0,0,0,0,0,0,0,0,
0,0,0,0,0,0,0,0,0,0,0,0,0,0,0,0,0,0,0,0,0,0,0,0,0,0,0,0,0,0,0,0,0,0,0,0,0,0,0,0,0,0,0,0,0,0,0,0,0,0,0,0,0,0,0,0,0,0,0,0,0,0,0,0,0,0,0,0,0,0,0,0,0,0,0,0,
0,0,0,0,0,0,0,0,0,0,0,0,0,0,0,0,0,0,0,0,0,0,0,0,0,0,0,0,0,0,0,0,0,0,0,0,0,0,0,0,0,0,0,0,0,0,0,0,0,0,0,0,0,0,0,0,0,0,0,0,0,0,0,0,0,0,0,0,0,0,0,0,0,0,0,0,
0,0,0,0,0,0,0,0,0,0,0,0,0,0,0,0,0,0,0,0,0,0,0,0,0,0,0,0,0,0,0,0,0,0,0,0,0,0,0,0,0,0,0,0,0,0,0,0,0,0,0,0,0,0,0,0,0,0,0,0,0,0,0,0,0,0,0,0,0,0,0,0,0,0,0,0,
0,0,0,0,0,0,0,0,0,0,0,0,0,0,0,0,0,0,0,0,0,0,0,0,0,0,0,0,0,0,0,0,0,0,0,0,0,0,0,0,0,0,0,0,0,0,0,0,0,0,0,0,0,0,0,0,0,0,0,0,0,0,0,0,0,0,0,0,0,0,0,0,0,0,0,0,
0,0,0,0,0,0,0,0,0,0,0,0,0,0,0,0,0,0,0,0,0,0,0,0,0,0,0,0,0,0,0,0,0,0,0,0,0,0,0,0,0,0,0,0,0,0,0,0,0,0,0,0,0,0,0,0,0,0,0,0,0,0,0,0,0,0,0,0,0,0,0,0,0,0,0,0,
0,0,0,0,0,0,0,0,0,0,0,0,0,0,0,0,0,0,0,0,0,0,0,0,0,0,0,0,0,0,0,0,0,0,0,0,0,0,0,0,0,0,0,0,0,0,0,0,0,0,0,0,0,0,0,0,0,0,0,0,0,0,0,0,0,0,0,0,0,0,0,0,0,0,0,0,
0,0,0,0,0,0,0,0,0,0,0,0,0,0,0,0,0,0,0,0,0,0,0,0,0,0,0,0,0,0,0,0,0,0,0,0,0,0,0,0,0,0,0,0,0,0,0,0,0,0,0,0,0,0,0,0,0,0,0,0,0,0,0,0,0,0,0,0,0,0,0,0,0,0,0,0
</data>
 </layer>
</map>
