<?xml version="1.0" encoding="UTF-8"?>
<map version="1.10" tiledversion="1.11.2" orientation="orthogonal" renderorder="right-down" width="96" height="29" tilewidth="16" tileheight="16" infinite="0" nextlayerid="3" nextobjectid="1">
 <tileset firstgid="1" name="tiles" tilewidth="16" tileheight="16" tilecount="102" columns="11">
  <image source="cf.png" width="176" height="160"/>
  <tile id="0">
   <objectgroup draworder="index" id="2">
    <object id="1" x="0" y="0">
     <polygon points="0,0 16,0 16,16 0,16"/>
    </object>
   </objectgroup>
  </tile>
  <tile id="77">
   <objectgroup draworder="index" id="2">
    <object id="1" x="0" y="0">
     <polygon points="0,0 16,0 16,16 0,16"/>
    </object>
   </objectgroup>
  </tile>
  <tile id="78">
   <objectgroup draworder="index" id="2">
    <object id="1" x="0" y="0">
     <polygon points="0,0 16,0 16,16 0,16"/>
    </object>
   </objectgroup>
  </tile>
  <tile id="79">
   <objectgroup draworder="index" id="2">
    <object id="1" x="0" y="0">
     <polygon points="0,0 16,0 16,16 0,16"/>
    </object>
   </objectgroup>
  </tile>
  <tile id="5">
   <objectgroup draworder="index" id="2">
    <object id="1" x="0" y="0">
     <polygon points="0,0 16,0 16,16 0,16"/>
    </object>
   </objectgroup>
  </tile>
  <tile id="80">
   <objectgroup draworder="index" id="2">
    <object id="1" x="0" y="0">
     <polygon points="0,0 16,0 16,16 0,16"/>
    </object>
   </objectgroup>
  </tile>
  <tile id="81">
   <objectgroup draworder="index" id="2">
    <object id="1" x="0" y="0">
     <polygon points="0,0 16,0 16,16 0,16"/>
    </object>
   </objectgroup>
  </tile>
  <tile id="82">
   <objectgroup draworder="index" id="2">
    <object id="1" x="0" y="0">
     <polygon points="0,0 16,0 16,16 0,16"/>
    </object>
   </objectgroup>
  </tile>
  <tile id="37">
   <objectgroup draworder="index" id="2">
    <object id="1" x="0" y="0">
     <polygon points="0,0 16,0 16,16 0,16"/>
    </object>
   </objectgroup>
  </tile>
  <tile id="44">
   <objectgroup draworder="index" id="2">
    <object id="1" x="0" y="0">
     <polygon points="0,0 16,0 16,16 0,16"/>
    </object>
   </objectgroup>
  </tile>
  <tile id="33">
   <objectgroup draworder="index" id="2">
    <object id="1" x="0" y="0">
     <polygon points="0,0 16,0 16,16 0,16"/>
    </object>
   </objectgroup>
  </tile>
  <tile id="31">
   <objectgroup draworder="index" id="2">
    <object id="1" x="0" y="0">
     <polygon points="0,0 16,0 16,16 0,16"/>
    </object>
   </objectgroup>
  </tile>
  <tile id="35">
   <objectgroup draworder="index" id="2">
    <object id="1" x="0" y="0">
     <polygon points="0,0 16,0 16,16 0,16"/>
    </object>
   </objectgroup>
  </tile>
  <tile id="32">
   <objectgroup draworder="index" id="2">
    <object id="1" x="0" y="0">
     <polygon points="0,0 16,0 16,16 0,16"/>
    </object>
   </objectgroup>
  </tile>
  <tile id="6">
   <objectgroup draworder="index" id="2">
    <object id="1" x="0" y="0">
     <polygon points="0,0 16,0 16,16 0,16"/>
    </object>
   </objectgroup>
  </tile>
  <tile id="45">
   <objectgroup draworder="index" id="2">
    <object id="1" x="0" y="0">
     <properties>
      <property name="type" type="int" value="1"/>
     </properties>
     <polygon points="0,0 16,0 16,8 0,8"/>
    </object>
   </objectgroup>
  </tile>
  <tile id="7">
   <objectgroup draworder="index" id="2">
    <object id="1" x="0" y="0">
     <polygon points="0,0 16,0 16,16 0,16"/>
    </object>
   </objectgroup>
  </tile>
  <tile id="36">
   <objectgroup draworder="index" id="2">
    <object id="1" x="0" y="0">
     <polygon points="0,0 16,0 16,16 0,16"/>
    </object>
   </objectgroup>
  </tile>
  <tile id="8">
   <objectgroup draworder="index" id="2">
    <object id="1" x="0" y="0">
     <polygon points="0,0 16,0 16,16 0,16"/>
    </object>
   </objectgroup>
  </tile>
  <tile id="9">
   <objectgroup draworder="index" id="2">
    <object id="1" x="0" y="0">
     <polygon points="0,0 16,0 16,16 0,16"/>
    </object>
   </objectgroup>
  </tile>
  <tile id="28">
   <objectgroup draworder="index" id="2">
    <object id="1" x="0" y="0">
     <polygon points="0,0 16,0 16,16 0,16"/>
    </object>
   </objectgroup>
  </tile>
  <tile id="26">
   <objectgroup draworder="index" id="2">
    <object id="1" x="0" y="0">
     <polygon points="0,0 16,0 16,16 0,16"/>
    </object>
   </objectgroup>
  </tile>
  <tile id="46">
   <objectgroup draworder="index" id="2">
    <object id="1" x="0" y="0">
     <polygon points="0,0 16,0 16,16 0,16"/>
    </object>
   </objectgroup>
  </tile>
  <tile id="38">
   <objectgroup draworder="index" id="2">
    <object id="1" x="0" y="0">
     <polygon points="0,0 16,0 16,16 0,16"/>
    </object>
   </objectgroup>
  </tile>
  <tile id="11">
   <objectgroup draworder="index" id="2">
    <object id="1" x="0" y="0">
     <polygon points="0,0 16,0 16,16 0,16"/>
    </object>
   </objectgroup>
  </tile>
  <tile id="48">
   <objectgroup draworder="index" id="2">
    <object id="1" x="0" y="0">
     <polygon points="0,0 16,0 16,16 0,16"/>
    </object>
   </objectgroup>
  </tile>
  <tile id="30">
   <objectgroup draworder="index" id="2">
    <object id="1" x="0" y="0">
     <polygon points="0,0 16,0 16,16 0,16"/>
    </object>
   </objectgroup>
  </tile>
  <tile id="21">
   <objectgroup draworder="index" id="2">
    <object id="1" x="0" y="0">
     <polygon points="0,0 16,0 16,16 0,16"/>
    </object>
   </objectgroup>
  </tile>
  <tile id="39">
   <objectgroup draworder="index" id="2">
    <object id="1" x="0" y="0">
     <polygon points="0,0 16,0 16,16 0,16"/>
    </object>
   </objectgroup>
  </tile>
  <tile id="2">
   <objectgroup draworder="index" id="2">
    <object id="1" x="0" y="0">
     <polygon points="0,0 16,0 16,16 0,16"/>
    </object>
   </objectgroup>
  </tile>
  <tile id="17">
   <objectgroup draworder="index" id="2">
    <object id="1" x="0" y="0">
     <polygon points="0,0 16,0 16,16 0,16"/>
    </object>
   </objectgroup>
  </tile>
  <tile id="18">
   <objectgroup draworder="index" id="2">
    <object id="1" x="0" y="0">
     <polygon points="0,0 16,0 16,16 0,16"/>
    </object>
   </objectgroup>
  </tile>
  <tile id="14">
   <objectgroup draworder="index" id="2">
    <object id="1" x="0" y="0">
     <polygon points="0,0 16,0 16,16 0,16"/>
    </object>
   </objectgroup>
  </tile>
  <tile id="27">
   <objectgroup draworder="index" id="2">
    <object id="1" x="0" y="0">
     <polygon points="0,0 16,0 16,16 0,16"/>
    </object>
   </objectgroup>
  </tile>
  <tile id="53">
   <objectgroup draworder="index" id="2">
    <object id="1" x="0" y="0">
     <polygon points="0,0 16,0 16,16 0,16"/>
    </object>
   </objectgroup>
  </tile>
  <tile id="59">
   <objectgroup draworder="index" id="2">
    <object id="1" x="0" y="0">
     <polygon points="0,0 16,0 16,16 0,16"/>
    </object>
   </objectgroup>
  </tile>
  <tile id="34">
   <objectgroup draworder="index" id="2">
    <object id="1" x="0" y="0">
     <polygon points="0,0 16,0 16,16 0,16"/>
    </object>
   </objectgroup>
  </tile>
  <tile id="15">
   <objectgroup draworder="index" id="2">
    <object id="1" x="0" y="0">
     <polygon points="0,0 16,0 16,16 0,16"/>
    </object>
   </objectgroup>
  </tile>
  <tile id="50">
   <objectgroup draworder="index" id="2">
    <object id="1" x="0" y="0">
     <polygon points="0,0 16,0 16,16 0,16"/>
    </object>
   </objectgroup>
  </tile>
  <tile id="51">
   <objectgroup draworder="index" id="2">
    <object id="1" x="0" y="0">
     <polygon points="0,0 16,0 16,16 0,16"/>
    </object>
   </objectgroup>
  </tile>
  <tile id="29">
   <objectgroup draworder="index" id="2">
    <object id="1" x="0" y="0">
     <polygon points="0,0 16,0 16,16 0,16"/>
    </object>
   </objectgroup>
  </tile>
  <tile id="55">
   <objectgroup draworder="index" id="2">
    <object id="1" x="0" y="0">
     <polygon points="0,0 16,0 16,16 0,16"/>
    </object>
   </objectgroup>
  </tile>
  <tile id="61">
   <objectgroup draworder="index" id="2">
    <object id="1" x="0" y="0">
     <polygon points="0,0 16,0 16,16 0,16"/>
    </object>
   </objectgroup>
  </tile>
  <tile id="12">
   <objectgroup draworder="index" id="2">
    <object id="1" x="0" y="0">
     <polygon points="0,0 16,0 16,16 0,16"/>
    </object>
   </objectgroup>
  </tile>
  <tile id="16">
   <objectgroup draworder="index" id="2">
    <object id="1" x="0" y="0">
     <polygon points="0,0 16,0 16,16 0,16"/>
    </object>
   </objectgroup>
  </tile>
  <tile id="10">
   <objectgroup draworder="index" id="2">
    <object id="1" x="0" y="0">
     <polygon points="0,0 16,0 16,16 0,16"/>
    </object>
   </objectgroup>
  </tile>
  <tile id="93">
   <properties>
    <property name="spikes" type="int" value="1"/>
   </properties>
  </tile>
  <tile id="94">
   <objectgroup draworder="index" id="2">
    <object id="1" x="0" y="0">
     <polygon points="0,0 16,0 16,16 0,16"/>
    </object>
   </objectgroup>
  </tile>
  <tile id="95">
   <objectgroup draworder="index" id="2">
    <object id="1" x="0" y="0">
     <polygon points="0,0 16,0 16,16 0,16"/>
    </object>
   </objectgroup>
  </tile>
  <tile id="96">
   <objectgroup draworder="index" id="2">
    <object id="1" x="0" y="0">
     <polygon points="0,0 16,0 16,16 0,16"/>
    </object>
   </objectgroup>
  </tile>
 </tileset>
 <layer id="2" name="layer0" width="96" height="29">
  <properties>
   <property name="collision" type="bool" value="true"/>
  </properties>
  <data encoding="csv">
26,20,25,21,24,20,25,25,26,78,79,79,79,79,79,80,2,24,23,64,65,78,81,82,82,82,82,82,83,79,81,82,82,83,80,23,21,20,26,2,23,25,26,20,25,21,20,25,25,26,20,25,21,20,21,2,2,6,38,38,38,38,45,34,34,32,1,1,1,1,1,45,2,2,2,2,2,2,2,2,2,2,2,2,2,2,2,2,2,2,2,2,2,2,2,2,
2,23,64,64,25,21,26,23,65,78,79,79,79,79,79,80,23,64,67,68,68,78,84,85,85,85,85,85,78,79,84,85,85,86,87,21,53,2,20,25,21,23,20,25,25,21,53,20,25,20,25,21,2,23,64,26,42,6,4,4,4,4,36,1,1,33,25,21,20,25,21,6,7,2,2,2,2,2,2,2,2,2,2,2,2,2,2,2,2,2,2,2,2,2,2,2,
64,67,68,68,66,65,69,65,68,78,79,79,79,79,79,80,65,68,72,68,68,78,84,85,85,85,85,85,78,79,84,85,85,86,88,2,2,2,23,25,25,25,21,2,23,21,20,26,41,23,65,69,64,65,72,66,26,6,4,4,4,4,4,4,4,5,23,25,25,26,23,6,7,2,2,2,2,2,2,2,2,2,2,2,2,2,2,2,2,2,2,2,2,2,2,2,
68,72,68,68,68,68,71,68,68,90,85,85,85,85,85,87,68,68,68,68,68,90,84,85,85,85,85,85,78,79,84,85,85,86,80,46,46,25,21,2,26,20,25,25,65,69,26,20,25,65,68,71,68,68,68,68,66,6,4,4,4,4,8,37,9,10,21,2,42,20,25,6,7,2,2,2,2,2,2,2,2,2,2,2,2,2,2,2,2,2,2,2,2,2,2,2,
68,68,68,68,68,68,68,68,91,92,85,85,85,85,85,88,93,68,68,68,91,92,84,85,85,85,85,85,78,79,79,79,79,79,80,26,2,20,25,26,20,25,64,65,68,72,69,64,65,68,68,68,68,74,75,8,37,29,9,9,37,37,29,27,27,47,9,37,39,2,2,6,7,2,2,2,2,2,2,2,2,2,2,2,2,2,2,2,2,2,2,2,2,2,2,2,
12,12,12,12,12,12,12,12,12,12,12,12,12,12,12,12,12,12,12,12,78,79,79,79,80,85,85,85,78,79,79,79,79,80,2,20,25,26,2,24,49,12,12,12,12,12,12,12,12,31,8,9,9,9,9,22,1,1,1,1,39,34,34,34,34,45,2,40,3,2,2,6,7,2,2,2,2,2,2,2,2,2,2,2,2,2,2,2,2,2,2,2,2,2,2,2,
18,18,18,18,18,18,18,18,19,19,19,19,19,19,19,19,19,18,18,18,78,79,79,79,80,85,85,85,78,79,79,79,79,80,26,24,53,20,26,8,31,18,15,28,54,18,15,18,54,3,33,4,4,4,4,4,4,4,4,4,36,1,1,1,1,60,7,32,33,2,2,36,45,34,34,35,34,35,34,2,2,2,2,2,2,2,2,2,2,2,2,2,2,2,2,2,
27,27,27,27,27,27,27,27,16,51,51,51,51,51,51,51,52,27,27,27,78,79,79,79,80,85,85,85,78,83,80,23,25,24,20,25,23,21,20,36,1,38,1,38,1,1,38,38,1,33,4,4,4,4,4,4,4,4,4,4,4,4,4,4,4,6,32,3,23,64,26,24,36,38,1,38,1,1,38,45,2,2,2,2,2,2,2,2,2,2,2,2,2,2,2,2,
2,2,2,2,2,2,2,2,40,78,79,79,79,79,79,80,7,2,2,40,78,79,79,79,80,85,85,85,85,86,80,25,25,25,21,42,24,2,2,43,4,4,4,4,4,4,4,4,4,4,4,4,4,4,4,4,4,4,10,10,37,37,8,10,4,6,32,3,65,68,69,64,43,4,4,4,4,4,4,6,7,2,2,2,2,2,2,2,2,2,2,2,2,2,2,2,
2,2,2,2,2,2,2,2,40,78,79,79,79,79,79,80,7,2,2,40,78,79,79,79,80,46,85,85,85,86,80,24,20,25,2,2,2,8,37,37,9,9,9,9,9,37,37,37,37,37,37,37,10,4,4,4,4,8,33,33,30,56,36,3,4,36,38,33,68,68,71,68,73,4,4,4,4,4,4,6,7,2,2,2,2,2,2,2,2,2,2,2,2,2,2,2,
2,2,2,2,2,2,2,2,40,78,79,79,79,79,79,80,45,2,2,32,78,79,79,80,85,85,85,85,85,86,80,53,23,64,64,25,8,22,62,27,27,30,32,1,1,1,45,27,27,27,27,32,33,4,4,4,4,36,45,35,34,35,35,3,4,4,4,70,68,68,68,68,73,12,12,13,13,4,4,6,7,2,2,2,2,2,2,2,2,2,2,2,2,2,2,2,
2,2,2,2,2,2,2,2,40,78,79,79,79,79,79,80,38,1,38,1,78,79,80,85,85,85,85,85,85,86,80,26,67,68,68,66,6,62,2,2,40,32,33,2,2,2,36,1,1,1,1,33,4,4,4,4,4,4,36,1,1,1,1,12,12,12,13,13,12,13,13,13,12,17,19,17,31,4,4,6,7,2,2,2,2,2,2,2,2,2,2,2,2,2,2,2,
2,2,2,2,2,2,2,2,40,78,79,79,79,79,79,80,85,85,85,85,78,79,85,85,85,46,85,85,85,86,87,67,72,8,37,37,22,2,2,2,40,3,2,2,2,2,2,4,4,4,4,4,4,4,4,4,4,4,4,4,4,4,4,19,19,19,19,18,18,18,18,18,18,52,27,16,3,4,4,6,7,2,2,2,2,2,2,2,2,2,2,2,2,2,2,2,
2,2,2,2,2,2,2,2,40,78,81,82,82,82,83,80,85,85,85,85,90,84,85,85,85,85,85,85,85,86,88,68,68,6,52,16,52,2,2,2,40,3,2,2,2,2,2,4,4,4,4,4,4,4,4,4,4,4,4,4,4,4,4,27,27,31,27,27,27,27,27,27,27,2,2,32,29,4,4,6,7,2,2,2,2,2,2,2,2,2,2,2,2,2,2,2,
2,2,2,2,2,2,2,2,40,78,84,2,2,2,86,87,85,85,85,85,92,84,85,85,85,85,85,85,85,86,8,37,37,22,7,2,2,2,2,2,40,11,9,10,46,46,8,37,37,9,9,9,37,37,37,9,9,9,37,10,4,4,4,2,2,6,7,2,2,2,2,2,2,2,32,3,4,4,4,6,7,2,2,2,2,2,2,2,2,2,2,2,2,2,2,2,
2,2,2,2,2,2,2,2,40,78,84,2,2,2,86,88,85,85,85,85,78,84,8,10,85,85,85,85,85,8,22,30,27,27,7,2,2,32,34,34,45,16,27,3,2,2,6,52,32,1,1,1,1,1,1,62,27,27,30,3,4,4,4,2,2,6,34,35,35,35,35,32,1,38,38,33,4,4,4,6,7,2,2,2,2,2,2,2,2,2,2,2,2,2,2,2,
2,2,2,2,2,2,2,2,40,78,84,2,2,2,86,80,8,37,37,37,37,37,22,11,9,9,9,9,37,22,30,2,2,2,2,2,40,39,1,1,60,35,34,3,2,2,36,1,33,94,94,94,94,94,94,1,45,2,2,56,1,38,38,2,2,36,1,1,38,1,1,33,2,2,43,4,4,4,4,6,7,2,2,2,2,2,2,2,2,2,2,2,2,2,2,2,
2,2,2,2,2,2,2,2,40,78,84,2,2,2,86,80,6,62,30,27,30,30,30,30,27,27,30,30,27,30,2,2,2,2,32,35,32,3,94,94,36,1,1,33,2,2,94,94,94,2,2,2,2,2,2,94,1,45,2,32,1,94,94,2,2,94,94,94,94,94,94,2,2,2,43,4,4,4,8,22,7,2,2,2,2,2,2,2,2,2,2,2,2,2,2,2,
2,2,2,2,2,2,2,2,40,78,84,2,2,2,86,80,36,45,35,35,35,35,35,32,35,35,35,35,35,35,35,35,35,35,39,1,1,33,2,2,94,94,94,94,2,2,2,2,2,2,2,2,2,2,2,2,94,1,1,1,94,2,2,2,2,2,2,2,2,2,2,2,2,2,43,4,4,8,22,52,2,2,2,2,2,2,2,2,2,2,2,2,2,2,2,2,
2,2,2,2,2,2,2,2,40,78,84,2,2,2,86,79,80,36,1,38,1,38,1,38,1,38,1,38,1,38,1,38,1,38,33,94,94,2,2,2,2,2,2,2,2,2,2,2,2,2,2,2,2,2,2,2,2,94,94,94,2,2,2,2,2,2,2,2,2,2,2,2,2,8,37,37,37,22,52,2,2,2,2,2,2,2,2,2,2,2,2,2,2,2,2,2,
2,2,2,2,2,2,2,2,40,78,84,2,2,2,86,79,80,2,2,2,2,2,2,2,2,2,2,2,2,2,2,2,94,94,2,2,2,2,2,2,2,2,2,2,2,2,2,2,2,2,2,2,2,2,2,2,2,2,2,2,2,2,2,2,2,2,2,2,2,2,2,2,2,6,52,27,16,52,2,2,2,2,2,2,2,2,2,2,2,2,2,2,2,2,2,2,
2,2,2,2,2,2,2,2,40,78,84,2,2,2,86,79,80,2,2,2,2,2,2,2,2,2,2,2,2,2,2,2,2,2,2,2,2,2,2,2,2,2,2,2,2,2,2,2,2,2,2,2,2,2,2,2,2,2,2,2,2,2,2,8,9,10,2,2,2,2,2,2,8,22,2,2,2,2,2,2,2,2,2,2,2,2,2,2,2,2,2,2,2,2,2,2,
2,2,2,2,2,2,2,2,40,78,84,2,2,2,86,79,80,2,2,2,2,2,2,2,2,2,2,2,2,2,2,2,2,2,2,2,2,2,2,2,2,2,2,2,2,2,2,2,2,2,2,2,2,2,2,2,2,2,2,2,2,2,2,6,22,3,2,2,2,2,2,2,6,62,2,2,2,2,2,2,2,2,2,2,2,2,2,2,2,2,2,2,2,2,2,2,
2,2,2,2,2,2,2,2,40,78,84,2,2,2,86,2,87,2,2,2,2,2,2,2,2,2,2,2,2,2,2,2,2,2,2,2,2,2,2,2,2,2,2,2,2,2,2,2,2,2,2,2,2,2,2,2,2,2,2,2,2,2,2,6,30,3,2,2,2,2,2,2,6,7,2,2,2,2,2,2,2,2,2,2,2,2,2,2,2,2,2,2,2,2,2,2,
2,2,2,2,2,2,2,2,40,78,84,2,2,2,86,2,88,2,2,2,2,2,2,2,2,2,2,2,2,2,2,2,2,2,2,2,2,2,2,2,2,2,2,2,2,2,2,2,2,2,2,2,2,2,2,2,2,2,2,2,37,2,2,6,2,47,8,10,2,2,8,37,22,7,2,2,2,2,2,2,2,2,2,2,2,2,2,2,2,2,2,2,2,2,2,2,
2,2,2,2,2,2,2,2,40,78,95,96,96,96,97,79,80,46,46,46,2,2,2,2,2,2,2,2,22,2,2,2,2,2,2,2,2,8,10,2,2,2,2,2,2,2,2,2,2,2,2,2,8,10,2,2,2,37,2,2,30,2,2,6,7,40,22,3,2,2,6,62,27,2,2,2,2,2,2,2,2,2,2,2,2,2,2,2,2,2,2,2,2,2,2,2,
2,2,2,2,2,2,2,2,40,78,79,79,79,79,79,79,80,2,2,2,2,2,2,22,2,2,2,2,30,2,2,2,2,22,2,2,2,6,11,13,12,13,10,2,2,2,2,2,8,13,12,13,22,3,2,2,2,30,2,2,2,2,2,6,7,2,30,3,2,2,6,7,2,2,2,2,2,2,2,2,2,2,2,2,2,2,2,2,2,2,2,2,2,2,2,2,
2,2,2,2,2,2,2,2,40,78,79,79,79,79,79,79,80,2,2,2,2,2,2,30,2,2,2,2,2,2,2,2,2,30,2,2,2,29,30,27,30,27,11,2,2,2,2,2,22,27,30,27,30,11,2,2,2,2,2,2,2,2,2,6,7,2,40,3,2,2,6,7,2,2,2,2,2,2,2,2,2,2,2,2,2,2,2,2,2,2,2,2,2,2,2,2,
2,2,2,2,2,2,2,2,40,78,79,79,79,79,79,79,80,2,2,2,2,2,2,2,2,2,2,2,2,2,2,2,2,2,2,2,2,2,2,2,2,2,2,2,2,2,2,2,2,2,2,2,2,2,2,2,2,2,2,2,2,2,2,6,7,2,40,3,2,2,6,7,2,2,2,2,2,2,2,2,2,2,2,2,2,2,2,2,2,2,2,2,2,2,2,2
</data>
 </layer>
 <layer id="1" name="layer1" width="96" height="29">
  <properties>
   <property name="priority" type="bool" value="true"/>
  </properties>
  <data encoding="csv">
0,0,0,0,0,0,0,0,0,78,79,79,79,79,79,80,0,0,0,0,0,78,81,82,82,82,82,82,83,79,81,82,82,83,80,0,0,0,0,0,0,0,0,0,0,0,0,0,0,0,0,0,0,0,0,0,0,0,0,0,0,0,0,0,0,0,0,0,0,0,0,0,0,0,0,0,0,0,0,0,0,0,0,0,0,0,0,0,0,0,0,0,0,0,0,0,
0,0,0,0,0,0,0,0,0,78,79,79,79,79,79,80,0,0,0,0,0,78,89,0,0,0,0,0,78,79,89,0,0,102,100,0,0,0,0,0,0,0,0,0,0,0,0,0,0,0,0,0,0,0,0,0,0,0,0,0,0,0,0,0,0,0,0,0,0,0,0,0,0,0,0,0,0,0,0,0,0,0,0,0,0,0,0,0,0,0,0,0,0,0,0,0,
0,0,0,0,0,0,0,0,0,78,79,79,79,79,79,80,0,0,0,0,0,78,89,0,0,0,0,0,78,79,89,0,0,102,101,0,0,0,0,0,0,0,0,0,0,0,0,0,0,0,0,0,0,0,0,0,0,0,0,0,0,0,0,0,0,0,0,0,0,0,0,0,0,0,0,0,0,0,0,0,0,0,0,0,0,0,0,0,0,0,0,0,0,0,0,0,
0,0,0,0,0,0,0,0,0,98,79,79,79,79,79,100,0,0,0,0,0,98,89,0,0,0,0,0,78,79,89,0,0,102,80,0,0,0,0,0,0,0,0,0,0,0,0,0,0,0,0,0,0,0,0,0,0,0,0,0,0,0,0,0,0,0,0,0,0,0,0,0,0,0,0,0,0,0,0,0,0,0,0,0,0,0,0,0,0,0,0,0,0,0,0,0,
0,0,0,0,0,0,0,0,0,99,79,79,79,79,79,101,0,0,0,0,0,99,89,0,0,0,0,0,78,79,79,79,79,79,80,0,0,0,0,0,0,0,0,0,0,0,0,0,0,0,0,0,0,0,0,0,0,0,0,0,0,0,0,0,0,0,0,0,0,0,0,0,0,0,0,0,0,0,0,0,0,0,0,0,0,0,0,0,0,0,0,0,0,0,0,0,
12,12,12,12,12,12,12,12,12,12,12,12,12,12,12,12,12,12,12,12,78,79,79,79,80,0,0,0,78,79,79,79,79,80,0,0,0,0,0,0,0,0,0,0,0,0,0,0,0,0,0,0,0,0,0,0,0,0,0,0,0,0,0,0,0,0,0,0,0,0,0,0,0,0,0,0,0,0,0,0,0,0,0,0,0,0,0,0,0,0,0,0,0,0,0,0,
0,0,0,0,0,0,0,0,0,0,0,0,0,0,0,0,0,0,0,0,78,79,79,79,80,0,0,0,78,79,79,79,79,80,0,0,0,0,0,0,0,0,0,0,0,0,0,0,0,0,0,0,0,0,0,0,0,0,0,0,0,0,0,0,0,0,0,0,0,0,0,0,0,0,0,0,0,0,0,0,0,0,0,0,0,0,0,0,0,0,0,0,0,0,0,0,
0,0,0,0,0,0,0,0,0,0,0,0,0,0,0,0,0,0,0,0,78,79,79,79,80,0,0,0,78,83,80,0,0,0,0,0,0,0,0,0,0,0,0,0,0,0,0,0,0,0,0,0,0,0,0,0,0,0,0,0,0,0,0,0,0,0,0,0,0,0,0,0,0,0,0,0,0,0,0,0,0,0,0,0,0,0,0,0,0,0,0,0,0,0,0,0,
0,0,0,0,0,0,0,0,0,78,79,79,79,79,79,80,0,0,0,0,78,79,79,79,80,0,0,0,0,102,80,0,0,0,0,0,0,0,0,0,0,0,0,0,0,0,0,0,0,0,0,0,0,0,0,0,0,0,0,0,0,0,0,0,0,0,0,0,0,0,0,0,0,0,0,0,0,0,0,0,0,0,0,0,0,0,0,0,0,0,0,0,0,0,0,0,
0,0,0,0,0,0,0,0,0,78,79,79,79,79,79,80,0,0,0,0,78,79,79,79,80,0,0,0,0,102,80,0,0,0,0,0,0,0,0,0,0,0,0,0,0,0,0,0,0,0,0,0,0,0,0,0,0,0,0,0,0,0,0,0,0,0,0,0,0,0,0,0,0,0,0,0,0,0,0,0,0,0,0,0,0,0,0,0,0,0,0,0,0,0,0,0,
0,0,0,0,0,0,0,0,0,78,79,79,79,79,79,80,0,0,0,0,78,79,79,80,0,0,0,0,0,102,80,0,0,0,0,0,0,0,0,0,0,0,32,1,1,1,45,0,0,0,0,0,0,0,0,0,0,0,0,0,0,0,0,0,0,0,0,0,0,0,0,0,0,0,0,0,0,0,0,0,0,0,0,0,0,0,0,0,0,0,0,0,0,0,0,0,
0,0,0,0,0,0,0,0,0,78,79,79,79,79,79,80,0,0,0,0,78,79,80,0,0,0,0,0,0,102,80,0,0,0,0,0,0,0,0,0,0,32,33,0,0,0,36,1,1,1,1,33,0,0,0,0,0,0,36,1,1,1,1,12,0,0,0,0,0,0,0,0,0,0,0,0,0,0,0,0,0,0,0,0,0,0,0,0,0,0,0,0,0,0,0,0,
0,0,0,0,0,0,0,0,0,78,79,79,79,79,79,80,0,0,0,0,78,79,0,0,0,0,0,0,0,102,100,0,0,0,0,0,0,0,0,0,0,3,0,0,0,0,0,3,10,6,0,0,0,0,0,0,0,0,0,0,47,8,29,19,0,0,0,0,0,0,0,0,0,0,0,0,0,0,0,0,0,0,0,0,0,0,0,0,0,0,0,0,0,0,0,0,
0,0,0,0,0,0,0,0,0,78,81,82,82,82,83,80,0,0,0,0,98,89,0,0,0,0,0,0,0,102,101,0,0,0,0,0,0,0,0,0,0,3,0,0,0,0,0,3,10,6,0,0,0,0,0,0,0,0,0,0,47,8,29,27,0,0,0,0,0,0,0,0,0,0,0,0,0,0,0,0,0,0,0,0,0,0,0,0,0,0,0,0,0,0,0,0,
0,0,0,0,0,0,0,0,0,78,89,0,0,0,102,100,0,0,0,0,99,89,0,0,0,0,0,0,0,102,8,37,37,0,0,0,0,0,0,0,0,11,9,10,0,0,8,37,37,9,0,0,0,0,0,0,0,0,0,10,47,8,29,0,0,0,0,0,0,0,0,0,0,0,0,0,0,0,0,0,0,0,0,0,0,0,0,0,0,0,0,0,0,0,0,0,
0,0,0,0,0,0,0,0,0,78,89,0,0,0,102,101,0,0,0,0,78,89,8,10,0,0,0,0,0,8,22,0,0,0,0,0,0,0,0,0,0,0,0,3,0,0,6,0,0,0,0,0,0,0,0,0,0,0,0,3,47,8,29,0,0,0,0,0,0,0,0,0,0,0,0,0,0,0,0,0,0,0,0,0,0,0,0,0,0,0,0,0,0,0,0,0,
0,0,0,0,0,0,0,0,0,78,89,0,0,0,102,80,8,37,37,37,37,37,22,11,9,9,9,9,37,22,0,0,0,0,0,0,0,0,0,0,0,0,0,3,0,0,36,0,0,0,0,0,0,0,0,0,0,0,0,56,1,38,38,0,0,0,0,0,0,0,0,0,0,0,0,0,0,0,0,0,0,0,0,0,0,0,0,0,0,0,0,0,0,0,0,0,
0,0,0,0,0,0,0,0,0,78,89,0,0,0,102,80,0,0,0,0,0,0,0,0,0,0,0,0,0,0,0,0,0,0,0,0,0,0,0,0,0,0,0,33,0,0,0,0,0,0,0,0,0,0,0,0,0,0,0,0,0,0,0,0,0,0,0,0,0,0,0,0,0,0,0,0,0,0,0,0,0,0,0,0,0,0,0,0,0,0,0,0,0,0,0,0,
0,0,0,0,0,0,0,0,0,78,89,0,0,0,102,80,0,0,0,0,0,0,0,0,0,0,0,0,0,0,0,0,0,0,0,0,0,0,0,0,0,0,0,0,0,0,0,0,0,0,0,0,0,0,0,0,0,0,0,0,0,0,0,0,0,0,0,0,0,0,0,0,0,0,0,0,0,0,0,0,0,0,0,0,0,0,0,0,0,0,0,0,0,0,0,0,
0,0,0,0,0,0,0,0,0,78,89,0,0,0,102,79,80,0,0,0,0,0,0,0,0,0,0,0,0,0,0,0,0,0,0,0,0,0,0,0,0,0,0,0,0,0,0,0,0,0,0,0,0,0,0,0,0,0,0,0,0,0,0,0,0,0,0,0,0,0,0,0,0,0,0,0,0,0,0,0,0,0,0,0,0,0,0,0,0,0,0,0,0,0,0,0,
0,0,0,0,0,0,0,0,0,78,89,0,0,0,102,79,80,0,0,0,0,0,0,0,0,0,0,0,0,0,0,0,0,0,0,0,0,0,0,0,0,0,0,0,0,0,0,0,0,0,0,0,0,0,0,0,0,0,0,0,0,0,0,0,0,0,0,0,0,0,0,0,0,0,0,0,0,0,0,0,0,0,0,0,0,0,0,0,0,0,0,0,0,0,0,0,
0,0,0,0,0,0,0,0,0,78,89,0,0,0,102,79,80,0,0,0,0,0,0,0,0,0,0,0,0,0,0,0,0,0,0,0,0,0,0,0,0,0,0,0,0,0,0,0,0,0,0,0,0,0,0,0,0,0,0,0,0,0,0,0,0,0,0,0,0,0,0,0,0,0,0,0,0,0,0,0,0,0,0,0,0,0,0,0,0,0,0,0,0,0,0,0,
0,0,0,0,0,0,0,0,0,78,89,0,0,0,102,79,80,0,0,0,0,0,0,0,0,0,0,0,0,0,0,0,0,0,0,0,0,0,0,0,0,0,0,0,0,0,0,0,0,0,0,0,0,0,0,0,0,0,0,0,0,0,0,0,0,0,0,0,0,0,0,0,0,0,0,0,0,0,0,0,0,0,0,0,0,0,0,0,0,0,0,0,0,0,0,0,
0,0,0,0,0,0,0,0,0,78,89,0,0,0,102,79,0,0,0,0,0,0,0,0,0,0,0,0,0,0,0,0,0,0,0,0,0,0,0,0,0,0,0,0,0,0,0,0,0,0,0,0,0,0,0,0,0,0,0,0,0,0,0,0,0,0,0,0,0,0,0,0,0,0,0,0,0,0,0,0,0,0,0,0,0,0,0,0,0,0,0,0,0,0,0,0,
0,0,0,0,0,0,0,0,0,78,89,0,0,0,102,79,0,0,0,0,0,0,0,0,0,0,0,0,0,0,0,0,0,0,0,0,0,0,0,0,0,0,0,0,0,0,0,0,0,0,0,0,0,0,0,0,0,0,0,0,0,0,0,0,0,0,0,0,0,0,0,0,0,0,0,0,0,0,0,0,0,0,0,0,0,0,0,0,0,0,0,0,0,0,0,0,
0,0,0,0,0,0,0,0,0,78,95,96,96,96,97,79,80,0,0,0,0,0,0,0,0,0,0,0,0,0,0,0,0,0,0,0,0,0,0,0,0,0,0,0,0,0,0,0,0,0,0,0,0,0,0,0,0,0,0,0,0,0,0,0,0,0,0,0,0,0,0,0,0,0,0,0,0,0,0,0,0,0,0,0,0,0,0,0,0,0,0,0,0,0,0,0,
0,0,0,0,0,0,0,0,0,78,79,79,79,79,79,79,80,0,0,0,0,0,0,0,0,0,0,0,0,0,0,0,0,0,0,0,0,0,0,0,0,0,0,0,0,0,0,0,0,0,0,0,0,0,0,0,0,0,0,0,0,0,0,0,0,0,0,0,0,0,0,0,0,0,0,0,0,0,0,0,0,0,0,0,0,0,0,0,0,0,0,0,0,0,0,0,
0,0,0,0,0,0,0,0,0,78,79,79,79,79,79,79,80,0,0,0,0,0,0,0,0,0,0,0,0,0,0,0,0,0,0,0,0,0,0,0,0,0,0,0,0,0,0,0,0,0,0,0,0,0,0,0,0,0,0,0,0,0,0,0,0,0,0,0,0,0,0,0,0,0,0,0,0,0,0,0,0,0,0,0,0,0,0,0,0,0,0,0,0,0,0,0,
0,0,0,0,0,0,0,0,0,78,79,79,79,79,79,79,80,0,0,0,0,0,0,0,0,0,0,0,0,0,0,0,0,0,0,0,0,0,0,0,0,0,0,0,0,0,0,0,0,0,0,0,0,0,0,0,0,0,0,0,0,0,0,0,0,0,0,0,0,0,0,0,0,0,0,0,0,0,0,0,0,0,0,0,0,0,0,0,0,0,0,0,0,0,0,0
</data>
 </layer>
</map>
