<?xml version="1.0" encoding="UTF-8"?>
<map version="1.10" tiledversion="1.11.2" orientation="orthogonal" renderorder="right-down" width="127" height="30" tilewidth="16" tileheight="16" infinite="0" nextlayerid="3" nextobjectid="1">
 <tileset firstgid="1" name="tiles" tilewidth="16" tileheight="16" tilecount="120" columns="11">
  <image source="gi.png" width="176" height="176"/>
  <tile id="0">
   <objectgroup draworder="index" id="2">
    <object id="1" x="0" y="0">
     <polygon points="0,0 16,0 16,16 0,16"/>
    </object>
   </objectgroup>
  </tile>
  <tile id="2">
   <objectgroup draworder="index" id="2">
    <object id="1" x="0" y="0">
     <polygon points="0,0 16,0 16,16 0,16"/>
    </object>
   </objectgroup>
  </tile>
  <tile id="3">
   <objectgroup draworder="index" id="2">
    <object id="1" x="0" y="0">
     <polygon points="0,0 16,0 16,16 0,16"/>
    </object>
   </objectgroup>
  </tile>
  <tile id="4">
   <objectgroup draworder="index" id="2">
    <object id="1" x="0" y="0">
     <polygon points="0,0 16,0 16,16 0,16"/>
    </object>
   </objectgroup>
  </tile>
  <tile id="16">
   <objectgroup draworder="index" id="2">
    <object id="1" x="0" y="0">
     <polygon points="0,0 16,0 16,16 0,16"/>
    </object>
   </objectgroup>
  </tile>
  <tile id="17">
   <objectgroup draworder="index" id="2">
    <object id="1" x="0" y="0">
     <polygon points="0,0 16,0 16,16 0,16"/>
    </object>
   </objectgroup>
  </tile>
  <tile id="18">
   <objectgroup draworder="index" id="2">
    <object id="1" x="0" y="0">
     <polygon points="0,0 16,0 16,16 0,16"/>
    </object>
   </objectgroup>
  </tile>
  <tile id="28">
   <objectgroup draworder="index" id="2">
    <object id="1" x="0" y="16">
     <properties>
      <property name="type" type="int" value="1"/>
     </properties>
     <polygon points="0,0 16,-8 16,0"/>
    </object>
   </objectgroup>
  </tile>
  <tile id="29">
   <objectgroup draworder="index" id="2">
    <object id="1" x="0" y="8">
     <properties>
      <property name="type" type="int" value="1"/>
     </properties>
     <polygon points="0,0 16,-8 16,0 0,8"/>
    </object>
   </objectgroup>
  </tile>
  <tile id="30">
   <objectgroup draworder="index" id="2">
    <object id="1" x="0" y="0">
     <properties>
      <property name="type" type="int" value="1"/>
     </properties>
     <polygon points="0,0 16,0 16,8 0,8"/>
    </object>
   </objectgroup>
  </tile>
  <tile id="32">
   <objectgroup draworder="index" id="2">
    <object id="1" x="0" y="0">
     <properties>
      <property name="type" type="int" value="1"/>
     </properties>
     <polygon points="0,0 16,0 0,8"/>
    </object>
   </objectgroup>
  </tile>
  <tile id="35">
   <objectgroup draworder="index" id="2">
    <object id="1" x="0" y="0">
     <polygon points="0,0 16,0 16,16 0,16"/>
    </object>
   </objectgroup>
  </tile>
  <tile id="36">
   <properties>
    <property name="spikes" type="int" value="2"/>
   </properties>
  </tile>
  <tile id="37">
   <objectgroup draworder="index" id="2">
    <object id="1" x="0" y="0">
     <polygon points="0,0 16,0 16,16 0,16"/>
    </object>
   </objectgroup>
  </tile>
  <tile id="38">
   <objectgroup draworder="index" id="2">
    <object id="1" x="0" y="0">
     <polygon points="0,0 16,0 16,16 0,16"/>
    </object>
   </objectgroup>
  </tile>
  <tile id="39">
   <objectgroup draworder="index" id="2">
    <object id="1" x="0" y="0">
     <polygon points="0,0 16,0 16,16 0,16"/>
    </object>
   </objectgroup>
  </tile>
  <tile id="40">
   <objectgroup draworder="index" id="2">
    <object id="1" x="0" y="0">
     <polygon points="0,0 16,0 16,16 0,16"/>
    </object>
   </objectgroup>
  </tile>
  <tile id="41">
   <objectgroup draworder="index" id="2">
    <object id="1" x="0" y="0">
     <polygon points="0,0 16,0 16,16 0,16"/>
    </object>
   </objectgroup>
  </tile>
  <tile id="44">
   <objectgroup draworder="index" id="2">
    <object id="1" x="0" y="0">
     <polygon points="0,0 16,8 16,16 0,16"/>
    </object>
   </objectgroup>
  </tile>
  <tile id="45">
   <objectgroup draworder="index" id="2">
    <object id="1" x="0" y="8">
     <polygon points="0,0 16,8 0,8"/>
    </object>
   </objectgroup>
  </tile>
  <tile id="46">
   <objectgroup draworder="index" id="2">
    <object id="1" x="0" y="0">
     <polygon points="0,0 16,0 16,16 0,16"/>
    </object>
   </objectgroup>
  </tile>
  <tile id="47">
   <objectgroup draworder="index" id="2">
    <object id="1" x="0" y="0">
     <polygon points="0,0 16,0 16,16 0,16"/>
    </object>
   </objectgroup>
  </tile>
  <tile id="48">
   <objectgroup draworder="index" id="2">
    <object id="1" x="0" y="0">
     <polygon points="0,0 16,0 16,16 0,16"/>
    </object>
   </objectgroup>
  </tile>
  <tile id="49">
   <objectgroup draworder="index" id="2">
    <object id="1" x="0" y="0">
     <polygon points="0,0 16,0 16,16 0,16"/>
    </object>
   </objectgroup>
  </tile>
  <tile id="50">
   <objectgroup draworder="index" id="2">
    <object id="1" x="0" y="0">
     <polygon points="0,0 16,0 16,16 0,16"/>
    </object>
   </objectgroup>
  </tile>
  <tile id="51">
   <objectgroup draworder="index" id="2">
    <object id="1" x="0" y="0">
     <polygon points="0,0 16,0 16,16 0,16"/>
    </object>
   </objectgroup>
  </tile>
  <tile id="52">
   <objectgroup draworder="index" id="2">
    <object id="1" x="0" y="0">
     <polygon points="0,0 16,0 16,16 0,16"/>
    </object>
   </objectgroup>
  </tile>
  <tile id="53">
   <objectgroup draworder="index" id="2">
    <object id="1" x="0" y="0">
     <polygon points="0,0 16,0 16,16 0,16"/>
    </object>
   </objectgroup>
  </tile>
  <tile id="54">
   <objectgroup draworder="index" id="2">
    <object id="1" x="0" y="0">
     <polygon points="0,0 16,0 16,16 0,16"/>
    </object>
   </objectgroup>
  </tile>
  <tile id="55">
   <objectgroup draworder="index" id="2">
    <object id="1" x="0" y="0">
     <polygon points="0,0 16,0 16,16 0,16"/>
    </object>
   </objectgroup>
  </tile>
  <tile id="56">
   <objectgroup draworder="index" id="2">
    <object id="1" x="0" y="0">
     <polygon points="0,0 16,0 16,16 0,16"/>
    </object>
   </objectgroup>
  </tile>
  <tile id="57">
   <objectgroup draworder="index" id="2">
    <object id="1" x="0" y="0">
     <polygon points="0,0 16,0 16,16 0,16"/>
    </object>
   </objectgroup>
  </tile>
  <tile id="58">
   <objectgroup draworder="index" id="2">
    <object id="1" x="0" y="0">
     <polygon points="0,0 16,0 16,16 0,16"/>
    </object>
   </objectgroup>
  </tile>
  <tile id="59">
   <objectgroup draworder="index" id="2">
    <object id="1" x="0" y="0">
     <polygon points="0,0 16,0 16,16 0,16"/>
    </object>
   </objectgroup>
  </tile>
  <tile id="60">
   <objectgroup draworder="index" id="2">
    <object id="1" x="0" y="0">
     <polygon points="0,0 16,0 16,16 0,16"/>
    </object>
   </objectgroup>
  </tile>
  <tile id="61">
   <objectgroup draworder="index" id="2">
    <object id="1" x="0" y="0">
     <properties>
      <property name="type" type="int" value="1"/>
     </properties>
     <polygon points="0,0 16,8 16,16 0,8"/>
    </object>
   </objectgroup>
  </tile>
  <tile id="62">
   <objectgroup draworder="index" id="2">
    <object id="1" x="0" y="8">
     <properties>
      <property name="type" type="int" value="1"/>
     </properties>
     <polygon points="0,0 16,8 0,8"/>
    </object>
   </objectgroup>
  </tile>
  <tile id="63">
   <objectgroup draworder="index" id="2">
    <object id="1" x="0" y="0">
     <polygon points="0,0 16,0 16,16 0,16"/>
    </object>
   </objectgroup>
  </tile>
  <tile id="66">
   <objectgroup draworder="index" id="2">
    <object id="1" x="0" y="0">
     <polygon points="0,0 16,0 16,16 0,16"/>
    </object>
   </objectgroup>
  </tile>
  <tile id="67">
   <objectgroup draworder="index" id="2">
    <object id="1" x="0" y="0">
     <polygon points="0,0 16,0 16,16 0,16"/>
    </object>
   </objectgroup>
  </tile>
  <tile id="68">
   <objectgroup draworder="index" id="2">
    <object id="1" x="0" y="0">
     <polygon points="0,0 16,0 16,16 0,16"/>
    </object>
   </objectgroup>
  </tile>
  <tile id="69">
   <objectgroup draworder="index" id="2">
    <object id="1" x="0" y="0">
     <properties>
      <property name="type" type="int" value="1"/>
     </properties>
     <polygon points="0,0 16,0 16,8"/>
    </object>
   </objectgroup>
  </tile>
  <tile id="70">
   <objectgroup draworder="index" id="2">
    <object id="1" x="0" y="0">
     <polygon points="0,0 16,0 16,16 0,16"/>
    </object>
   </objectgroup>
  </tile>
  <tile id="71">
   <objectgroup draworder="index" id="2">
    <object id="1" x="0" y="0">
     <polygon points="0,0 16,0 16,16 0,16"/>
    </object>
   </objectgroup>
  </tile>
  <tile id="72">
   <objectgroup draworder="index" id="2">
    <object id="1" x="0" y="0">
     <polygon points="0,0 16,0 16,16 0,16"/>
    </object>
   </objectgroup>
  </tile>
  <tile id="73">
   <objectgroup draworder="index" id="2">
    <object id="1" x="0" y="0">
     <polygon points="0,0 16,0 16,16 0,16"/>
    </object>
   </objectgroup>
  </tile>
  <tile id="74">
   <objectgroup draworder="index" id="2">
    <object id="1" x="0" y="0">
     <polygon points="0,0 16,0 16,16 0,16"/>
    </object>
   </objectgroup>
  </tile>
  <tile id="75">
   <objectgroup draworder="index" id="2">
    <object id="1" x="0" y="0">
     <polygon points="0,0 16,0 16,16 0,16"/>
    </object>
   </objectgroup>
  </tile>
  <tile id="76">
   <objectgroup draworder="index" id="2">
    <object id="1" x="0" y="0">
     <polygon points="0,0 16,0 16,16 0,16"/>
    </object>
   </objectgroup>
  </tile>
  <tile id="77">
   <objectgroup draworder="index" id="2">
    <object id="1" x="0" y="0">
     <polygon points="0,0 16,0 16,16 0,16"/>
    </object>
   </objectgroup>
  </tile>
  <tile id="78">
   <objectgroup draworder="index" id="2">
    <object id="1" x="0" y="0">
     <polygon points="0,0 16,0 16,16 0,16"/>
    </object>
   </objectgroup>
  </tile>
  <tile id="79">
   <objectgroup draworder="index" id="2">
    <object id="1" x="0" y="0">
     <polygon points="0,0 16,0 16,16 0,16"/>
    </object>
   </objectgroup>
  </tile>
  <tile id="81">
   <objectgroup draworder="index" id="2">
    <object id="1" x="0" y="0">
     <polygon points="0,0 16,0 16,16 0,16"/>
    </object>
   </objectgroup>
  </tile>
  <tile id="84">
   <objectgroup draworder="index" id="2">
    <object id="1" x="0" y="0">
     <polygon points="0,0 16,0 16,16 0,16"/>
    </object>
   </objectgroup>
  </tile>
  <tile id="88">
   <objectgroup draworder="index" id="2">
    <object id="1" x="0" y="0">
     <polygon points="0,0 16,0 16,16 0,16"/>
    </object>
   </objectgroup>
  </tile>
  <tile id="89">
   <objectgroup draworder="index" id="2">
    <object id="1" x="0" y="0">
     <polygon points="0,0 16,0 16,16 0,16"/>
    </object>
   </objectgroup>
  </tile>
  <tile id="94">
   <objectgroup draworder="index" id="2">
    <object id="1" x="0" y="0">
     <polygon points="0,0 16,0 16,16 0,16"/>
    </object>
   </objectgroup>
  </tile>
  <tile id="95">
   <objectgroup draworder="index" id="2">
    <object id="1" x="0" y="0">
     <polygon points="0,0 16,0 16,16 0,16"/>
    </object>
   </objectgroup>
  </tile>
  <tile id="96">
   <properties>
    <property name="spikes" type="int" value="0"/>
   </properties>
  </tile>
  <tile id="105">
   <objectgroup draworder="index" id="2">
    <object id="1" x="0" y="0">
     <properties>
      <property name="type" type="int" value="4"/>
     </properties>
     <polygon points="0,0 16,0 16,16 0,16"/>
    </object>
   </objectgroup>
  </tile>
  <tile id="106">
   <objectgroup draworder="index" id="2">
    <object id="1" x="0" y="0">
     <properties>
      <property name="type" type="int" value="1"/>
     </properties>
     <polygon points="0,0 16,0 16,16 0,16"/>
    </object>
   </objectgroup>
  </tile>
  <tile id="107">
   <objectgroup draworder="index" id="2">
    <object id="1" x="0" y="0">
     <properties>
      <property name="type" type="int" value="1"/>
     </properties>
     <polygon points="0,0 16,0 16,16 0,16"/>
    </object>
   </objectgroup>
  </tile>
 </tileset>
 <layer id="1" name="layer0" width="127" height="30">
  <data encoding="csv">
6,7,7,8,6,7,9,6,7,7,8,7,7,3,4,4,5,2,6,7,8,6,7,8,6,9,2,9,2,10,8,6,9,2,2,6,8,10,3,4,4,5,6,7,8,6,6,7,8,6,7,8,6,7,11,6,9,2,9,2,3,4,4,5,6,7,8,6,6,7,8,11,3,4,4,5,11,6,7,6,7,8,7,8,6,7,7,6,8,3,4,4,4,4,4,4,4,4,4,4,4,4,0,4,4,4,4,4,4,4,4,4,4,4,4,4,4,4,5,3,4,4,4,4,4,4,4,
6,12,6,7,8,6,7,7,7,8,9,2,10,3,4,4,5,10,6,8,10,9,13,2,6,7,7,8,7,8,9,2,6,7,7,7,7,8,3,4,4,5,14,11,8,6,7,8,6,7,8,6,7,8,6,7,6,7,7,7,3,4,4,5,2,14,11,2,2,12,12,2,15,32,32,16,7,8,10,9,2,10,12,9,2,12,2,10,2,3,4,4,4,4,4,4,4,4,4,4,4,4,4,17,18,18,18,18,18,18,18,18,18,18,18,19,4,4,5,3,4,4,4,4,4,4,4,
6,8,9,8,10,9,12,7,9,6,7,7,8,3,4,4,5,7,8,2,6,7,7,8,6,2,9,2,10,8,2,10,9,10,2,6,11,11,15,20,21,16,22,9,6,9,10,8,7,8,6,7,8,2,10,2,6,8,6,7,3,4,4,5,14,22,9,2,10,6,7,9,23,32,32,24,2,6,8,6,7,8,10,6,9,2,10,8,2,3,4,4,4,4,4,4,4,4,4,4,4,4,4,5,2,9,2,10,9,6,7,9,2,2,2,3,4,4,5,3,4,4,4,4,4,4,4,
25,10,9,10,7,8,2,2,10,26,25,6,8,3,4,4,5,2,2,2,2,2,6,7,7,8,6,7,8,7,7,8,6,8,9,10,12,2,23,20,21,24,2,6,7,7,8,2,13,10,9,9,10,10,8,9,9,9,2,2,3,4,4,5,22,2,6,7,8,2,2,6,27,32,32,28,7,8,2,2,13,6,7,8,6,7,8,2,2,3,4,4,17,18,18,18,18,18,18,18,19,4,4,5,9,2,10,8,6,7,8,6,9,2,10,3,4,4,5,3,4,4,4,4,4,4,4,
6,7,7,7,8,6,9,9,9,10,8,10,8,3,4,4,5,2,2,2,2,2,2,2,2,2,2,2,2,2,2,2,6,7,7,8,6,9,27,20,21,28,7,8,9,2,2,10,10,9,6,7,7,8,2,6,7,8,9,10,3,32,32,16,13,2,2,2,29,30,31,31,3,4,4,5,108,108,108,108,108,108,108,108,108,108,108,108,108,3,4,4,5,32,32,32,32,32,32,32,3,20,21,16,6,7,8,2,9,2,10,9,6,7,8,3,4,4,5,3,4,4,4,4,4,4,4,
2,9,2,2,9,2,6,7,7,8,2,8,2,3,4,4,5,2,2,2,2,2,2,2,2,2,2,2,2,2,2,2,2,2,2,2,2,7,107,107,107,107,2,2,6,7,7,8,8,6,9,2,2,10,9,2,7,6,7,8,3,32,32,24,2,2,29,30,33,2,7,8,3,4,4,5,14,22,2,2,2,2,2,2,2,2,34,35,2,3,4,4,5,32,32,32,32,32,32,32,3,20,21,28,2,2,2,9,6,7,8,6,7,8,8,3,4,4,5,36,36,36,36,36,36,36,36,
2,6,7,7,10,8,2,2,12,2,2,13,2,3,4,4,5,2,2,2,2,2,2,2,2,2,2,2,2,2,37,38,39,40,1,40,1,41,42,43,44,38,39,45,46,2,2,13,9,2,6,7,7,8,6,7,8,9,13,2,3,32,32,28,29,30,33,2,13,6,9,2,3,4,4,5,22,2,2,2,2,2,2,2,2,2,2,34,35,3,4,4,5,32,32,32,32,32,32,32,3,32,32,5,47,47,2,6,9,6,7,8,9,6,8,3,4,4,5,18,18,18,18,18,18,18,18,
9,10,2,6,8,2,2,9,10,7,7,9,2,3,4,4,5,2,2,2,2,2,2,2,2,2,2,2,2,2,37,48,49,50,50,50,50,50,51,2,2,48,49,52,53,45,46,2,6,7,8,2,13,6,9,6,7,9,2,2,3,32,32,5,33,2,12,9,2,10,6,7,3,4,4,5,2,2,2,2,2,2,2,2,2,2,2,2,34,3,4,4,5,32,32,32,32,32,32,32,3,32,32,5,43,13,25,2,6,7,7,8,6,9,2,10,2,2,2,2,12,2,13,2,2,2,2,
6,8,9,10,9,9,2,10,8,12,2,6,9,3,32,32,16,2,2,2,2,2,2,2,2,2,2,2,2,2,37,48,55,49,49,49,49,49,51,2,2,48,55,49,50,52,53,45,46,2,2,2,2,2,6,7,8,6,7,7,3,32,32,5,9,2,2,6,7,8,10,12,3,4,4,5,2,2,2,2,2,2,2,2,2,2,2,2,2,15,32,32,16,32,32,32,32,32,32,32,3,32,32,5,2,2,2,13,47,47,26,9,25,6,7,8,13,9,2,10,2,2,2,2,2,2,9,
2,9,6,8,2,6,7,7,25,2,13,12,6,3,32,32,24,2,2,2,2,2,2,2,2,2,2,2,2,2,37,48,55,2,2,2,2,56,57,2,2,58,59,2,49,60,52,61,53,1,40,42,62,63,13,6,9,13,2,10,3,106,106,5,6,9,2,9,2,10,8,2,3,4,4,5,2,2,2,2,2,2,2,2,2,2,2,2,2,27,32,32,28,32,32,32,32,32,32,32,21,32,32,5,26,9,2,10,2,12,2,6,8,10,26,9,10,6,7,12,2,26,9,2,10,25,6,
10,6,9,2,9,2,6,7,7,8,2,10,2,3,32,32,28,29,30,31,31,31,2,2,2,2,2,2,2,2,37,48,55,2,2,2,64,51,65,2,2,66,48,55,2,49,50,67,68,60,69,57,10,70,62,63,6,7,7,7,15,32,32,5,2,6,7,6,7,8,6,7,3,4,4,5,2,2,2,2,2,2,2,2,2,2,2,2,2,3,4,4,5,32,32,3,4,5,32,32,21,32,32,5,8,6,7,8,10,6,9,2,47,47,2,6,7,8,10,25,2,2,6,7,8,2,12,
8,2,6,7,7,7,8,9,6,7,7,8,7,3,32,32,5,33,10,9,9,10,10,8,2,2,2,2,2,2,37,48,55,2,2,2,64,51,65,2,2,66,48,55,2,2,49,2,2,71,51,7,8,6,9,70,62,63,2,2,23,32,32,16,2,12,2,2,2,2,2,10,3,4,4,5,2,2,2,2,2,2,2,2,2,2,2,2,2,3,4,4,72,36,36,73,4,72,36,36,73,4,4,5,9,10,6,7,7,8,6,7,7,6,7,8,6,7,8,2,2,2,2,13,2,2,2,
2,6,7,7,8,9,6,7,7,8,10,6,7,3,32,32,5,7,8,2,6,7,8,12,10,9,2,2,2,2,37,48,55,2,2,2,64,74,42,2,2,38,75,55,2,2,2,2,2,64,51,9,2,2,6,7,8,70,62,63,27,32,32,24,2,10,9,2,10,11,35,8,3,4,4,5,2,2,2,2,2,2,2,2,2,2,2,2,2,3,4,4,17,18,18,18,18,18,18,18,19,4,4,5,6,7,8,10,10,8,2,6,8,2,10,3,4,4,5,36,36,36,36,36,36,36,36,
2,10,10,10,7,6,7,8,2,6,9,7,8,3,32,32,5,9,13,10,8,12,9,2,10,7,7,9,2,10,37,48,55,2,2,76,76,56,51,2,2,48,76,76,76,76,76,76,76,76,51,42,7,9,2,12,6,7,8,70,3,32,32,28,7,8,6,7,8,10,11,35,3,4,4,5,14,11,2,2,2,2,2,2,2,2,2,2,2,3,4,4,5,32,32,32,32,32,32,32,3,4,4,5,13,2,6,7,8,2,2,13,6,7,8,3,4,4,5,18,18,18,18,18,18,18,18,
10,8,7,7,25,13,2,10,9,2,34,35,2,3,32,32,5,6,7,8,9,2,6,7,8,6,8,6,7,8,37,48,55,2,64,77,78,78,57,2,2,58,79,78,78,79,78,79,78,77,57,51,2,6,9,2,2,10,7,9,3,32,32,5,62,63,2,6,7,9,2,34,3,4,4,5,22,2,2,2,2,2,2,2,2,2,2,2,2,15,32,32,16,32,32,32,32,32,32,32,3,4,4,5,2,2,2,2,2,2,2,2,2,2,2,3,4,4,5,3,4,4,4,4,4,4,4,
8,25,2,2,10,7,9,2,6,7,8,34,35,3,32,32,5,13,6,7,7,7,8,12,9,10,2,6,8,6,37,48,80,80,80,51,81,81,65,2,2,66,81,81,81,81,81,81,81,48,55,82,42,2,6,7,7,8,13,6,3,32,32,5,2,70,62,63,13,6,7,8,15,32,32,16,2,2,2,2,2,2,2,2,2,2,2,2,2,27,32,32,28,32,32,32,32,32,32,32,3,4,4,5,2,2,2,2,2,2,2,2,2,2,2,3,4,4,5,3,4,4,4,4,4,4,4,
12,10,9,10,9,10,83,9,2,2,84,2,44,3,106,106,5,9,13,10,7,9,10,10,8,9,13,10,2,10,37,58,60,60,60,57,81,81,65,2,2,66,81,85,85,85,85,85,81,48,55,59,51,2,2,12,2,2,2,2,3,32,32,5,9,2,12,70,62,63,2,2,23,32,32,24,2,2,2,2,2,2,2,2,2,2,2,2,2,3,4,4,5,32,32,32,32,32,32,32,3,4,4,5,2,2,2,2,2,2,2,2,2,2,2,3,4,4,5,3,4,4,4,4,4,4,4,
2,2,6,8,10,86,87,88,83,9,10,83,83,15,20,21,16,83,7,8,2,6,7,8,8,6,7,7,7,8,10,66,81,81,81,81,81,81,65,2,2,66,81,82,79,79,79,89,81,48,55,90,51,47,47,47,47,47,47,47,3,32,32,5,6,9,2,10,13,70,62,63,27,32,32,28,2,2,2,2,2,2,2,2,2,2,2,2,2,3,4,4,5,32,32,3,4,5,32,32,3,4,4,5,2,2,2,2,2,2,2,2,2,2,2,3,4,4,5,3,4,4,4,4,4,4,4,
10,9,2,10,86,91,91,87,91,92,86,91,87,23,20,21,24,91,92,7,7,8,2,6,7,7,9,10,8,6,7,66,81,81,81,81,81,81,65,2,2,66,81,81,81,81,81,81,81,48,55,51,58,57,43,6,7,8,2,44,3,106,106,5,2,6,7,8,9,10,13,70,3,4,4,5,2,2,2,2,2,2,2,2,2,2,2,11,35,3,4,4,72,36,36,73,4,72,36,36,73,4,4,5,9,12,10,2,2,2,2,12,11,35,2,3,4,4,5,3,4,4,4,4,4,4,4,
86,92,83,86,91,91,91,91,93,94,91,91,91,27,20,21,28,91,91,92,9,2,10,9,2,2,6,8,12,2,2,66,81,81,81,81,81,81,65,2,2,66,81,81,81,81,81,81,81,48,55,51,10,9,2,10,2,2,2,10,15,32,32,5,10,10,8,6,7,7,8,10,3,4,4,5,2,2,2,2,2,2,2,2,2,2,2,2,34,3,4,4,17,18,18,18,18,18,18,18,19,4,4,5,6,7,8,9,26,9,2,10,10,34,35,3,4,4,5,3,4,4,4,4,4,4,4,
1,1,1,1,1,1,1,1,1,1,1,1,1,1,1,1,1,1,1,1,1,1,1,1,1,1,1,1,1,1,1,1,52,52,52,40,85,85,85,85,85,85,85,42,108,108,108,38,85,75,55,51,8,6,7,8,9,10,13,8,23,32,32,5,7,8,9,2,2,10,6,7,3,4,4,5,2,2,2,2,2,2,2,2,2,2,2,2,2,15,32,32,16,32,32,32,32,32,32,32,15,32,32,16,9,2,10,7,7,6,7,8,8,13,34,3,4,4,5,3,4,4,4,4,4,4,4,
50,50,50,50,50,50,50,50,50,50,50,50,50,50,50,50,50,50,50,50,50,50,50,50,50,50,50,50,50,50,50,50,95,95,95,50,95,95,95,95,95,95,95,51,81,81,81,58,74,59,80,51,7,8,10,6,7,7,8,2,27,32,32,5,9,2,96,3,5,96,2,2,3,4,4,5,2,2,2,2,2,2,2,2,2,2,2,2,2,27,32,32,28,32,32,32,32,32,32,32,23,32,32,24,6,7,8,9,2,10,9,2,10,2,2,3,4,4,5,3,4,4,4,4,4,4,4,
49,49,49,49,49,49,49,49,49,49,49,49,49,49,49,49,49,49,49,49,49,49,49,49,49,49,49,49,49,49,49,49,2,2,2,49,2,2,2,2,2,2,2,51,81,81,81,81,81,58,82,57,9,2,6,7,8,2,29,30,3,4,4,5,6,96,96,3,5,96,96,2,15,32,32,5,2,2,2,2,2,2,2,2,2,2,2,2,2,3,4,4,5,32,32,32,32,32,32,32,27,32,32,28,2,10,2,6,7,8,6,7,9,2,10,3,4,4,5,3,4,4,4,4,4,4,4,
2,2,2,2,2,2,2,2,2,2,2,2,2,2,2,2,2,2,2,2,2,2,2,2,2,2,2,2,2,2,2,2,2,2,2,2,2,2,2,2,2,2,2,51,81,81,81,81,81,81,65,2,6,7,8,13,29,30,33,2,3,4,4,5,96,96,96,3,5,96,96,96,3,32,32,5,2,3,5,2,2,3,4,5,2,2,3,5,2,3,4,4,5,32,32,3,32,5,32,32,3,4,4,5,9,2,10,2,2,13,2,2,6,7,8,3,4,4,5,3,4,4,4,4,4,4,4,
2,2,2,2,2,2,2,2,2,2,2,2,2,2,2,2,2,2,2,2,2,2,2,2,2,2,2,2,2,2,2,2,2,2,2,2,2,2,2,2,2,2,64,51,81,81,81,81,81,81,65,2,2,2,29,30,33,2,12,2,3,4,4,5,96,96,96,3,5,96,96,96,3,32,32,72,36,73,72,36,36,73,4,72,36,36,73,72,36,73,4,4,72,36,36,73,32,72,36,36,73,4,4,5,6,7,8,2,3,4,5,2,13,2,2,3,4,4,5,3,4,4,4,4,4,4,4,
2,2,2,2,2,2,2,2,2,2,2,2,2,2,2,2,2,2,2,2,2,2,2,2,2,2,2,2,2,2,2,2,2,2,2,2,2,2,2,2,2,2,64,74,85,85,85,85,85,85,85,85,85,42,33,2,2,2,2,2,3,4,4,5,3,4,5,3,5,3,4,5,3,32,32,32,32,32,32,32,32,32,32,32,32,32,32,32,32,32,32,32,32,32,32,32,32,4,4,4,4,4,4,5,97,97,97,97,3,4,5,97,97,97,97,3,4,4,5,3,4,4,4,4,4,4,4,
2,2,2,2,2,2,2,2,2,2,2,2,2,2,2,2,2,2,2,2,2,2,2,2,2,2,2,2,2,2,2,2,2,2,2,2,2,2,2,2,2,2,64,49,95,95,95,95,95,95,95,95,95,51,97,97,97,97,97,97,3,4,4,5,3,4,5,3,5,3,4,5,3,4,4,17,18,18,18,18,18,18,18,18,18,18,18,18,18,19,4,4,4,4,4,4,4,4,4,4,4,4,4,5,1,1,1,1,1,1,1,1,1,1,1,3,4,4,5,3,4,4,4,4,4,4,4,
2,2,2,2,2,2,2,2,2,2,2,2,2,2,2,2,2,2,2,2,2,2,2,2,2,2,2,2,2,2,2,2,2,2,2,2,2,2,2,2,2,2,2,2,2,2,2,2,2,2,2,2,64,74,1,1,1,1,1,1,1,1,1,1,1,1,1,1,1,1,1,1,1,1,1,1,1,1,1,1,1,1,1,1,1,1,1,1,1,3,4,4,4,4,4,4,4,4,4,4,4,4,4,5,50,50,50,50,50,50,50,50,50,50,50,3,4,4,5,3,4,4,4,4,4,4,4,
2,2,2,2,2,2,2,2,2,2,2,2,2,2,2,2,2,2,2,2,2,2,2,2,2,2,2,2,2,2,2,2,2,2,2,2,2,2,2,2,2,2,2,2,2,2,2,2,2,2,2,2,64,68,50,50,50,50,50,50,50,50,50,50,50,50,50,50,50,50,50,50,50,50,50,50,50,50,50,50,50,50,50,50,50,50,50,50,50,3,4,4,4,4,4,4,4,4,4,4,4,4,4,5,95,95,95,95,95,95,95,95,95,95,95,3,4,4,5,3,4,4,4,4,4,4,4,
2,2,2,2,2,2,2,2,2,2,2,2,2,2,2,2,2,2,2,2,2,2,2,2,2,2,2,2,2,2,2,2,2,2,2,2,2,2,2,2,2,2,2,2,2,2,2,2,2,2,2,2,2,64,49,49,49,49,49,49,49,49,49,49,49,49,49,49,49,95,95,95,49,49,49,49,49,49,49,49,49,49,49,49,49,49,49,49,49,3,4,4,4,4,4,4,4,4,4,4,4,4,4,5,55,2,2,2,2,2,2,2,2,2,64,3,4,4,5,3,4,4,4,4,4,4,4
</data>
 </layer>
 <layer id="2" name="layer1" width="127" height="30">
  <properties>
   <property name="priority" type="bool" value="true"/>
  </properties>
  <data encoding="csv">
0,0,0,0,0,0,0,0,0,0,0,0,0,3,4,4,5,0,0,0,0,0,0,0,0,0,0,0,0,0,0,0,0,0,0,0,0,0,3,4,4,5,0,0,0,0,0,0,0,0,0,0,0,0,0,0,0,0,0,0,3,4,4,5,0,0,0,0,0,0,0,0,3,4,4,5,0,0,0,0,0,0,0,0,0,0,0,0,0,3,4,4,4,4,4,4,4,4,4,4,4,4,4,4,0,0,0,0,0,0,0,0,0,0,0,0,0,0,0,0,0,0,0,0,0,0,0,
0,0,0,0,0,0,0,0,0,0,0,0,0,3,4,4,5,0,0,0,0,0,0,0,0,0,0,0,0,0,0,0,0,0,0,0,0,0,3,4,4,5,0,0,0,0,0,0,0,0,0,0,0,0,0,0,0,0,0,0,3,4,4,5,0,0,0,0,0,0,0,0,98,4,4,99,0,0,0,0,0,0,0,0,0,0,0,0,0,3,4,4,4,4,4,4,4,4,4,4,4,4,4,17,0,0,0,0,0,0,0,0,0,0,0,0,0,0,0,0,0,0,0,0,0,0,0,
0,0,0,0,0,0,0,0,0,0,0,0,0,3,4,4,5,0,0,0,0,0,0,0,0,0,0,0,0,0,0,0,0,0,0,0,0,0,98,100,101,99,0,0,0,0,0,0,0,0,0,0,0,0,0,0,0,0,0,0,3,4,4,5,0,0,0,0,0,0,0,0,102,4,4,103,0,0,0,0,0,0,0,0,0,0,0,0,0,3,4,4,4,4,4,4,4,4,4,4,4,4,4,5,0,0,0,0,0,0,0,0,0,0,0,0,0,0,0,0,0,0,0,0,0,0,0,
0,0,0,0,0,0,0,0,0,0,0,0,0,3,4,4,5,0,0,0,0,0,0,0,0,0,0,0,0,0,0,0,0,0,0,0,0,0,102,100,101,103,0,0,0,0,0,0,0,0,0,0,0,0,0,0,0,0,0,0,3,4,4,5,0,0,0,0,0,0,0,0,104,4,4,105,0,0,0,0,0,0,0,0,0,0,0,0,0,3,4,4,17,18,18,18,18,18,18,18,19,4,4,5,0,0,0,0,0,0,0,0,0,0,0,0,0,0,0,0,0,0,0,0,0,0,0,
0,0,0,0,0,0,0,0,0,0,0,0,0,3,4,4,5,0,0,0,0,0,0,0,0,0,0,0,0,0,0,0,0,0,0,0,0,0,104,100,101,105,0,0,0,0,0,0,0,0,0,0,0,0,0,0,0,0,0,0,3,4,4,99,0,0,0,0,0,0,0,0,3,4,4,5,0,0,0,0,0,0,0,0,0,0,0,0,0,3,4,4,5,0,0,0,0,0,0,0,3,100,101,99,0,0,0,0,0,0,0,0,0,0,0,0,0,0,0,0,0,0,0,0,0,0,0,
0,0,0,0,0,0,0,0,0,0,0,0,0,3,4,4,5,0,0,0,0,0,0,0,0,0,0,0,0,0,0,0,0,0,0,0,0,0,3,4,4,5,0,0,0,0,0,0,0,0,0,0,0,0,0,0,0,0,0,0,3,4,4,103,0,0,0,0,0,0,0,0,3,4,4,5,0,0,0,0,0,0,0,0,0,0,0,0,0,3,4,4,5,0,0,0,0,0,0,0,3,100,101,105,0,0,0,0,0,0,0,0,0,0,0,0,0,0,0,0,0,0,0,0,0,0,0,
0,0,0,0,0,0,0,0,0,0,0,0,0,3,4,4,5,0,0,0,0,0,0,0,0,0,0,0,0,0,0,0,0,0,0,0,0,0,0,0,0,0,0,0,0,0,0,0,0,0,0,0,0,0,0,0,0,0,0,0,3,4,4,105,0,0,0,0,0,0,0,0,3,4,4,5,0,0,0,0,0,0,0,0,0,0,0,0,0,3,4,4,5,0,0,0,0,0,0,0,3,4,4,5,0,0,0,0,0,0,0,0,0,0,0,0,0,0,0,0,0,0,0,0,0,0,0,
0,0,0,0,0,0,0,0,0,0,0,0,0,3,4,4,5,0,0,0,0,0,0,0,0,0,0,0,0,0,0,0,0,0,0,0,0,0,0,0,0,0,0,0,0,0,0,0,0,0,0,0,0,0,0,0,0,0,0,0,3,54,54,5,0,0,0,0,0,0,0,0,3,4,4,5,0,0,0,0,0,0,0,0,0,0,0,0,0,3,4,4,5,0,0,0,0,0,0,0,3,4,4,5,0,0,0,0,0,0,0,0,0,0,0,0,0,0,0,0,0,0,0,0,0,0,0,
0,0,0,0,0,0,0,0,0,0,0,0,0,3,4,4,99,0,0,0,0,0,0,0,0,0,0,0,0,0,0,0,0,0,0,0,0,0,0,0,0,0,0,0,0,0,0,0,0,0,0,0,0,0,0,0,0,0,0,0,3,4,4,5,0,0,0,0,0,0,0,0,3,4,4,5,0,0,0,0,0,0,0,0,0,0,0,0,0,98,4,4,99,0,0,0,0,0,0,0,3,4,4,5,0,0,0,0,0,0,0,0,0,0,0,0,0,0,0,0,0,0,0,0,0,0,0,
0,0,0,0,0,0,0,0,0,0,0,0,0,3,4,4,103,0,0,0,0,0,0,0,0,0,0,0,0,0,0,0,0,0,0,0,0,0,0,0,0,0,0,0,0,0,0,0,0,0,0,0,0,0,0,0,0,0,0,0,3,4,4,5,0,0,0,0,0,0,0,0,3,4,4,5,0,0,0,0,0,0,0,0,0,0,0,0,0,104,4,4,105,0,0,0,0,0,0,0,101,4,4,5,0,0,0,0,0,0,0,0,0,0,0,0,0,0,0,0,0,0,0,0,0,0,0,
0,0,0,0,0,0,0,0,0,0,0,0,0,3,4,4,105,0,0,0,0,0,0,0,0,0,0,0,0,0,0,0,0,0,0,0,0,0,0,0,0,0,0,0,0,0,0,0,0,0,0,0,0,0,0,0,0,0,0,0,98,4,4,5,0,0,0,0,0,0,0,0,3,4,4,5,0,0,0,0,0,0,0,0,0,0,0,0,0,3,4,4,5,0,0,3,4,5,0,0,101,4,4,5,0,0,0,0,0,0,0,0,0,0,0,0,0,0,0,0,0,0,0,0,0,0,0,
0,0,0,0,0,0,0,0,0,0,0,0,0,3,4,4,5,0,0,0,0,0,0,0,0,0,0,0,0,0,0,0,0,0,0,0,0,0,0,0,0,0,0,0,0,0,0,0,0,0,0,0,0,0,0,0,0,0,0,0,102,4,4,99,0,0,0,0,0,0,0,0,3,4,4,5,0,0,0,0,0,0,0,0,0,0,0,0,0,3,4,4,72,36,36,73,4,72,36,36,73,4,4,5,0,0,0,0,0,0,0,0,0,0,0,0,0,0,0,0,0,0,0,0,0,0,0,
0,0,0,0,0,0,0,0,0,0,0,0,0,3,4,4,5,0,0,0,0,0,0,0,0,0,0,0,0,0,0,0,0,0,0,0,0,0,0,0,0,0,0,0,0,0,0,0,0,0,0,0,0,0,0,0,0,0,0,0,104,4,4,103,0,0,0,0,0,0,0,0,3,4,4,5,0,0,0,0,0,0,0,0,0,0,0,0,0,3,4,4,17,18,18,18,18,18,18,18,19,4,4,5,0,0,0,0,0,0,0,0,0,0,0,0,0,0,0,0,0,0,0,0,0,0,0,
0,0,0,0,0,0,0,0,0,0,0,0,0,3,4,4,5,0,0,0,0,0,0,0,0,0,0,0,0,0,0,0,0,0,0,0,0,0,0,0,0,0,0,0,0,0,0,0,0,0,0,0,0,0,0,0,0,0,0,0,3,4,4,105,0,0,0,0,0,0,0,0,3,4,4,5,0,0,0,0,0,0,0,0,0,0,0,0,0,3,4,4,5,0,0,0,0,0,0,0,3,4,4,5,0,0,0,0,0,0,0,0,0,0,0,0,0,0,0,0,0,0,0,0,0,0,0,
0,0,0,0,0,0,0,0,0,0,0,0,0,3,4,4,5,0,0,0,0,0,0,0,0,0,0,0,0,0,0,0,0,0,0,0,0,0,0,0,0,0,0,0,0,0,0,0,0,0,0,0,0,0,0,0,0,0,0,0,3,54,54,5,0,0,0,0,0,0,0,0,3,4,4,5,0,0,0,0,0,0,0,0,0,0,0,0,0,98,4,4,99,0,0,0,0,0,0,0,3,4,4,5,0,0,0,0,0,0,0,0,0,0,0,0,0,0,0,0,0,0,0,0,0,0,0,
0,0,0,0,0,0,0,0,0,0,0,0,0,3,4,4,5,0,0,0,0,0,0,0,0,0,0,0,0,0,0,0,0,0,0,0,0,0,0,0,0,0,0,0,0,0,0,0,0,0,0,0,0,0,0,0,0,0,0,0,3,4,4,5,0,0,0,0,0,0,0,0,98,4,4,99,0,0,0,0,0,0,0,0,0,0,0,0,0,104,4,4,105,0,0,0,0,0,0,0,3,4,4,5,0,0,0,0,0,0,0,0,0,0,0,0,0,0,0,0,0,0,0,0,0,0,0,
0,0,0,0,0,0,0,0,0,0,0,0,0,3,54,54,5,0,0,0,0,0,0,0,0,0,0,0,0,0,0,0,0,0,0,0,0,0,0,0,0,0,0,0,0,0,0,0,0,0,0,0,0,0,0,0,0,0,0,0,3,4,4,5,0,0,0,0,0,0,0,0,102,4,4,103,0,0,0,0,0,0,0,0,0,0,0,0,0,3,4,4,5,0,0,0,0,0,0,0,3,4,4,5,0,0,0,0,0,0,0,0,0,0,0,0,0,0,0,0,0,0,0,0,0,0,0,
0,0,0,0,0,0,0,0,0,0,0,0,0,98,100,101,99,0,0,0,0,0,0,0,0,0,0,0,0,0,0,0,0,0,0,0,0,0,0,0,0,0,0,0,0,0,0,0,0,0,0,0,0,0,0,0,0,0,0,0,3,4,4,5,0,0,0,0,0,0,0,0,104,4,4,105,0,0,0,0,0,0,0,0,0,0,0,0,0,3,4,4,5,0,0,3,4,5,0,0,3,4,4,5,0,0,0,0,0,0,0,0,0,0,0,0,0,0,0,0,0,0,0,0,0,0,0,
0,0,0,0,0,0,0,0,0,0,0,0,0,102,100,101,103,0,0,0,0,0,0,0,0,0,0,0,0,0,0,0,0,0,0,0,0,0,0,0,0,0,0,0,0,0,0,0,0,0,0,0,0,0,0,0,0,0,0,0,3,54,54,5,0,0,0,0,0,0,0,0,3,4,4,5,0,0,0,0,0,0,0,0,0,0,0,0,0,3,4,4,72,36,36,73,4,72,36,36,73,4,4,5,0,0,0,0,0,0,0,0,0,0,0,0,0,0,0,0,0,0,0,0,0,0,0,
0,0,0,0,0,0,0,0,0,0,0,0,0,104,100,101,105,0,0,0,0,0,0,0,0,0,0,0,0,0,0,0,0,0,0,0,0,0,0,0,0,0,0,0,0,0,0,0,0,0,0,0,0,0,0,0,0,0,0,0,98,4,4,5,0,0,0,0,0,0,0,0,3,4,4,5,0,0,0,0,0,0,0,0,0,0,0,0,0,3,4,4,17,18,18,18,18,18,18,18,19,4,4,5,0,0,0,0,0,0,0,0,0,0,0,0,0,0,0,0,0,0,0,0,0,0,0,
0,0,0,0,0,0,0,0,0,0,0,0,0,0,0,0,0,0,0,0,0,0,0,0,0,0,0,0,0,0,0,0,0,0,0,0,0,0,0,0,0,0,0,0,0,0,0,0,0,0,0,0,0,0,0,0,0,0,0,0,102,4,4,5,0,0,0,0,0,0,0,0,3,4,4,5,0,0,0,0,0,0,0,0,0,0,0,0,0,98,4,4,99,0,0,0,0,0,0,0,98,4,4,99,0,0,0,0,0,0,0,0,0,0,0,0,0,0,0,0,0,0,0,0,0,0,0,
0,0,0,0,0,0,0,0,0,0,0,0,0,0,0,0,0,0,0,0,0,0,0,0,0,0,0,0,0,0,0,0,0,0,0,0,0,0,0,0,0,0,0,0,0,0,0,0,0,0,0,0,0,0,0,0,0,0,0,0,104,4,4,5,0,0,96,3,5,96,0,0,3,4,4,5,0,0,0,0,0,0,0,0,0,0,0,0,0,104,4,4,105,0,0,0,0,0,0,0,102,4,4,103,0,0,0,0,0,0,0,0,0,0,0,0,0,0,0,0,0,0,0,0,0,0,0,
0,0,0,0,0,0,0,0,0,0,0,0,0,0,0,0,0,0,0,0,0,0,0,0,0,0,0,0,0,0,0,0,0,0,0,0,0,0,0,0,0,0,0,0,0,0,0,0,0,0,0,0,0,0,0,0,0,0,0,0,3,4,4,5,0,96,96,3,5,96,96,0,98,4,4,5,0,0,0,0,0,0,0,0,0,0,0,0,0,3,4,4,5,0,0,0,0,0,0,0,104,4,4,105,0,0,0,0,0,0,0,0,0,0,0,0,0,0,0,0,0,0,0,0,0,0,0,
0,0,0,0,0,0,0,0,0,0,0,0,0,0,0,0,0,0,0,0,0,0,0,0,0,0,0,0,0,0,0,0,0,0,0,0,0,0,0,0,0,0,0,0,0,0,0,0,0,0,0,0,0,0,0,0,0,0,0,0,3,4,4,5,96,96,96,3,5,96,96,96,3,4,4,5,0,3,5,0,0,3,4,5,0,0,3,5,0,3,4,4,5,0,0,3,0,5,0,0,3,4,4,5,0,0,0,0,0,0,0,0,0,0,0,0,0,0,0,0,0,0,0,0,0,0,0,
0,0,0,0,0,0,0,0,0,0,0,0,0,0,0,0,0,0,0,0,0,0,0,0,0,0,0,0,0,0,0,0,0,0,0,0,0,0,0,0,0,0,0,0,0,0,0,0,0,0,0,0,0,0,0,0,0,0,0,0,3,4,4,5,96,96,96,3,5,96,96,96,3,4,4,72,36,73,72,36,36,73,4,72,36,36,73,72,36,73,4,4,72,36,36,73,0,72,36,36,73,4,4,5,0,0,0,0,0,0,0,0,0,0,0,0,0,0,0,0,0,0,0,0,0,0,0,
0,0,0,0,0,0,0,0,0,0,0,0,0,0,0,0,0,0,0,0,0,0,0,0,0,0,0,0,0,0,0,0,0,0,0,0,0,0,0,0,0,0,0,0,0,0,0,0,0,0,0,0,0,0,0,0,0,0,0,0,3,4,4,5,3,4,5,3,5,3,4,5,3,4,4,4,4,4,4,4,4,4,4,4,4,4,4,4,4,4,4,4,4,4,4,4,4,4,4,4,4,4,4,5,0,0,0,0,0,0,0,0,0,0,0,0,0,0,0,0,0,0,0,0,0,0,0,
0,0,0,0,0,0,0,0,0,0,0,0,0,0,0,0,0,0,0,0,0,0,0,0,0,0,0,0,0,0,0,0,0,0,0,0,0,0,0,0,0,0,0,0,0,0,0,0,0,0,0,0,0,0,0,0,0,0,0,0,3,4,4,5,3,4,5,3,5,3,4,5,3,4,4,17,18,18,18,18,18,18,18,18,18,18,18,18,18,19,4,4,4,4,4,4,4,4,4,4,4,4,4,5,0,0,0,0,0,0,0,0,0,0,0,0,0,0,0,0,0,0,0,0,0,0,0,
0,0,0,0,0,0,0,0,0,0,0,0,0,0,0,0,0,0,0,0,0,0,0,0,0,0,0,0,0,0,0,0,0,0,0,0,0,0,0,0,0,0,0,0,0,0,0,0,0,0,0,0,0,0,0,0,0,0,0,0,0,0,0,0,0,0,0,0,0,0,0,0,0,0,0,0,0,0,0,0,0,0,0,0,0,0,0,0,0,3,4,4,4,4,4,4,4,4,4,4,4,4,4,5,0,0,0,0,0,0,0,0,0,0,0,0,0,0,0,0,0,0,0,0,0,0,0,
0,0,0,0,0,0,0,0,0,0,0,0,0,0,0,0,0,0,0,0,0,0,0,0,0,0,0,0,0,0,0,0,0,0,0,0,0,0,0,0,0,0,0,0,0,0,0,0,0,0,0,0,0,0,0,0,0,0,0,0,0,0,0,0,0,0,0,0,0,0,0,0,0,0,0,0,0,0,0,0,0,0,0,0,0,0,0,0,0,3,4,4,4,4,4,4,4,4,4,4,4,4,4,5,0,0,0,0,0,0,0,0,0,0,0,0,0,0,0,0,0,0,0,0,0,0,0,
0,0,0,0,0,0,0,0,0,0,0,0,0,0,0,0,0,0,0,0,0,0,0,0,0,0,0,0,0,0,0,0,0,0,0,0,0,0,0,0,0,0,0,0,0,0,0,0,0,0,0,0,0,0,0,0,0,0,0,0,0,0,0,0,0,0,0,0,0,0,0,0,0,0,0,0,0,0,0,0,0,0,0,0,0,0,0,0,0,3,4,4,4,4,4,4,4,4,4,4,4,4,4,5,0,0,0,0,0,0,0,0,0,0,0,0,0,0,0,0,0,0,0,0,0,0,0
</data>
 </layer>
</map>
