<?xml version="1.0" encoding="UTF-8"?>
<map version="1.10" tiledversion="1.11.2" orientation="orthogonal" renderorder="right-down" width="60" height="62" tilewidth="16" tileheight="16" infinite="0" nextlayerid="3" nextobjectid="1">
 <tileset firstgid="1" name="tiles" tilewidth="16" tileheight="16" tilecount="120" columns="11">
  <image source="gi.png" width="176" height="176"/>
  <tile id="0">
   <objectgroup draworder="index" id="2">
    <object id="1" x="0" y="0">
     <polygon points="0,0 16,0 16,16 0,16"/>
    </object>
   </objectgroup>
  </tile>
  <tile id="2">
   <objectgroup draworder="index" id="4">
    <object id="3" x="0" y="0">
     <polygon points="0,0 16,0 16,16 0,16"/>
    </object>
   </objectgroup>
  </tile>
  <tile id="3">
   <objectgroup draworder="index" id="2">
    <object id="1" x="0" y="0">
     <polygon points="0,0 16,0 16,16 0,16"/>
    </object>
   </objectgroup>
  </tile>
  <tile id="4">
   <objectgroup draworder="index" id="2">
    <object id="1" x="0" y="0">
     <polygon points="0,0 16,0 16,16 0,16"/>
    </object>
   </objectgroup>
  </tile>
  <tile id="46">
   <objectgroup draworder="index" id="2">
    <object id="1" x="0" y="0">
     <polygon points="0,0 16,0 16,16 0,16"/>
    </object>
   </objectgroup>
  </tile>
  <tile id="71">
   <objectgroup draworder="index" id="3">
    <object id="2" x="0" y="0">
     <polygon points="0,0 16,0 16,16 0,16"/>
    </object>
   </objectgroup>
  </tile>
  <tile id="35">
   <objectgroup draworder="index" id="2">
    <object id="1" x="0" y="0">
     <polygon points="0,0 16,0 16,16 0,16"/>
    </object>
   </objectgroup>
  </tile>
  <tile id="72">
   <objectgroup draworder="index" id="2">
    <object id="1" x="0" y="0">
     <polygon points="0,0 16,0 16,16 0,16"/>
    </object>
   </objectgroup>
  </tile>
  <tile id="16">
   <objectgroup draworder="index" id="2">
    <object id="1" x="0" y="0">
     <polygon points="0,0 16,0 16,16 0,16"/>
    </object>
   </objectgroup>
  </tile>
  <tile id="17">
   <objectgroup draworder="index" id="2">
    <object id="1" x="0" y="0">
     <polygon points="0,0 16,0 16,16 0,16"/>
    </object>
   </objectgroup>
  </tile>
  <tile id="18">
   <objectgroup draworder="index" id="2">
    <object id="1" x="0" y="0">
     <polygon points="0,0 16,0 16,16 0,16"/>
    </object>
   </objectgroup>
  </tile>
  <tile id="108">
   <objectgroup draworder="index" id="2">
    <object id="1" x="0" y="16">
     <polygon points="0,0 16,-8 16,0"/>
    </object>
   </objectgroup>
  </tile>
  <tile id="109">
   <objectgroup draworder="index" id="2">
    <object id="1" x="0" y="16">
     <polygon points="0,0 0,-8 16,-16 16,0"/>
    </object>
   </objectgroup>
  </tile>
  <tile id="39">
   <objectgroup draworder="index" id="2">
    <object id="1" x="0" y="0">
     <polygon points="0,0 16,0 16,16 0,16"/>
    </object>
   </objectgroup>
  </tile>
  <tile id="44">
   <objectgroup draworder="index" id="2">
    <object id="1" x="0" y="0">
     <polygon points="0,0 16,8 16,16 0,16"/>
    </object>
   </objectgroup>
  </tile>
  <tile id="45">
   <objectgroup draworder="index" id="2">
    <object id="1" x="0" y="8">
     <polygon points="0,0 16,8 0,8"/>
    </object>
   </objectgroup>
  </tile>
  <tile id="110">
   <properties>
    <property name="spikes" type="int" value="3"/>
   </properties>
  </tile>
  <tile id="36">
   <properties>
    <property name="spikes" type="int" value="2"/>
   </properties>
  </tile>
  <tile id="111">
   <objectgroup draworder="index" id="2">
    <object id="1" x="0" y="0">
     <polygon points="0,0 16,0 16,16 0,16"/>
    </object>
   </objectgroup>
  </tile>
  <tile id="68">
   <objectgroup draworder="index" id="2">
    <object id="1" x="0" y="0">
     <polygon points="0,0 16,0 16,16 0,16"/>
    </object>
   </objectgroup>
  </tile>
  <tile id="112">
   <objectgroup draworder="index" id="2">
    <object id="1" x="0" y="0">
     <polygon points="0,0 16,0 16,16 0,16"/>
    </object>
   </objectgroup>
  </tile>
  <tile id="52">
   <objectgroup draworder="index" id="3">
    <object id="2" x="0" y="0">
     <polygon points="0,0 16,0 16,16 0,16"/>
    </object>
   </objectgroup>
  </tile>
  <tile id="95">
   <objectgroup draworder="index" id="2">
    <object id="1" x="0" y="0">
     <polygon points="0,0 16,0 16,16 0,16"/>
    </object>
   </objectgroup>
  </tile>
  <tile id="113">
   <objectgroup draworder="index" id="2">
    <object id="1" x="0" y="0">
     <polygon points="0,0 16,0 16,16 0,16"/>
    </object>
   </objectgroup>
  </tile>
  <tile id="114">
   <objectgroup draworder="index" id="2">
    <object id="1" x="0" y="0">
     <polygon points="0,0 16,0 16,16 0,16"/>
    </object>
   </objectgroup>
  </tile>
  <tile id="49">
   <objectgroup draworder="index" id="2">
    <object id="1" x="0" y="0">
     <polygon points="0,0 16,0 16,16 0,16"/>
    </object>
   </objectgroup>
  </tile>
  <tile id="115">
   <objectgroup draworder="index" id="2">
    <object id="1" x="0" y="0">
     <polygon points="0,0 16,0 16,16 0,16"/>
    </object>
   </objectgroup>
  </tile>
  <tile id="53">
   <objectgroup draworder="index" id="2">
    <object id="1" x="0" y="0">
     <polygon points="0,0 16,0 16,16 0,16"/>
    </object>
   </objectgroup>
  </tile>
  <tile id="117">
   <objectgroup draworder="index" id="2">
    <object id="1" x="0" y="0">
     <polygon points="0,0 16,0 16,16 0,16"/>
    </object>
   </objectgroup>
  </tile>
  <tile id="96">
   <properties>
    <property name="spikes" type="int" value="0"/>
   </properties>
  </tile>
  <tile id="59">
   <objectgroup draworder="index" id="2">
    <object id="1" x="0" y="0">
     <polygon points="0,0 16,0 16,16 0,16"/>
    </object>
   </objectgroup>
  </tile>
  <tile id="51">
   <objectgroup draworder="index" id="2">
    <object id="1" x="0" y="0">
     <polygon points="0,0 16,0 16,16 0,16"/>
    </object>
   </objectgroup>
  </tile>
  <tile id="28">
   <objectgroup draworder="index" id="2">
    <object id="1" x="0" y="16">
     <properties>
      <property name="type" type="int" value="1"/>
     </properties>
     <polygon points="0,0 16,-8 16,0"/>
    </object>
   </objectgroup>
  </tile>
  <tile id="29">
   <objectgroup draworder="index" id="2">
    <object id="1" x="0" y="8">
     <properties>
      <property name="type" type="int" value="1"/>
     </properties>
     <polygon points="0,0 16,-8 16,0 0,8"/>
    </object>
   </objectgroup>
  </tile>
  <tile id="30">
   <objectgroup draworder="index" id="2">
    <object id="1" x="0" y="0">
     <properties>
      <property name="type" type="int" value="1"/>
     </properties>
     <polygon points="0,0 16,0 16,8 0,8"/>
    </object>
   </objectgroup>
  </tile>
  <tile id="32">
   <objectgroup draworder="index" id="2">
    <object id="1" x="0" y="0">
     <properties>
      <property name="type" type="int" value="1"/>
     </properties>
     <polygon points="0,0 16,0 0,8"/>
    </object>
   </objectgroup>
  </tile>
  <tile id="119">
   <properties>
    <property name="spikes" type="int" value="1"/>
   </properties>
  </tile>
  <tile id="105">
   <objectgroup draworder="index" id="2">
    <object id="1" x="0" y="0">
     <properties>
      <property name="type" type="int" value="4"/>
     </properties>
     <polygon points="0,0 16,0 16,16 0,16"/>
    </object>
   </objectgroup>
  </tile>
  </tileset>
 <layer id="1" name="layer0" width="60" height="62">
  <data encoding="csv">
3,4,4,4,4,5,7,8,10,6,7,7,8,2,6,7,8,3,4,4,5,10,7,9,6,7,8,6,7,7,7,8,7,7,7,9,2,10,7,7,9,2,10,2,10,7,8,6,7,7,7,8,6,7,8,2,3,4,4,5,
3,4,4,4,4,5,7,7,8,2,10,6,7,7,8,2,6,3,4,4,5,8,2,6,7,8,2,2,2,2,6,7,8,2,2,6,7,8,6,7,6,7,7,7,8,2,2,10,8,6,7,7,8,2,10,7,3,4,4,5,
3,4,4,4,4,5,9,2,10,7,7,9,2,10,7,7,11,3,81,81,81,2,2,2,2,2,2,2,2,2,6,9,2,10,7,8,2,2,2,9,2,10,6,7,9,2,9,2,10,2,2,2,2,2,2,2,3,4,4,5,
3,4,4,4,4,5,6,7,8,2,2,6,7,8,2,2,2,3,81,81,81,2,2,2,2,2,2,2,2,2,2,6,7,8,2,2,2,9,2,6,7,8,7,8,6,6,6,7,8,2,2,2,2,11,35,2,3,4,4,5,
3,4,4,4,4,5,2,2,2,2,2,2,2,2,2,2,2,3,81,81,5,47,2,2,2,2,2,2,2,2,2,2,2,47,3,4,4,5,47,9,2,10,7,8,2,6,7,9,2,10,7,9,2,10,34,35,3,4,4,5,
3,4,4,4,4,5,2,2,2,2,2,2,2,11,35,2,2,3,81,81,5,2,2,2,2,2,2,2,2,2,2,2,2,2,3,4,4,5,2,6,7,8,10,7,9,2,10,6,7,8,10,6,9,2,10,34,3,4,4,5,
3,4,4,4,4,5,2,2,2,2,2,2,2,2,34,35,2,3,81,81,5,2,2,2,2,2,2,2,2,2,2,2,2,2,3,4,4,5,7,9,2,10,8,2,6,7,8,2,6,7,8,13,6,7,8,7,3,4,4,5,
3,4,4,4,4,5,2,2,2,2,2,2,2,2,2,34,35,3,81,81,5,2,2,2,2,2,2,2,2,2,2,2,2,2,3,4,4,5,2,6,7,8,2,2,2,2,2,2,2,2,2,2,6,7,8,2,3,4,4,5,
3,4,4,4,4,5,2,2,2,2,2,2,2,2,2,2,44,3,81,81,5,2,2,2,2,2,2,2,2,2,2,2,2,2,3,32,32,32,2,2,2,2,3,4,5,2,2,2,2,3,4,4,5,9,2,10,3,4,4,5,
3,4,4,4,4,5,2,2,14,11,2,2,2,2,2,2,2,3,81,81,5,2,2,2,2,2,2,2,2,2,2,2,2,2,3,32,32,32,2,2,2,2,3,4,5,2,2,2,2,3,4,4,5,6,7,8,81,81,4,5,
3,4,4,4,4,5,2,14,22,2,2,2,2,2,2,2,2,3,81,81,5,2,2,2,2,2,2,2,2,2,11,35,2,2,3,32,32,72,36,36,36,36,73,4,72,36,36,36,36,73,4,4,72,36,36,36,73,81,4,5,
3,4,4,4,4,5,14,22,2,2,2,2,2,2,2,2,2,3,81,81,5,2,2,2,2,2,2,2,2,2,2,34,35,2,3,32,32,17,18,18,18,18,18,18,18,18,18,18,18,18,18,18,18,18,18,18,19,81,4,5,
3,4,4,4,4,5,22,2,2,2,2,2,2,2,109,110,1,3,81,81,5,40,45,46,2,2,2,2,2,2,2,2,34,35,3,32,32,5,111,2,2,2,2,2,2,2,2,2,2,37,3,4,4,4,4,5,3,81,4,5,
3,4,4,4,4,5,2,2,2,2,2,2,109,110,112,112,69,3,81,81,5,113,112,53,45,46,2,2,2,2,2,2,2,34,3,32,32,5,111,2,2,2,2,2,2,2,2,2,2,37,3,4,4,4,4,5,3,81,4,5,
3,4,4,4,4,5,2,2,2,2,2,2,112,112,113,3,5,81,81,81,81,3,5,113,112,53,14,11,2,2,2,2,2,2,3,32,32,5,111,2,2,2,2,2,2,2,2,2,2,37,3,4,4,4,4,72,73,81,4,5,
3,4,4,4,4,5,2,2,2,2,2,2,3,4,5,81,81,81,81,81,81,81,81,3,4,5,22,2,2,2,2,2,2,2,3,32,32,5,111,2,2,2,2,2,2,2,2,2,2,2,81,81,81,81,81,81,81,81,4,5,
3,4,4,4,4,5,2,2,2,2,2,2,3,4,5,81,81,81,81,81,81,81,81,3,4,5,2,2,2,2,2,2,2,2,3,32,32,72,36,36,36,36,36,2,2,36,36,36,36,36,73,4,4,4,4,17,19,4,4,5,
3,4,32,32,32,32,2,2,2,2,2,2,66,81,81,81,81,81,81,81,81,81,81,81,81,65,2,2,2,2,2,2,2,2,3,32,32,17,18,18,18,18,18,2,2,18,18,18,18,18,19,4,4,4,4,5,3,4,4,5,
3,4,32,32,32,32,2,2,2,2,2,2,66,81,81,81,81,96,114,115,96,81,81,81,81,65,2,2,2,2,2,2,2,2,3,32,32,5,111,2,2,2,2,2,2,2,2,2,2,37,3,4,4,4,4,5,3,4,4,5,
3,4,32,32,32,72,36,36,36,36,36,36,36,36,36,36,36,36,50,50,36,36,36,36,36,36,36,36,36,36,36,36,36,36,73,32,32,5,111,2,2,2,2,2,2,2,2,2,2,37,3,4,4,4,4,5,3,4,4,5,
3,4,32,32,32,4,4,17,18,18,18,18,18,18,18,18,18,18,18,18,18,18,18,18,18,18,18,18,18,18,18,18,18,18,19,32,32,5,111,2,2,3,17,116,116,19,5,2,2,37,3,4,4,4,4,5,3,4,4,5,
3,4,32,32,32,4,4,5,11,12,2,25,2,13,12,84,84,2,13,12,13,84,12,2,2,84,12,84,84,2,3,4,4,4,4,106,106,5,111,2,2,3,32,32,32,32,5,2,2,37,3,4,4,4,4,5,3,4,4,5,
3,4,32,32,32,4,4,5,2,2,2,2,2,2,2,2,2,2,2,2,2,2,2,2,2,2,2,2,2,2,3,17,116,116,116,32,32,5,111,2,2,3,32,32,32,32,32,2,2,37,3,4,4,4,4,5,3,4,4,5,
3,4,32,32,32,32,32,32,2,2,2,2,2,2,2,2,2,2,2,2,2,2,2,2,2,2,2,2,2,2,32,32,32,32,32,32,32,72,36,36,36,73,72,118,118,73,72,36,36,36,73,4,4,4,4,5,3,4,4,5,
3,4,32,32,32,32,32,32,2,2,2,2,2,2,2,2,2,2,2,2,2,2,2,2,2,2,2,2,2,2,32,32,32,32,32,32,32,17,18,18,18,18,18,18,18,18,18,18,18,18,19,4,4,4,4,5,3,4,4,5,
3,4,4,4,4,4,4,5,47,2,2,2,2,2,2,2,2,10,9,9,2,2,2,2,2,2,2,2,2,47,3,32,32,32,32,32,32,5,2,2,2,2,2,2,2,2,2,2,2,2,32,32,32,32,4,5,3,4,4,5,
3,4,4,4,4,4,4,5,97,97,97,97,97,97,97,97,3,32,32,32,5,97,97,97,97,97,97,97,97,97,3,32,32,32,32,32,32,32,2,2,2,2,2,2,2,2,2,2,2,2,32,32,32,32,4,5,3,4,4,5,
3,4,4,4,4,4,4,72,36,36,36,36,36,36,36,36,73,32,32,32,72,36,36,36,36,36,36,36,36,36,73,32,32,32,32,32,32,32,2,2,2,2,2,2,2,2,2,2,2,2,32,32,32,32,4,5,3,4,4,5,
3,4,4,4,4,4,4,17,18,18,18,18,18,18,18,18,18,106,106,106,18,18,18,18,18,18,18,18,18,18,19,72,118,118,118,118,73,5,1,1,1,40,1,1,1,1,40,1,1,1,3,32,32,32,4,5,3,4,4,5,
3,4,4,4,4,4,4,5,2,2,14,22,2,2,34,11,44,2,2,2,43,34,7,11,2,34,35,2,2,2,3,4,4,4,4,4,4,5,50,60,60,52,60,60,50,52,60,50,52,60,3,32,32,32,4,5,3,4,4,5,
3,4,4,4,4,4,4,5,2,14,22,2,2,2,2,2,2,2,2,2,2,2,2,2,2,2,34,35,2,2,3,4,4,4,4,4,4,5,47,47,47,47,47,47,47,47,47,47,47,47,3,32,32,32,4,5,3,4,4,5,
3,4,4,4,4,4,4,5,14,22,2,2,2,2,2,2,2,2,2,2,2,2,2,2,2,2,2,34,35,2,3,4,4,4,4,4,4,5,2,2,2,2,2,2,2,2,2,2,2,2,3,32,32,32,4,5,3,4,4,5,
3,4,4,4,4,4,4,5,22,2,2,2,2,2,2,2,2,2,2,2,2,2,2,2,2,2,2,2,34,35,3,4,4,4,4,4,4,5,2,2,2,2,2,2,2,2,2,2,2,2,3,32,32,32,4,5,3,4,4,5,
3,4,4,4,4,4,4,5,2,2,2,2,2,2,2,2,2,2,2,2,2,2,2,2,2,2,2,2,2,34,3,17,116,116,116,116,19,5,2,2,2,2,2,2,2,2,2,11,35,2,3,32,32,32,4,5,3,4,4,5,
3,4,4,4,4,4,4,5,2,2,2,2,2,2,2,2,2,2,2,2,2,2,2,2,2,2,2,2,2,2,32,32,32,32,32,32,32,32,2,2,2,2,2,2,2,2,2,2,34,35,3,32,32,32,4,5,3,4,4,5,
3,4,4,4,4,32,32,32,2,2,2,29,30,31,31,31,31,2,2,2,2,2,2,2,2,2,2,2,2,2,32,32,32,32,32,32,32,32,2,2,2,2,2,2,2,2,2,2,2,34,3,32,32,32,4,5,3,4,4,5,
3,4,4,4,4,32,32,32,2,29,30,33,2,2,2,2,2,2,2,2,2,2,2,2,2,2,2,2,29,30,3,4,118,118,118,118,73,5,3,5,2,2,2,2,2,2,2,2,2,2,3,32,32,32,4,5,3,4,4,5,
3,4,4,4,4,32,32,5,31,33,2,2,2,2,2,2,2,2,2,2,2,2,2,2,2,2,29,30,33,2,3,4,4,4,4,4,4,5,47,47,3,5,2,2,2,2,2,2,2,2,32,32,32,32,4,5,3,4,4,5,
3,4,4,4,4,32,32,5,2,2,2,2,2,2,2,2,2,2,2,2,29,30,31,31,31,31,33,2,2,2,3,4,4,4,4,4,4,5,81,81,96,47,3,5,2,2,2,2,2,2,32,32,32,32,4,5,3,4,4,5,
3,4,4,4,4,32,32,5,2,2,2,2,2,2,2,2,2,2,2,31,33,2,2,2,2,2,2,2,2,2,3,4,4,4,4,4,4,5,81,81,96,81,81,47,3,5,97,97,2,2,32,32,32,32,4,5,3,4,4,5,
3,4,4,4,4,32,32,5,2,2,2,2,2,2,2,2,2,2,2,2,2,2,2,2,2,2,2,2,2,2,3,4,4,4,4,4,4,5,81,81,96,81,81,96,81,47,3,5,97,97,3,4,4,4,4,5,3,4,4,5,
3,4,4,4,4,32,32,5,2,2,2,2,2,2,2,2,2,2,2,2,2,2,2,2,2,2,2,2,2,2,3,4,4,4,4,4,4,5,81,81,96,81,81,96,81,81,96,47,3,5,3,4,4,4,4,5,3,4,4,5,
3,4,4,4,4,32,32,5,2,2,3,5,2,2,2,2,2,2,2,2,2,2,2,2,2,2,2,2,2,2,3,4,4,4,4,4,4,5,81,81,96,81,81,96,81,81,96,81,81,81,3,4,4,4,4,5,3,4,4,5,
36,36,36,36,3,32,32,5,36,36,36,36,36,36,3,4,5,2,2,2,2,2,2,2,2,2,2,2,2,2,3,4,4,4,4,4,4,5,81,81,96,81,81,96,81,81,96,81,81,81,3,4,4,4,4,5,3,4,4,5,
18,18,18,18,3,106,106,5,18,18,18,18,18,18,3,4,5,2,2,2,2,2,2,2,2,2,2,2,2,2,3,17,116,116,116,116,19,5,81,81,96,81,81,81,81,81,96,81,81,81,3,4,4,4,4,5,3,4,4,5,
2,2,2,44,13,2,2,12,43,2,2,2,2,2,3,4,5,2,2,3,5,2,2,2,2,2,2,2,2,2,32,32,32,32,32,32,32,32,81,81,81,81,81,81,81,81,81,81,81,81,3,4,4,4,4,5,3,4,4,5,
2,2,2,2,2,2,2,2,2,2,2,2,2,2,3,4,5,2,2,3,5,2,2,3,5,2,2,2,2,2,32,32,32,32,32,32,32,32,81,81,81,81,81,81,81,81,81,81,81,81,32,32,32,32,4,5,3,4,4,5,
2,2,2,2,2,2,2,2,2,2,2,2,2,2,3,4,5,2,2,3,5,2,2,3,5,2,2,3,5,2,32,32,32,32,32,32,32,32,81,81,81,81,81,81,81,81,81,81,81,81,32,32,32,32,4,5,3,4,4,5,
2,2,2,2,2,2,2,2,2,2,2,2,2,2,3,4,5,97,97,3,5,97,97,3,5,97,97,3,5,2,32,32,32,32,32,32,32,32,81,81,81,81,81,81,81,81,81,81,81,81,32,32,32,32,4,5,3,4,4,5,
2,2,2,2,2,2,2,2,2,2,2,2,2,2,3,4,5,36,36,36,36,36,36,36,36,36,36,36,36,36,3,72,32,32,32,32,73,5,81,81,81,81,81,81,81,81,81,81,81,81,3,32,32,32,4,5,3,4,4,5,
2,2,2,2,2,2,2,2,2,2,2,2,2,2,3,4,5,18,18,18,18,18,18,18,18,18,18,18,18,18,3,4,32,32,32,32,4,5,97,97,97,97,97,97,97,97,97,97,97,97,3,32,32,32,4,5,3,4,4,5,
2,2,2,2,2,2,2,2,2,2,2,2,2,2,3,4,5,14,22,120,120,120,120,120,120,120,120,120,34,35,3,4,106,106,106,106,4,5,47,47,47,47,47,47,47,47,47,47,47,47,3,32,32,32,4,5,3,4,4,5,
2,2,2,2,2,2,2,2,2,2,2,2,2,2,3,4,5,43,10,9,2,12,2,9,2,10,2,9,2,44,32,32,32,32,32,32,32,32,13,10,2,81,81,12,10,13,81,81,13,6,3,32,32,32,4,5,3,4,4,5,
36,36,36,36,36,45,46,2,2,2,2,2,2,2,3,4,5,7,10,6,9,2,10,6,7,8,2,6,7,8,32,32,32,32,32,32,32,32,7,8,6,81,81,7,8,6,81,81,2,10,32,32,32,32,4,5,3,4,4,5,
18,18,18,18,18,6,53,45,46,2,2,2,2,2,32,32,32,12,10,8,6,7,6,9,2,2,10,8,12,2,32,32,32,32,32,32,32,32,2,2,2,81,81,2,2,2,81,81,7,8,32,32,32,32,4,5,3,4,4,5,
3,4,4,4,5,2,13,6,53,45,46,2,2,2,32,32,32,7,8,2,2,13,2,6,7,7,8,2,2,2,32,32,32,32,32,32,32,32,2,2,2,81,81,2,2,2,81,81,2,2,32,32,32,32,4,5,3,4,4,5,
3,4,4,4,5,2,2,2,13,6,53,1,40,40,3,4,5,47,47,2,2,2,2,2,2,2,2,2,47,47,3,4,4,4,4,4,4,5,2,2,2,81,81,2,2,2,81,81,2,2,32,32,32,32,4,5,3,4,4,5,
3,4,4,4,5,2,2,2,2,2,6,52,52,52,3,4,5,97,97,97,97,97,97,97,97,97,97,97,97,97,3,4,4,4,4,4,4,5,97,97,97,97,97,97,97,97,97,97,97,97,3,4,4,4,4,5,3,4,4,5,
3,4,4,4,5,2,2,2,2,2,13,6,52,52,3,4,5,36,36,36,36,36,36,36,36,36,36,36,36,36,3,4,4,4,4,4,4,5,36,36,36,36,36,36,36,36,36,36,36,36,3,4,4,4,4,5,3,4,4,5,
3,4,4,4,5,2,2,2,2,2,2,2,6,7,3,4,5,18,18,18,18,18,18,18,18,18,18,18,18,18,3,4,4,4,4,4,4,5,18,18,18,18,18,18,18,18,18,18,18,18,3,4,4,4,4,5,3,4,4,5,
3,4,4,4,5,2,2,2,2,2,2,2,2,2,3,4,5,36,36,36,36,36,36,36,36,36,36,36,36,36,3,4,4,4,4,4,4,5,36,36,36,36,36,36,36,36,36,36,36,36,3,4,4,4,4,5,3,4,4,5,
3,4,4,4,5,2,2,2,2,2,2,2,2,2,3,4,5,18,18,18,18,18,18,18,18,18,18,18,18,18,3,4,4,4,4,4,4,5,18,18,18,18,18,18,18,18,18,18,18,18,3,4,4,4,4,5,3,4,4,5
</data>
 </layer>
 <layer id="2" name="layer1" width="60" height="62">
  <properties>
   <property name="priority" type="bool" value="true"/>
  </properties>
  <data encoding="csv">
3,4,4,4,4,5,0,0,0,0,0,0,0,0,0,0,0,3,4,4,5,0,0,0,0,0,0,0,0,0,0,0,0,0,0,0,0,0,0,0,0,0,0,0,0,0,0,0,0,0,0,0,0,0,0,0,3,4,4,5,
3,4,4,4,4,5,0,0,0,0,0,0,0,0,0,0,0,3,4,4,5,0,0,0,0,0,0,0,0,0,0,0,0,0,0,0,0,0,0,0,0,0,0,0,0,0,0,0,0,0,0,0,0,0,0,0,3,4,4,5,
3,4,4,4,4,5,0,0,0,0,0,0,0,0,0,0,0,3,4,4,99,0,0,0,0,0,0,0,0,0,0,0,0,0,0,0,0,0,0,0,0,0,0,0,0,0,0,0,0,0,0,0,0,0,0,0,3,4,4,5,
3,4,4,4,4,5,0,0,0,0,0,0,0,0,0,0,0,3,4,4,105,0,0,0,0,0,0,0,0,0,0,0,0,0,0,0,0,0,0,0,0,0,0,0,0,0,0,0,0,0,0,0,0,0,0,0,3,4,4,5,
3,4,4,4,4,5,0,0,0,0,0,0,0,0,0,0,0,3,4,4,5,0,0,0,0,0,0,0,0,0,0,0,0,0,3,4,4,5,0,0,0,0,0,0,0,0,0,0,0,0,0,0,0,0,0,0,3,4,4,5,
3,4,4,4,4,5,0,0,0,0,0,0,0,0,0,0,0,3,4,4,5,0,0,0,0,0,0,0,0,0,0,0,0,0,3,4,4,5,0,0,0,0,0,0,0,0,0,0,0,0,0,0,0,0,0,0,3,4,4,5,
3,4,4,4,4,5,0,0,0,0,0,0,0,0,0,0,0,3,4,4,5,0,0,0,0,0,0,0,0,0,0,0,0,0,3,4,4,5,0,0,0,0,0,0,0,0,0,0,0,0,0,0,0,0,0,0,3,4,4,5,
3,4,4,4,4,5,0,0,0,0,0,0,0,0,0,0,0,3,4,4,5,0,0,0,0,0,0,0,0,0,0,0,0,0,3,4,4,5,0,0,0,0,0,0,0,0,0,0,0,0,0,0,0,0,0,0,3,4,4,5,
3,4,4,4,4,5,0,0,0,0,0,0,0,0,0,0,0,3,4,4,5,0,0,0,0,0,0,0,0,0,0,0,0,0,3,4,4,99,0,0,0,0,3,4,5,0,0,0,0,3,4,4,5,0,0,0,3,4,4,5,
3,4,4,4,4,5,0,0,0,0,0,0,0,0,0,0,0,3,4,4,5,0,0,0,0,0,0,0,0,0,0,0,0,0,3,4,4,105,0,0,0,0,3,4,5,0,0,0,0,3,4,4,5,0,0,0,0,4,4,5,
3,4,4,4,4,5,0,0,0,0,0,0,0,0,0,0,0,3,4,4,5,0,0,0,0,0,0,0,0,0,0,0,0,0,3,4,4,72,36,36,36,36,73,4,72,36,36,36,36,73,4,4,72,36,36,36,73,4,4,5,
3,4,4,4,4,5,0,0,0,0,0,0,0,0,0,0,0,3,4,4,5,0,0,0,0,0,0,0,0,0,0,0,0,0,3,4,4,17,18,18,18,18,18,18,18,18,18,18,18,18,18,18,18,18,18,18,19,4,4,5,
3,4,4,4,4,5,0,0,0,0,0,0,0,0,0,0,0,3,4,4,5,0,0,0,0,0,0,0,0,0,0,0,0,0,3,4,4,5,0,0,0,0,0,0,0,0,0,0,0,0,3,4,4,4,4,5,3,4,4,5,
3,4,4,4,4,5,0,0,0,0,0,0,0,0,0,0,0,3,4,4,5,0,0,0,0,0,0,0,0,0,0,0,0,0,3,4,4,5,0,0,0,0,0,0,0,0,0,0,0,0,3,4,4,4,4,5,3,4,4,5,
3,4,4,4,4,5,0,0,0,0,0,0,0,0,0,0,0,0,0,0,0,0,0,0,0,0,0,0,0,0,0,0,0,0,3,4,4,5,0,0,0,0,0,0,0,0,0,0,0,0,3,4,4,4,4,72,73,4,4,5,
3,4,4,4,4,5,0,0,0,0,0,0,0,0,0,0,0,0,0,0,0,0,0,0,0,0,0,0,0,0,0,0,0,0,3,4,4,5,0,0,0,0,0,0,0,0,0,0,0,0,98,4,4,4,4,4,4,4,4,5,
3,4,4,4,4,5,0,0,0,0,0,0,0,0,0,0,0,0,0,0,0,0,0,0,0,0,0,0,0,0,0,0,0,0,3,4,4,72,0,0,0,0,0,0,0,0,0,0,0,0,73,4,4,4,4,17,19,4,4,5,
3,4,101,101,101,99,0,0,0,0,0,0,0,0,0,0,0,0,0,0,0,0,0,0,0,0,0,0,0,0,0,0,0,0,3,4,4,17,0,0,0,0,0,0,0,0,0,0,0,0,19,4,4,4,4,5,3,4,4,5,
3,4,101,101,101,105,0,0,0,0,0,0,0,0,0,0,0,0,0,0,0,0,0,0,0,0,0,0,0,0,0,0,0,0,3,4,4,5,0,0,0,0,0,0,0,0,0,0,0,0,3,4,4,4,4,5,3,4,4,5,
3,4,4,4,4,72,36,36,0,0,0,0,0,0,0,0,0,0,0,0,0,0,0,0,0,0,0,0,0,0,0,0,0,0,73,4,4,5,0,0,0,0,0,0,0,0,0,0,0,0,3,4,4,4,4,5,3,4,4,5,
3,4,101,101,101,4,4,17,0,0,0,0,0,0,0,0,0,0,0,0,0,0,0,0,0,0,0,0,0,0,0,0,0,0,19,4,4,5,0,0,0,3,17,116,116,19,5,0,0,0,3,4,4,4,4,5,3,4,4,5,
3,4,101,101,101,4,4,5,0,0,0,0,0,0,0,0,0,0,0,0,0,0,0,0,0,0,0,0,0,0,3,4,4,4,4,54,54,5,0,0,0,3,117,0,0,101,5,0,0,0,3,4,4,4,4,5,3,4,4,5,
3,4,4,4,4,4,4,5,0,0,0,0,0,0,0,0,0,0,0,0,0,0,0,0,0,0,0,0,0,0,3,17,116,116,116,117,101,5,0,0,0,3,117,0,0,101,99,0,0,0,3,4,4,4,4,5,3,4,4,5,
3,4,101,101,101,4,4,99,0,0,0,0,0,0,0,0,0,0,0,0,0,0,0,0,0,0,0,0,0,0,98,117,0,0,0,0,101,72,36,36,36,73,72,118,118,73,72,36,36,36,73,4,4,4,4,5,3,4,4,5,
3,4,101,101,101,4,4,105,0,0,0,0,0,0,0,0,0,0,0,0,0,0,0,0,0,0,0,0,0,0,104,117,0,0,0,0,101,17,18,18,18,18,18,18,18,18,18,18,18,18,19,4,4,4,4,5,3,4,4,5,
3,4,4,4,4,4,4,5,0,0,0,0,0,0,0,0,0,0,0,0,0,0,0,0,0,0,0,0,0,0,3,117,0,0,0,0,101,5,0,0,0,0,0,0,0,0,0,0,0,0,98,117,117,117,4,5,3,4,4,5,
3,4,4,4,4,4,4,5,0,0,0,0,0,0,0,0,3,4,4,4,5,0,0,0,0,0,0,0,0,0,3,117,0,0,0,0,101,99,0,0,0,0,0,0,0,0,0,0,0,0,102,117,117,117,4,5,3,4,4,5,
3,4,4,4,4,4,4,72,36,36,36,36,36,36,36,36,73,4,4,4,72,36,36,36,36,36,36,36,36,36,73,117,0,0,0,0,101,105,0,0,0,0,0,0,0,0,0,0,0,0,104,117,117,117,4,5,3,4,4,5,
3,4,4,4,4,4,4,17,18,18,18,18,18,18,18,18,18,54,54,54,18,18,18,18,18,18,18,18,18,18,19,72,118,118,118,118,73,5,0,0,0,0,0,0,0,0,0,0,0,0,3,4,4,4,4,5,3,4,4,5,
3,4,4,4,4,4,4,5,0,0,0,0,0,0,0,0,0,0,0,0,0,0,0,0,0,0,0,0,0,0,3,4,4,4,4,4,4,5,0,0,0,0,0,0,0,0,0,0,0,0,3,4,4,4,4,5,3,4,4,5,
3,4,4,4,4,4,4,5,0,0,0,0,0,0,0,0,0,0,0,0,0,0,0,0,0,0,0,0,0,0,3,4,4,4,4,4,4,5,0,0,0,0,0,0,0,0,0,0,0,0,3,117,117,117,4,5,3,4,4,5,
3,4,4,4,4,4,4,5,0,0,0,0,0,0,0,0,0,0,0,0,0,0,0,0,0,0,0,0,0,0,3,4,4,4,4,4,4,5,0,0,0,0,0,0,0,0,0,0,0,0,3,117,117,117,4,5,3,4,4,5,
3,4,4,4,4,4,4,5,0,0,0,0,0,0,0,0,0,0,0,0,0,0,0,0,0,0,0,0,0,0,3,4,4,4,4,4,4,5,0,0,0,0,0,0,0,0,0,0,0,0,3,4,4,4,4,5,3,4,4,5,
3,4,4,4,4,4,4,5,0,0,0,0,0,0,0,0,0,0,0,0,0,0,0,0,0,0,0,0,0,0,3,17,116,116,116,116,19,5,0,0,0,0,0,0,0,0,0,0,0,0,3,4,4,4,4,5,3,4,4,5,
3,4,4,4,4,4,4,5,0,0,0,0,0,0,0,0,0,0,0,0,0,0,0,0,0,0,0,0,0,0,98,117,0,0,0,0,101,99,0,0,0,0,0,0,0,0,0,0,0,0,3,117,117,117,4,5,3,4,4,5,
3,4,4,4,4,4,4,99,0,0,0,0,0,0,0,0,0,0,0,0,0,0,0,0,0,0,0,0,0,0,104,117,0,0,0,0,101,105,0,0,0,0,0,0,0,0,0,0,0,0,3,117,117,117,4,5,3,4,4,5,
3,4,4,4,4,4,4,105,0,0,0,0,0,0,0,0,0,0,0,0,0,0,0,0,0,0,0,0,0,0,3,4,118,118,118,118,73,5,0,0,0,0,0,0,0,0,0,0,0,0,3,4,4,4,4,5,3,4,4,5,
3,4,4,4,4,4,4,5,0,0,0,0,0,0,0,0,0,0,0,0,0,0,0,0,0,0,0,0,0,0,3,4,4,4,4,4,4,5,0,0,0,0,0,0,0,0,0,0,0,0,0,0,117,117,4,5,3,4,4,5,
3,4,4,4,4,4,4,5,0,0,0,0,0,0,0,0,0,0,0,0,0,0,0,0,0,0,0,0,0,0,3,4,4,4,4,4,4,5,0,0,0,0,0,0,0,0,0,0,0,0,0,0,117,117,4,5,3,4,4,5,
3,4,4,4,4,4,4,5,0,0,0,0,0,0,0,0,0,0,0,0,0,0,0,0,0,0,0,0,0,0,3,4,4,4,4,4,4,5,0,0,0,0,0,0,0,0,0,0,0,0,0,0,117,117,4,5,3,4,4,5,
3,4,4,4,4,4,4,5,0,0,0,0,0,0,0,0,0,0,0,0,0,0,0,0,0,0,0,0,0,0,3,4,4,4,4,4,4,5,0,0,0,0,0,0,0,0,0,0,0,0,3,4,4,4,4,5,3,4,4,5,
3,4,4,4,4,4,4,5,0,0,0,0,0,0,0,0,0,0,0,0,0,0,0,0,0,0,0,0,0,0,3,4,4,4,4,4,4,5,0,0,0,0,0,0,0,0,0,0,0,0,3,4,4,4,4,5,3,4,4,5,
3,4,4,4,4,4,4,5,0,0,0,0,0,0,0,0,0,0,0,0,0,0,0,0,0,0,0,0,0,0,3,4,4,4,4,4,4,5,0,0,0,0,0,0,0,0,0,0,0,0,3,4,4,4,4,5,3,4,4,5,
36,36,36,36,3,4,4,5,0,0,0,0,0,0,3,4,5,0,0,0,0,0,0,0,0,0,0,0,0,0,3,4,4,4,4,4,4,5,0,0,0,0,0,0,0,0,0,0,0,0,3,4,4,4,4,5,3,4,4,5,
18,18,18,18,3,54,54,5,0,0,0,0,0,0,3,4,5,0,0,0,0,0,0,0,0,0,0,0,0,0,3,17,116,116,116,116,19,5,0,0,0,0,0,0,0,0,0,0,0,0,3,4,4,4,4,5,3,4,4,5,
0,0,0,0,0,0,0,0,0,0,0,0,0,0,3,4,5,0,0,0,0,0,0,0,0,0,0,0,0,0,98,117,0,0,0,0,101,99,0,0,0,0,0,0,0,0,0,0,0,0,3,4,4,4,4,5,3,4,4,5,
0,0,0,0,0,0,0,0,0,0,0,0,0,0,3,4,5,0,0,0,0,0,0,0,0,0,0,0,0,0,102,117,0,0,0,0,101,103,0,0,0,0,0,0,0,0,0,0,0,0,98,117,117,117,4,5,3,4,4,5,
0,0,0,0,0,0,0,0,0,0,0,0,0,0,3,4,5,0,0,0,0,0,0,0,0,0,0,0,0,0,102,117,0,0,0,0,101,103,0,0,0,0,0,0,0,0,0,0,0,0,102,117,117,117,4,5,3,4,4,5,
0,0,0,0,0,0,0,0,0,0,0,0,0,0,3,4,5,0,0,0,0,0,0,0,0,0,0,0,0,0,104,117,0,0,0,0,101,105,0,0,0,0,0,0,0,0,0,0,0,0,104,117,117,117,4,5,3,4,4,5,
0,0,0,0,0,0,0,0,0,0,0,0,0,0,3,4,5,0,0,0,0,0,0,0,0,0,0,0,0,0,3,72,119,119,119,119,73,5,0,0,0,0,0,0,0,0,0,0,0,0,3,4,4,4,4,5,3,4,4,5,
0,0,0,0,0,0,0,0,0,0,0,0,0,0,3,4,5,0,0,0,0,0,0,0,0,0,0,0,0,0,3,4,4,4,4,4,4,5,0,0,0,0,0,0,0,0,0,0,0,0,3,117,117,117,4,5,3,4,4,5,
0,0,0,0,0,0,0,0,0,0,0,0,0,0,3,4,5,0,0,0,0,0,0,0,0,0,0,0,0,0,3,4,54,54,54,54,4,5,0,0,0,0,0,0,0,0,0,0,0,0,3,117,117,117,4,5,3,4,4,5,
0,0,0,0,0,0,0,0,0,0,0,0,0,0,3,4,5,0,0,0,0,0,0,0,0,0,0,0,0,0,98,117,0,0,0,0,101,99,0,0,0,0,0,0,0,0,0,0,0,0,3,4,4,4,4,5,3,4,4,5,
0,0,0,0,0,0,0,0,0,0,0,0,0,0,3,4,5,0,0,0,0,0,0,0,0,0,0,0,0,0,102,117,0,0,0,0,101,103,0,0,0,0,0,0,0,0,0,0,0,0,98,117,117,117,4,5,3,4,4,5,
0,0,0,0,0,0,0,0,0,0,0,0,0,0,98,4,99,0,0,0,0,0,0,0,0,0,0,0,0,0,102,117,0,0,0,0,101,103,0,0,0,0,0,0,0,0,0,0,0,0,102,117,117,117,4,5,3,4,4,5,
0,0,0,0,0,0,0,0,0,0,0,0,0,0,104,4,105,0,0,0,0,0,0,0,0,0,0,0,0,0,104,117,0,0,0,0,101,105,0,0,0,0,0,0,0,0,0,0,0,0,102,117,117,117,4,5,3,4,4,5,
0,0,0,0,0,0,0,0,0,0,0,0,0,0,3,4,5,0,0,0,0,0,0,0,0,0,0,0,0,0,3,4,4,4,4,4,4,5,0,0,0,0,0,0,0,0,0,0,0,0,104,117,117,117,4,5,3,4,4,5,
0,0,0,0,0,0,0,0,0,0,0,0,0,0,3,4,5,0,0,0,0,0,0,0,0,0,0,0,0,0,3,4,4,4,4,4,4,5,0,0,0,0,0,0,0,0,0,0,0,0,3,4,4,4,4,5,3,4,4,5,
0,0,0,0,0,0,0,0,0,0,0,0,0,0,3,4,5,0,0,0,0,0,0,0,0,0,0,0,0,0,3,4,4,4,4,4,4,5,0,0,0,0,0,0,0,0,0,0,0,0,3,4,4,4,4,5,3,4,4,5,
0,0,0,0,0,0,0,0,0,0,0,0,0,0,3,4,5,0,0,0,0,0,0,0,0,0,0,0,0,0,3,4,4,4,4,4,4,5,0,0,0,0,0,0,0,0,0,0,0,0,3,4,4,4,4,5,3,4,4,5,
0,0,0,0,0,0,0,0,0,0,0,0,0,0,3,4,5,0,0,0,0,0,0,0,0,0,0,0,0,0,3,4,4,4,4,4,4,5,0,0,0,0,0,0,0,0,0,0,0,0,3,4,4,4,4,5,3,4,4,5,
0,0,0,0,0,0,0,0,0,0,0,0,0,0,3,4,5,0,0,0,0,0,0,0,0,0,0,0,0,0,3,4,4,4,4,4,4,5,0,0,0,0,0,0,0,0,0,0,0,0,3,4,4,4,4,5,3,4,4,5
</data>
 </layer>
</map>
